(G-CODE GENERATED BY FLATCAM v8.994 - www.flatcam.org - Version Date: 2020/11/7)

(Name: Alignment Drills_cnc)
(Type: G-code from Geometry)
(Units: MM)

(Created on Friday, 27 January 2023 at 11:20)

(This preprocessor is used with a motion controller loaded with GRBL firmware.)
(It is configured to be compatible with almost any version of GRBL firmware.)


(TOOLS DIAMETER: )
(Tool: 1 -> Dia: 1.0)

(FEEDRATE Z: )
(Tool: 1 -> Feedrate: 50.0)

(FEEDRATE RAPIDS: )
(Tool: 1 -> Feedrate Rapids: 1500)

(Z_CUT: )
(Tool: 1 -> Z_Cut: -6.5)

(Tools Offset: )
(Tool: 1 -> Offset Z: 0.0)

(Z_MOVE: )
(Tool: 1 -> Z_Move: 2.0)

(Z Toolchange: 15 mm)
(X,Y Toolchange: 0.0000, 0.0000 mm)
(Z Start: None mm)
(Z End: 0.5 mm)
(X,Y End: None mm)
(Steps per circle: 64)
(Steps per circle: 64)
(Preprocessor Excellon: grbl_11)

(X range:  -40.5000 ...   40.5000  mm)
(Y range:  -16.5000 ...   16.5000  mm)

(Spindle Speed: 10000 RPM)
G21
G90
G17
G94


G01 F50.00

M5             
G00 Z15.0000
G00 X0.0000 Y0.0000                
T1
M6
(MSG, Change to Tool Dia = 1.0000 ||| Total drills for tool T1 = 4)
M0
G00 Z15.0000

G01 F50.00
M03 S10000
G00 X-40.0000 Y16.0000
G01 Z-6.5000
G01 Z0
G00 Z2.0000
G00 X-40.0000 Y-16.0000
G01 Z-6.5000
G01 Z0
G00 Z2.0000
G00 X40.0000 Y-15.0000
G01 Z-6.5000
G01 Z0
G00 Z2.0000
G00 X40.0000 Y15.0000
G01 Z-6.5000
G01 Z0
G00 Z2.0000
M05
G00 Z0.50


