(G-CODE GENERATED BY FLATCAM v8.994 - www.flatcam.org - Version Date: 2020/11/7)

(Name: PCB2.GBL_iso_combined_cnc)
(Type: G-code from Geometry)
(Units: MM)

(Created on Friday, 27 January 2023 at 11:21)

(This preprocessor is used with a motion controller loaded with GRBL firmware.)
(It is configured to be compatible with almost any version of GRBL firmware.)

(TOOL DIAMETER: 0.2155 mm)
(Feedrate_XY: 80.0 mm/min)
(Feedrate_Z: 100.0 mm/min)
(Feedrate rapids 1500.0 mm/min)

(Z_Cut: -0.1 mm)
(Z_Move: 2.0 mm)
(Z Start: None mm)
(Z End: 15.0 mm)
(X,Y End: None mm)
(Steps per circle: 64)
(Steps per circle: 64)
(Preprocessor Geometry: grbl_11)

(X range:  -19.0307 ...   23.3597  mm)
(Y range:  -21.0627 ...   21.9517  mm)

(Spindle Speed: 10000.0 RPM)
G21
G90
G17
G94


G01 F80.00

M5             
G00 Z15.0000
G00 X0.0000 Y0.0000                
T1
M6
(MSG, Change to Tool Dia = 0.2155)
M0
G00 Z15.0000

M03 S10000.0
G01 F80.00
G00 X3.3699 Y-0.9337
G01 F100.00
G01 Z-0.1000
G01 F80.00
G01 X2.1197 Y-0.9336 F80.00
G01 X2.1091 Y-0.9344 F80.00
G01 X2.1013 Y-0.9356 F80.00
G01 X1.9050 Y-0.9747 F80.00
G01 X1.8973 Y-0.9766 F80.00
G01 X1.8897 Y-0.9789 F80.00
G01 X1.7000 Y-1.0573 F80.00
G01 X1.6904 Y-1.0619 F80.00
G01 X1.6813 Y-1.0673 F80.00
G01 X1.5148 Y-1.1786 F80.00
G01 X1.5063 Y-1.1849 F80.00
G01 X1.4985 Y-1.1920 F80.00
G01 X1.3570 Y-1.3335 F80.00
G01 X1.3499 Y-1.3414 F80.00
G01 X1.3436 Y-1.3499 F80.00
G01 X1.2325 Y-1.5163 F80.00
G01 X1.2271 Y-1.5253 F80.00
G01 X1.2226 Y-1.5349 F80.00
G01 X1.1460 Y-1.7198 F80.00
G01 X1.1416 Y-1.7323 F80.00
G01 X1.1398 Y-1.7400 F80.00
G01 X1.1008 Y-1.9364 F80.00
G01 X1.0993 Y-1.9469 F80.00
G01 X1.0988 Y-1.9548 F80.00
G01 X1.0987 Y-4.2144 F80.00
G01 X1.0992 Y-4.2250 F80.00
G01 X1.1007 Y-4.2354 F80.00
G01 X1.1507 Y-4.4860 F80.00
G01 X1.1529 Y-4.4936 F80.00
G01 X1.1557 Y-4.5011 F80.00
G01 X1.2515 Y-4.7322 F80.00
G01 X1.2560 Y-4.7417 F80.00
G01 X1.2614 Y-4.7508 F80.00
G01 X1.4004 Y-4.9588 F80.00
G01 X1.4067 Y-4.9673 F80.00
G01 X1.4138 Y-4.9751 F80.00
G01 X1.5907 Y-5.1520 F80.00
G01 X1.5985 Y-5.1591 F80.00
G01 X1.6070 Y-5.1654 F80.00
G01 X1.8150 Y-5.3044 F80.00
G01 X1.8241 Y-5.3098 F80.00
G01 X1.8337 Y-5.3143 F80.00
G01 X2.0649 Y-5.4101 F80.00
G01 X2.0774 Y-5.4144 F80.00
G01 X2.0851 Y-5.4163 F80.00
G01 X2.3304 Y-5.4651 F80.00
G01 X2.3408 Y-5.4666 F80.00
G01 X2.3514 Y-5.4671 F80.00
G01 X3.4806 Y-5.4671 F80.00
G01 X3.4886 Y-5.4666 F80.00
G01 X3.4990 Y-5.4651 F80.00
G01 X3.7199 Y-5.4212 F80.00
G01 X3.7327 Y-5.4178 F80.00
G01 X3.7402 Y-5.4150 F80.00
G01 X3.9482 Y-5.3288 F80.00
G01 X3.9577 Y-5.3243 F80.00
G01 X3.9668 Y-5.3189 F80.00
G01 X4.1540 Y-5.1938 F80.00
G01 X4.1625 Y-5.1875 F80.00
G01 X4.1703 Y-5.1804 F80.00
G01 X4.3295 Y-5.0212 F80.00
G01 X4.3366 Y-5.0134 F80.00
G01 X4.3429 Y-5.0049 F80.00
G01 X4.4680 Y-4.8177 F80.00
G01 X4.4734 Y-4.8086 F80.00
G01 X4.4780 Y-4.7990 F80.00
G01 X4.5641 Y-4.5909 F80.00
G01 X4.5684 Y-4.5784 F80.00
G01 X4.5702 Y-4.5707 F80.00
G01 X4.6141 Y-4.3499 F80.00
G01 X4.6153 Y-4.3421 F80.00
G01 X4.6161 Y-4.3315 F80.00
G01 X4.6161 Y-2.0717 F80.00
G01 X4.6156 Y-2.0611 F80.00
G01 X4.6141 Y-2.0507 F80.00
G01 X4.5702 Y-1.8299 F80.00
G01 X4.5668 Y-1.8171 F80.00
G01 X4.5640 Y-1.8096 F80.00
G01 X4.4778 Y-1.6017 F80.00
G01 X4.4733 Y-1.5922 F80.00
G01 X4.4679 Y-1.5831 F80.00
G01 X4.3428 Y-1.3959 F80.00
G01 X4.3365 Y-1.3874 F80.00
G01 X4.3294 Y-1.3796 F80.00
G01 X4.1702 Y-1.2204 F80.00
G01 X4.1644 Y-1.2150 F80.00
G01 X4.1582 Y-1.2101 F80.00
G01 X3.9668 Y-1.0819 F80.00
G01 X3.9577 Y-1.0765 F80.00
G01 X3.9481 Y-1.0720 F80.00
G01 X3.7351 Y-0.9838 F80.00
G01 X3.7275 Y-0.9815 F80.00
G01 X3.7198 Y-0.9796 F80.00
G01 X3.4938 Y-0.9348 F80.00
G01 X3.4859 Y-0.9339 F80.00
G01 X3.4780 Y-0.9337 F80.00
G01 X3.3699 Y-0.9337 F80.00
G00 Z2.0000
G00 X8.5769 Y-0.9337
G01 F100.00
G01 Z-0.1000
G01 F80.00
G01 X7.3267 Y-0.9336 F80.00
G01 X7.3161 Y-0.9344 F80.00
G01 X7.3083 Y-0.9356 F80.00
G01 X7.1120 Y-0.9747 F80.00
G01 X7.1043 Y-0.9766 F80.00
G01 X7.0967 Y-0.9789 F80.00
G01 X6.9070 Y-1.0573 F80.00
G01 X6.8974 Y-1.0619 F80.00
G01 X6.8883 Y-1.0673 F80.00
G01 X6.7218 Y-1.1786 F80.00
G01 X6.7133 Y-1.1849 F80.00
G01 X6.7055 Y-1.1920 F80.00
G01 X6.5640 Y-1.3335 F80.00
G01 X6.5569 Y-1.3414 F80.00
G01 X6.5506 Y-1.3499 F80.00
G01 X6.4395 Y-1.5163 F80.00
G01 X6.4341 Y-1.5253 F80.00
G01 X6.4296 Y-1.5349 F80.00
G01 X6.3530 Y-1.7198 F80.00
G01 X6.3486 Y-1.7323 F80.00
G01 X6.3468 Y-1.7400 F80.00
G01 X6.3078 Y-1.9364 F80.00
G01 X6.3066 Y-1.9442 F80.00
G01 X6.3058 Y-1.9548 F80.00
G01 X6.3057 Y-4.2144 F80.00
G01 X6.3062 Y-4.2250 F80.00
G01 X6.3077 Y-4.2354 F80.00
G01 X6.3577 Y-4.4860 F80.00
G01 X6.3599 Y-4.4936 F80.00
G01 X6.3627 Y-4.5011 F80.00
G01 X6.4585 Y-4.7322 F80.00
G01 X6.4630 Y-4.7417 F80.00
G01 X6.4684 Y-4.7508 F80.00
G01 X6.6074 Y-4.9588 F80.00
G01 X6.6137 Y-4.9673 F80.00
G01 X6.6208 Y-4.9751 F80.00
G01 X6.7977 Y-5.1520 F80.00
G01 X6.8055 Y-5.1591 F80.00
G01 X6.8140 Y-5.1654 F80.00
G01 X7.0220 Y-5.3044 F80.00
G01 X7.0311 Y-5.3098 F80.00
G01 X7.0406 Y-5.3143 F80.00
G01 X7.2717 Y-5.4101 F80.00
G01 X7.2843 Y-5.4144 F80.00
G01 X7.2920 Y-5.4163 F80.00
G01 X7.5374 Y-5.4651 F80.00
G01 X7.5478 Y-5.4666 F80.00
G01 X7.5584 Y-5.4671 F80.00
G01 X8.6877 Y-5.4671 F80.00
G01 X8.6957 Y-5.4666 F80.00
G01 X8.7061 Y-5.4651 F80.00
G01 X8.9269 Y-5.4212 F80.00
G01 X8.9397 Y-5.4178 F80.00
G01 X8.9472 Y-5.4150 F80.00
G01 X9.1552 Y-5.3288 F80.00
G01 X9.1647 Y-5.3243 F80.00
G01 X9.1738 Y-5.3189 F80.00
G01 X9.3610 Y-5.1938 F80.00
G01 X9.3695 Y-5.1875 F80.00
G01 X9.3773 Y-5.1804 F80.00
G01 X9.5365 Y-5.0212 F80.00
G01 X9.5436 Y-5.0134 F80.00
G01 X9.5499 Y-5.0049 F80.00
G01 X9.6750 Y-4.8177 F80.00
G01 X9.6804 Y-4.8086 F80.00
G01 X9.6850 Y-4.7990 F80.00
G01 X9.7711 Y-4.5909 F80.00
G01 X9.7754 Y-4.5784 F80.00
G01 X9.7772 Y-4.5707 F80.00
G01 X9.8211 Y-4.3499 F80.00
G01 X9.8226 Y-4.3395 F80.00
G01 X9.8231 Y-4.3315 F80.00
G01 X9.8231 Y-2.0717 F80.00
G01 X9.8226 Y-2.0611 F80.00
G01 X9.8211 Y-2.0507 F80.00
G01 X9.7772 Y-1.8299 F80.00
G01 X9.7738 Y-1.8171 F80.00
G01 X9.7710 Y-1.8096 F80.00
G01 X9.6848 Y-1.6017 F80.00
G01 X9.6803 Y-1.5922 F80.00
G01 X9.6749 Y-1.5831 F80.00
G01 X9.5498 Y-1.3959 F80.00
G01 X9.5435 Y-1.3874 F80.00
G01 X9.5364 Y-1.3796 F80.00
G01 X9.3772 Y-1.2204 F80.00
G01 X9.3714 Y-1.2150 F80.00
G01 X9.3652 Y-1.2101 F80.00
G01 X9.1737 Y-1.0819 F80.00
G01 X9.1646 Y-1.0765 F80.00
G01 X9.1551 Y-1.0720 F80.00
G01 X8.9422 Y-0.9839 F80.00
G01 X8.9346 Y-0.9815 F80.00
G01 X8.9269 Y-0.9796 F80.00
G01 X8.7008 Y-0.9348 F80.00
G01 X8.6929 Y-0.9339 F80.00
G01 X8.6850 Y-0.9337 F80.00
G01 X8.5769 Y-0.9337 F80.00
G00 Z2.0000
G00 X21.9020 Y-2.3633
G01 F100.00
G01 Z-0.1000
G01 F80.00
G01 X21.8526 Y-2.3655 F80.00
G01 X21.8421 Y-2.3666 F80.00
G01 X21.7932 Y-2.3740 F80.00
G01 X21.7401 Y-2.3873 F80.00
G01 X21.6886 Y-2.4057 F80.00
G01 X21.6438 Y-2.4267 F80.00
G01 X21.6345 Y-2.4317 F80.00
G01 X21.5966 Y-2.4544 F80.00
G01 X21.5878 Y-2.4603 F80.00
G01 X21.5482 Y-2.4899 F80.00
G01 X21.5076 Y-2.5266 F80.00
G01 X21.4709 Y-2.5672 F80.00
G01 X21.4413 Y-2.6068 F80.00
G01 X21.4354 Y-2.6156 F80.00
G01 X21.4127 Y-2.6535 F80.00
G01 X21.4077 Y-2.6628 F80.00
G01 X21.3867 Y-2.7076 F80.00
G01 X21.3683 Y-2.7591 F80.00
G01 X21.3550 Y-2.8122 F80.00
G01 X21.3476 Y-2.8611 F80.00
G01 X21.3465 Y-2.8716 F80.00
G01 X21.3444 Y-2.9157 F80.00
G01 X21.3444 Y-2.9263 F80.00
G01 X21.3469 Y-2.9757 F80.00
G01 X21.3550 Y-3.0298 F80.00
G01 X21.3683 Y-3.0829 F80.00
G01 X21.3848 Y-3.1295 F80.00
G01 X21.3888 Y-3.1393 F80.00
G01 X21.4077 Y-3.1792 F80.00
G01 X21.4127 Y-3.1885 F80.00
G01 X21.4382 Y-3.2309 F80.00
G01 X21.4709 Y-3.2748 F80.00
G01 X21.5076 Y-3.3154 F80.00
G01 X21.5442 Y-3.3487 F80.00
G01 X21.5523 Y-3.3554 F80.00
G01 X21.5943 Y-3.3862 F80.00
G01 X21.6345 Y-3.4103 F80.00
G01 X21.6438 Y-3.4153 F80.00
G01 X21.6886 Y-3.4363 F80.00
G01 X21.7351 Y-3.4531 F80.00
G01 X21.7452 Y-3.4561 F80.00
G01 X21.7932 Y-3.4680 F80.00
G01 X21.8421 Y-3.4754 F80.00
G01 X21.8500 Y-3.4763 F80.00
G01 X21.9020 Y-3.4787 F80.00
G01 X22.8020 Y-3.4787 F80.00
G01 X22.8567 Y-3.4761 F80.00
G01 X22.9108 Y-3.4680 F80.00
G01 X22.9588 Y-3.4561 F80.00
G01 X22.9689 Y-3.4531 F80.00
G01 X23.0154 Y-3.4363 F80.00
G01 X23.0602 Y-3.4153 F80.00
G01 X23.0695 Y-3.4103 F80.00
G01 X23.1074 Y-3.3876 F80.00
G01 X23.1162 Y-3.3817 F80.00
G01 X23.1558 Y-3.3521 F80.00
G01 X23.1964 Y-3.3154 F80.00
G01 X23.2331 Y-3.2748 F80.00
G01 X23.2627 Y-3.2352 F80.00
G01 X23.2672 Y-3.2287 F80.00
G01 X23.2939 Y-3.1839 F80.00
G01 X23.3173 Y-3.1344 F80.00
G01 X23.3357 Y-3.0829 F80.00
G01 X23.3490 Y-3.0298 F80.00
G01 X23.3571 Y-2.9757 F80.00
G01 X23.3597 Y-2.9210 F80.00
G01 X23.3571 Y-2.8663 F80.00
G01 X23.3490 Y-2.8122 F80.00
G01 X23.3357 Y-2.7591 F80.00
G01 X23.3173 Y-2.7076 F80.00
G01 X23.2939 Y-2.6581 F80.00
G01 X23.2658 Y-2.6111 F80.00
G01 X23.2331 Y-2.5672 F80.00
G01 X23.1964 Y-2.5266 F80.00
G01 X23.1558 Y-2.4899 F80.00
G01 X23.1162 Y-2.4603 F80.00
G01 X23.1097 Y-2.4558 F80.00
G01 X23.0695 Y-2.4317 F80.00
G01 X23.0602 Y-2.4267 F80.00
G01 X23.0154 Y-2.4057 F80.00
G01 X22.9689 Y-2.3889 F80.00
G01 X22.9588 Y-2.3859 F80.00
G01 X22.9108 Y-2.3740 F80.00
G01 X22.8619 Y-2.3666 F80.00
G01 X22.8540 Y-2.3657 F80.00
G01 X22.8020 Y-2.3633 F80.00
G01 X21.9020 Y-2.3633 F80.00
G00 Z2.0000
G00 X21.9020 Y4.2367
G01 F100.00
G01 Z-0.1000
G01 F80.00
G01 X21.8526 Y4.2345 F80.00
G01 X21.8421 Y4.2334 F80.00
G01 X21.7932 Y4.2260 F80.00
G01 X21.7401 Y4.2127 F80.00
G01 X21.6886 Y4.1943 F80.00
G01 X21.6438 Y4.1733 F80.00
G01 X21.6345 Y4.1683 F80.00
G01 X21.5966 Y4.1456 F80.00
G01 X21.5878 Y4.1397 F80.00
G01 X21.5482 Y4.1101 F80.00
G01 X21.5076 Y4.0734 F80.00
G01 X21.4709 Y4.0328 F80.00
G01 X21.4413 Y3.9932 F80.00
G01 X21.4354 Y3.9844 F80.00
G01 X21.4127 Y3.9465 F80.00
G01 X21.4077 Y3.9372 F80.00
G01 X21.3867 Y3.8924 F80.00
G01 X21.3683 Y3.8409 F80.00
G01 X21.3550 Y3.7878 F80.00
G01 X21.3476 Y3.7389 F80.00
G01 X21.3465 Y3.7284 F80.00
G01 X21.3444 Y3.6843 F80.00
G01 X21.3444 Y3.6737 F80.00
G01 X21.3469 Y3.6243 F80.00
G01 X21.3550 Y3.5702 F80.00
G01 X21.3683 Y3.5171 F80.00
G01 X21.3848 Y3.4705 F80.00
G01 X21.3888 Y3.4607 F80.00
G01 X21.4077 Y3.4208 F80.00
G01 X21.4127 Y3.4115 F80.00
G01 X21.4382 Y3.3691 F80.00
G01 X21.4709 Y3.3252 F80.00
G01 X21.5076 Y3.2846 F80.00
G01 X21.5442 Y3.2513 F80.00
G01 X21.5523 Y3.2446 F80.00
G01 X21.5943 Y3.2138 F80.00
G01 X21.6345 Y3.1897 F80.00
G01 X21.6438 Y3.1847 F80.00
G01 X21.6886 Y3.1637 F80.00
G01 X21.7351 Y3.1469 F80.00
G01 X21.7452 Y3.1439 F80.00
G01 X21.7932 Y3.1320 F80.00
G01 X21.8421 Y3.1246 F80.00
G01 X21.8500 Y3.1237 F80.00
G01 X21.9020 Y3.1213 F80.00
G01 X22.8020 Y3.1213 F80.00
G01 X22.8567 Y3.1239 F80.00
G01 X22.9108 Y3.1320 F80.00
G01 X22.9588 Y3.1439 F80.00
G01 X22.9689 Y3.1469 F80.00
G01 X23.0154 Y3.1637 F80.00
G01 X23.0602 Y3.1847 F80.00
G01 X23.0695 Y3.1897 F80.00
G01 X23.1074 Y3.2124 F80.00
G01 X23.1162 Y3.2183 F80.00
G01 X23.1558 Y3.2479 F80.00
G01 X23.1964 Y3.2846 F80.00
G01 X23.2331 Y3.3252 F80.00
G01 X23.2627 Y3.3648 F80.00
G01 X23.2672 Y3.3713 F80.00
G01 X23.2939 Y3.4161 F80.00
G01 X23.3173 Y3.4656 F80.00
G01 X23.3357 Y3.5171 F80.00
G01 X23.3490 Y3.5702 F80.00
G01 X23.3571 Y3.6243 F80.00
G01 X23.3597 Y3.6790 F80.00
G01 X23.3571 Y3.7337 F80.00
G01 X23.3490 Y3.7878 F80.00
G01 X23.3357 Y3.8409 F80.00
G01 X23.3173 Y3.8924 F80.00
G01 X23.2939 Y3.9419 F80.00
G01 X23.2658 Y3.9889 F80.00
G01 X23.2331 Y4.0328 F80.00
G01 X23.1964 Y4.0734 F80.00
G01 X23.1558 Y4.1101 F80.00
G01 X23.1162 Y4.1397 F80.00
G01 X23.1097 Y4.1442 F80.00
G01 X23.0695 Y4.1683 F80.00
G01 X23.0602 Y4.1733 F80.00
G01 X23.0154 Y4.1943 F80.00
G01 X22.9689 Y4.2111 F80.00
G01 X22.9588 Y4.2141 F80.00
G01 X22.9108 Y4.2260 F80.00
G01 X22.8619 Y4.2334 F80.00
G01 X22.8540 Y4.2343 F80.00
G01 X22.8020 Y4.2367 F80.00
G01 X21.9020 Y4.2367 F80.00
G00 Z2.0000
G00 X12.6806 Y19.2987
G01 F100.00
G01 Z-0.1000
G01 F80.00
G01 X12.6806 Y19.3093 F80.00
G01 X12.6680 Y19.5635 F80.00
G01 X12.6299 Y19.8206 F80.00
G01 X12.5667 Y20.0726 F80.00
G01 X12.4792 Y20.3173 F80.00
G01 X12.3681 Y20.5521 F80.00
G01 X12.2345 Y20.7750 F80.00
G01 X12.0797 Y20.9837 F80.00
G01 X11.9052 Y21.1762 F80.00
G01 X11.7127 Y21.3507 F80.00
G01 X11.5040 Y21.5055 F80.00
G01 X11.2811 Y21.6391 F80.00
G01 X11.0463 Y21.7502 F80.00
G01 X10.8016 Y21.8377 F80.00
G01 X10.5496 Y21.9009 F80.00
G01 X10.2925 Y21.9390 F80.00
G01 X10.0330 Y21.9517 F80.00
G01 X9.7735 Y21.9390 F80.00
G01 X9.5164 Y21.9009 F80.00
G01 X9.2644 Y21.8377 F80.00
G01 X9.0197 Y21.7502 F80.00
G01 X8.7849 Y21.6391 F80.00
G01 X8.5620 Y21.5055 F80.00
G01 X8.3533 Y21.3507 F80.00
G01 X8.1608 Y21.1762 F80.00
G01 X7.9863 Y20.9837 F80.00
G01 X7.8315 Y20.7750 F80.00
G01 X7.6979 Y20.5521 F80.00
G01 X7.5868 Y20.3173 F80.00
G01 X7.4993 Y20.0726 F80.00
G01 X7.4361 Y19.8206 F80.00
G01 X7.3980 Y19.5635 F80.00
G01 X7.3853 Y19.3040 F80.00
G01 X7.3980 Y19.0445 F80.00
G01 X7.4361 Y18.7874 F80.00
G01 X7.4993 Y18.5354 F80.00
G01 X7.5868 Y18.2907 F80.00
G01 X7.6979 Y18.0559 F80.00
G01 X7.8315 Y17.8330 F80.00
G01 X7.9863 Y17.6243 F80.00
G01 X8.1608 Y17.4318 F80.00
G01 X8.3533 Y17.2573 F80.00
G01 X8.5620 Y17.1025 F80.00
G01 X8.7849 Y16.9689 F80.00
G01 X9.0197 Y16.8578 F80.00
G01 X9.2644 Y16.7703 F80.00
G01 X9.5164 Y16.7071 F80.00
G01 X9.7735 Y16.6690 F80.00
G01 X10.0330 Y16.6563 F80.00
G01 X10.2925 Y16.6690 F80.00
G01 X10.5496 Y16.7071 F80.00
G01 X10.8016 Y16.7703 F80.00
G01 X11.0463 Y16.8578 F80.00
G01 X11.2811 Y16.9689 F80.00
G01 X11.5040 Y17.1025 F80.00
G01 X11.7127 Y17.2573 F80.00
G01 X11.9052 Y17.4318 F80.00
G01 X12.0797 Y17.6243 F80.00
G01 X12.2345 Y17.8330 F80.00
G01 X12.3681 Y18.0559 F80.00
G01 X12.4792 Y18.2907 F80.00
G01 X12.5667 Y18.5354 F80.00
G01 X12.6299 Y18.7874 F80.00
G01 X12.6680 Y19.0445 F80.00
G01 X12.6806 Y19.2987 F80.00
G00 Z2.0000
G00 X-7.5124 Y19.2987
G01 F100.00
G01 Z-0.1000
G01 F80.00
G01 X-7.5124 Y19.3093 F80.00
G01 X-7.5250 Y19.5635 F80.00
G01 X-7.5631 Y19.8206 F80.00
G01 X-7.6263 Y20.0726 F80.00
G01 X-7.7138 Y20.3173 F80.00
G01 X-7.8249 Y20.5521 F80.00
G01 X-7.9585 Y20.7750 F80.00
G01 X-8.1133 Y20.9837 F80.00
G01 X-8.2878 Y21.1762 F80.00
G01 X-8.4803 Y21.3507 F80.00
G01 X-8.6890 Y21.5055 F80.00
G01 X-8.9119 Y21.6391 F80.00
G01 X-9.1467 Y21.7502 F80.00
G01 X-9.3914 Y21.8377 F80.00
G01 X-9.6434 Y21.9009 F80.00
G01 X-9.9005 Y21.9390 F80.00
G01 X-10.1600 Y21.9517 F80.00
G01 X-10.4195 Y21.9390 F80.00
G01 X-10.6766 Y21.9009 F80.00
G01 X-10.9286 Y21.8377 F80.00
G01 X-11.1733 Y21.7502 F80.00
G01 X-11.4081 Y21.6391 F80.00
G01 X-11.6310 Y21.5055 F80.00
G01 X-11.8397 Y21.3507 F80.00
G01 X-12.0322 Y21.1762 F80.00
G01 X-12.2067 Y20.9837 F80.00
G01 X-12.3615 Y20.7750 F80.00
G01 X-12.4951 Y20.5521 F80.00
G01 X-12.6062 Y20.3173 F80.00
G01 X-12.6937 Y20.0726 F80.00
G01 X-12.7569 Y19.8206 F80.00
G01 X-12.7950 Y19.5635 F80.00
G01 X-12.8077 Y19.3040 F80.00
G01 X-12.7950 Y19.0445 F80.00
G01 X-12.7569 Y18.7874 F80.00
G01 X-12.6937 Y18.5354 F80.00
G01 X-12.6062 Y18.2907 F80.00
G01 X-12.4951 Y18.0559 F80.00
G01 X-12.3615 Y17.8330 F80.00
G01 X-12.2067 Y17.6243 F80.00
G01 X-12.0322 Y17.4318 F80.00
G01 X-11.8397 Y17.2573 F80.00
G01 X-11.6310 Y17.1025 F80.00
G01 X-11.4081 Y16.9689 F80.00
G01 X-11.1733 Y16.8578 F80.00
G01 X-10.9286 Y16.7703 F80.00
G01 X-10.6766 Y16.7071 F80.00
G01 X-10.4195 Y16.6690 F80.00
G01 X-10.1600 Y16.6563 F80.00
G01 X-9.9005 Y16.6690 F80.00
G01 X-9.6434 Y16.7071 F80.00
G01 X-9.3914 Y16.7703 F80.00
G01 X-9.1467 Y16.8578 F80.00
G01 X-8.9119 Y16.9689 F80.00
G01 X-8.6890 Y17.1025 F80.00
G01 X-8.4803 Y17.2573 F80.00
G01 X-8.2878 Y17.4318 F80.00
G01 X-8.1133 Y17.6243 F80.00
G01 X-7.9585 Y17.8330 F80.00
G01 X-7.8249 Y18.0559 F80.00
G01 X-7.7138 Y18.2907 F80.00
G01 X-7.6263 Y18.5354 F80.00
G01 X-7.5631 Y18.7874 F80.00
G01 X-7.5250 Y19.0445 F80.00
G01 X-7.5124 Y19.2987 F80.00
G00 Z2.0000
G00 X-15.7674 Y4.3597
G01 F100.00
G01 Z-0.1000
G01 F80.00
G01 X-15.7674 Y4.3703 F80.00
G01 X-15.7751 Y4.5249 F80.00
G01 X-15.7986 Y4.6833 F80.00
G01 X-15.8375 Y4.8387 F80.00
G01 X-15.8915 Y4.9894 F80.00
G01 X-15.9599 Y5.1342 F80.00
G01 X-16.0422 Y5.2716 F80.00
G01 X-16.1376 Y5.4002 F80.00
G01 X-16.2452 Y5.5188 F80.00
G01 X-16.3638 Y5.6264 F80.00
G01 X-16.4924 Y5.7218 F80.00
G01 X-16.6298 Y5.8041 F80.00
G01 X-16.7746 Y5.8725 F80.00
G01 X-16.9253 Y5.9265 F80.00
G01 X-17.0807 Y5.9654 F80.00
G01 X-17.2391 Y5.9889 F80.00
G01 X-17.3990 Y5.9967 F80.00
G01 X-17.5589 Y5.9889 F80.00
G01 X-17.7173 Y5.9654 F80.00
G01 X-17.8727 Y5.9265 F80.00
G01 X-18.0234 Y5.8725 F80.00
G01 X-18.1682 Y5.8041 F80.00
G01 X-18.3056 Y5.7218 F80.00
G01 X-18.4342 Y5.6264 F80.00
G01 X-18.5528 Y5.5188 F80.00
G01 X-18.6604 Y5.4002 F80.00
G01 X-18.7558 Y5.2716 F80.00
G01 X-18.8381 Y5.1342 F80.00
G01 X-18.9065 Y4.9894 F80.00
G01 X-18.9605 Y4.8387 F80.00
G01 X-18.9994 Y4.6833 F80.00
G01 X-19.0229 Y4.5249 F80.00
G01 X-19.0307 Y4.3650 F80.00
G01 X-19.0229 Y4.2051 F80.00
G01 X-18.9994 Y4.0467 F80.00
G01 X-18.9605 Y3.8913 F80.00
G01 X-18.9065 Y3.7406 F80.00
G01 X-18.8381 Y3.5958 F80.00
G01 X-18.7558 Y3.4584 F80.00
G01 X-18.6604 Y3.3298 F80.00
G01 X-18.5528 Y3.2112 F80.00
G01 X-18.4342 Y3.1036 F80.00
G01 X-18.3056 Y3.0082 F80.00
G01 X-18.1682 Y2.9259 F80.00
G01 X-18.0234 Y2.8575 F80.00
G01 X-17.8727 Y2.8035 F80.00
G01 X-17.7173 Y2.7646 F80.00
G01 X-17.5589 Y2.7411 F80.00
G01 X-17.3990 Y2.7333 F80.00
G01 X-17.2391 Y2.7411 F80.00
G01 X-17.0807 Y2.7646 F80.00
G01 X-16.9253 Y2.8035 F80.00
G01 X-16.7746 Y2.8575 F80.00
G01 X-16.6298 Y2.9259 F80.00
G01 X-16.4924 Y3.0082 F80.00
G01 X-16.3638 Y3.1036 F80.00
G01 X-16.2452 Y3.2112 F80.00
G01 X-16.1376 Y3.3298 F80.00
G01 X-16.0422 Y3.4584 F80.00
G01 X-15.9599 Y3.5958 F80.00
G01 X-15.8915 Y3.7406 F80.00
G01 X-15.8375 Y3.8913 F80.00
G01 X-15.7986 Y4.0467 F80.00
G01 X-15.7751 Y4.2051 F80.00
G01 X-15.7674 Y4.3597 F80.00
G00 Z2.0000
G00 X-16.6444 Y0.8111
G01 F100.00
G01 Z-0.1000
G01 F80.00
G01 X-16.7746 Y0.8725 F80.00
G01 X-16.9253 Y0.9265 F80.00
G01 X-17.0807 Y0.9654 F80.00
G01 X-17.2391 Y0.9889 F80.00
G01 X-17.3990 Y0.9967 F80.00
G01 X-17.5589 Y0.9889 F80.00
G01 X-17.7173 Y0.9654 F80.00
G01 X-17.8727 Y0.9265 F80.00
G01 X-18.0234 Y0.8725 F80.00
G01 X-18.1682 Y0.8041 F80.00
G01 X-18.3056 Y0.7218 F80.00
G01 X-18.4342 Y0.6264 F80.00
G01 X-18.5528 Y0.5188 F80.00
G01 X-18.6604 Y0.4002 F80.00
G01 X-18.7558 Y0.2716 F80.00
G01 X-18.8381 Y0.1342 F80.00
G01 X-18.9065 Y-0.0106 F80.00
G01 X-18.9605 Y-0.1613 F80.00
G01 X-18.9994 Y-0.3167 F80.00
G01 X-19.0229 Y-0.4751 F80.00
G01 X-19.0307 Y-0.6350 F80.00
G01 X-19.0229 Y-0.7949 F80.00
G01 X-18.9994 Y-0.9533 F80.00
G01 X-18.9605 Y-1.1087 F80.00
G01 X-18.9065 Y-1.2594 F80.00
G01 X-18.8381 Y-1.4042 F80.00
G01 X-18.7558 Y-1.5416 F80.00
G01 X-18.6604 Y-1.6702 F80.00
G01 X-18.5528 Y-1.7888 F80.00
G01 X-18.4342 Y-1.8964 F80.00
G01 X-18.3056 Y-1.9918 F80.00
G01 X-18.1682 Y-2.0741 F80.00
G01 X-18.0234 Y-2.1425 F80.00
G01 X-17.8777 Y-2.1948 F80.00
G01 X-17.8676 Y-2.1979 F80.00
G01 X-17.7225 Y-2.2342 F80.00
G01 X-17.7121 Y-2.2363 F80.00
G01 X-17.5589 Y-2.2589 F80.00
G01 X-17.3990 Y-2.2667 F80.00
G01 X-17.2391 Y-2.2589 F80.00
G01 X-17.0859 Y-2.2363 F80.00
G01 X-17.0755 Y-2.2342 F80.00
G01 X-16.9304 Y-2.1979 F80.00
G01 X-16.9203 Y-2.1948 F80.00
G01 X-16.7746 Y-2.1425 F80.00
G01 X-16.6298 Y-2.0741 F80.00
G01 X-16.4969 Y-1.9946 F80.00
G01 X-16.4881 Y-1.9887 F80.00
G01 X-16.3638 Y-1.8964 F80.00
G01 X-16.2452 Y-1.7888 F80.00
G01 X-16.1376 Y-1.6702 F80.00
G01 X-16.0453 Y-1.5459 F80.00
G01 X-16.0394 Y-1.5371 F80.00
G01 X-15.9599 Y-1.4042 F80.00
G01 X-15.8915 Y-1.2594 F80.00
G01 X-15.8392 Y-1.1137 F80.00
G01 X-15.8361 Y-1.1036 F80.00
G01 X-15.7998 Y-0.9585 F80.00
G01 X-15.7977 Y-0.9481 F80.00
G01 X-15.7751 Y-0.7949 F80.00
G01 X-15.7674 Y-0.6403 F80.00
G01 X-15.7674 Y-0.6297 F80.00
G01 X-15.7747 Y-0.4803 F80.00
G01 X-15.7758 Y-0.4698 F80.00
G01 X-15.7986 Y-0.3167 F80.00
G01 X-15.8375 Y-0.1613 F80.00
G01 X-15.8915 Y-0.0106 F80.00
G01 X-15.9529 Y0.1196 F80.00
G01 X-14.7835 Y1.2891 F80.00
G01 X7.9001 Y1.2891 F80.00
G01 X11.5127 Y-2.3236 F80.00
G01 X11.5127 Y-4.3313 F80.00
G01 X9.7035 Y-6.1405 F80.00
G01 X-15.8487 Y-6.1405 F80.00
G01 X-15.8368 Y-6.1061 F80.00
G01 X-15.7986 Y-5.9533 F80.00
G01 X-15.7758 Y-5.8002 F80.00
G01 X-15.7747 Y-5.7897 F80.00
G01 X-15.7673 Y-5.6350 F80.00
G01 X-15.7747 Y-5.4803 F80.00
G01 X-15.7758 Y-5.4698 F80.00
G01 X-15.7986 Y-5.3167 F80.00
G01 X-15.8375 Y-5.1613 F80.00
G01 X-15.8896 Y-5.0155 F80.00
G01 X-15.8936 Y-5.0057 F80.00
G01 X-15.9599 Y-4.8658 F80.00
G01 X-16.0394 Y-4.7329 F80.00
G01 X-16.0453 Y-4.7241 F80.00
G01 X-16.1376 Y-4.5998 F80.00
G01 X-16.2415 Y-4.4850 F80.00
G01 X-16.2490 Y-4.4775 F80.00
G01 X-16.3638 Y-4.3736 F80.00
G01 X-16.4881 Y-4.2813 F80.00
G01 X-16.4969 Y-4.2754 F80.00
G01 X-16.6298 Y-4.1959 F80.00
G01 X-16.7746 Y-4.1275 F80.00
G01 X-16.9203 Y-4.0752 F80.00
G01 X-16.9304 Y-4.0721 F80.00
G01 X-17.0807 Y-4.0346 F80.00
G01 X-17.2338 Y-4.0118 F80.00
G01 X-17.2443 Y-4.0107 F80.00
G01 X-17.3990 Y-4.0033 F80.00
G01 X-17.5589 Y-4.0111 F80.00
G01 X-17.7173 Y-4.0346 F80.00
G01 X-17.8727 Y-4.0735 F80.00
G01 X-18.0234 Y-4.1275 F80.00
G01 X-18.1635 Y-4.1935 F80.00
G01 X-18.1728 Y-4.1985 F80.00
G01 X-18.3056 Y-4.2782 F80.00
G01 X-18.4300 Y-4.3704 F80.00
G01 X-18.4382 Y-4.3771 F80.00
G01 X-18.5490 Y-4.4775 F80.00
G01 X-18.5565 Y-4.4850 F80.00
G01 X-18.6604 Y-4.5998 F80.00
G01 X-18.7558 Y-4.7284 F80.00
G01 X-18.8381 Y-4.8658 F80.00
G01 X-18.9065 Y-5.0106 F80.00
G01 X-18.9605 Y-5.1613 F80.00
G01 X-18.9994 Y-5.3167 F80.00
G01 X-19.0229 Y-5.4751 F80.00
G01 X-19.0306 Y-5.6297 F80.00
G01 X-19.0306 Y-5.6403 F80.00
G01 X-19.0229 Y-5.7949 F80.00
G01 X-19.0003 Y-5.9481 F80.00
G01 X-18.9982 Y-5.9585 F80.00
G01 X-18.9619 Y-6.1036 F80.00
G01 X-18.9588 Y-6.1137 F80.00
G01 X-18.9065 Y-6.2594 F80.00
G01 X-18.8381 Y-6.4042 F80.00
G01 X-18.7558 Y-6.5416 F80.00
G01 X-18.6604 Y-6.6702 F80.00
G01 X-18.5528 Y-6.7888 F80.00
G01 X-18.4342 Y-6.8964 F80.00
G01 X-18.3056 Y-6.9918 F80.00
G01 X-18.1728 Y-7.0715 F80.00
G01 X-18.1635 Y-7.0765 F80.00
G01 X-18.0283 Y-7.1404 F80.00
G01 X-18.0185 Y-7.1444 F80.00
G01 X-17.8727 Y-7.1965 F80.00
G01 X-17.7225 Y-7.2342 F80.00
G01 X-17.7147 Y-7.2359 F80.00
G01 X-17.5589 Y-7.2589 F80.00
G01 X-17.3990 Y-7.2667 F80.00
G01 X-17.2391 Y-7.2589 F80.00
G01 X-17.0859 Y-7.2363 F80.00
G01 X-17.0755 Y-7.2342 F80.00
G01 X-16.9253 Y-7.1965 F80.00
G01 X-16.7795 Y-7.1444 F80.00
G01 X-16.7697 Y-7.1404 F80.00
G01 X-16.6345 Y-7.0765 F80.00
G01 X-16.6196 Y-7.0681 F80.00
G01 X-16.5917 Y-7.0811 F80.00
G01 X-16.5516 Y-7.0956 F80.00
G01 X-16.5414 Y-7.0987 F80.00
G01 X-16.5026 Y-7.1084 F80.00
G01 X-16.4948 Y-7.1098 F80.00
G01 X-16.4525 Y-7.1160 F80.00
G01 X-16.4046 Y-7.1183 F80.00
G01 X9.9060 Y-7.1183 F80.00
G01 X9.9513 Y-7.1162 F80.00
G01 X9.9592 Y-7.1153 F80.00
G01 X10.0014 Y-7.1089 F80.00
G01 X10.0428 Y-7.0987 F80.00
G01 X10.0505 Y-7.0965 F80.00
G01 X10.0676 Y-7.0904 F80.00
G01 X10.0907 Y-7.0821 F80.00
G01 X10.0979 Y-7.0790 F80.00
G01 X10.1365 Y-7.0606 F80.00
G01 X10.1776 Y-7.0359 F80.00
G01 X10.2162 Y-7.0074 F80.00
G01 X10.2479 Y-6.9788 F80.00
G01 X11.9763 Y-5.2506 F80.00
G01 X12.0066 Y-5.2808 F80.00
G01 X12.0125 Y-5.2861 F80.00
G01 X12.0189 Y-5.2909 F80.00
G01 X12.2290 Y-5.4314 F80.00
G01 X12.2358 Y-5.4355 F80.00
G01 X12.2452 Y-5.4403 F80.00
G01 X12.4789 Y-5.5371 F80.00
G01 X12.4888 Y-5.5407 F80.00
G01 X12.4991 Y-5.5433 F80.00
G01 X12.7496 Y-5.5930 F80.00
G01 X12.7575 Y-5.5939 F80.00
G01 X12.7654 Y-5.5941 F80.00
G01 X13.8946 Y-5.5941 F80.00
G01 X13.9026 Y-5.5936 F80.00
G01 X13.9130 Y-5.5921 F80.00
G01 X14.1391 Y-5.5470 F80.00
G01 X14.1467 Y-5.5448 F80.00
G01 X14.1542 Y-5.5420 F80.00
G01 X14.3622 Y-5.4558 F80.00
G01 X14.3717 Y-5.4513 F80.00
G01 X14.3808 Y-5.4459 F80.00
G01 X14.5680 Y-5.3208 F80.00
G01 X14.5765 Y-5.3145 F80.00
G01 X14.5843 Y-5.3074 F80.00
G01 X14.7435 Y-5.1482 F80.00
G01 X14.7506 Y-5.1404 F80.00
G01 X14.7569 Y-5.1319 F80.00
G01 X14.8820 Y-4.9447 F80.00
G01 X14.8874 Y-4.9356 F80.00
G01 X14.8920 Y-4.9260 F80.00
G01 X14.9781 Y-4.7180 F80.00
G01 X14.9816 Y-4.7081 F80.00
G01 X14.9842 Y-4.6978 F80.00
G01 X15.0286 Y-4.4743 F80.00
G01 X15.0299 Y-4.4638 F80.00
G01 X15.0301 Y-4.4559 F80.00
G01 X15.0301 Y-2.1988 F80.00
G01 X15.0299 Y-2.1909 F80.00
G01 X15.0290 Y-2.1830 F80.00
G01 X14.9842 Y-1.9569 F80.00
G01 X14.9816 Y-1.9466 F80.00
G01 X14.9780 Y-1.9366 F80.00
G01 X14.8918 Y-1.7287 F80.00
G01 X14.8873 Y-1.7192 F80.00
G01 X14.8819 Y-1.7101 F80.00
G01 X14.7568 Y-1.5229 F80.00
G01 X14.7505 Y-1.5144 F80.00
G01 X14.7434 Y-1.5066 F80.00
G01 X14.5842 Y-1.3474 F80.00
G01 X14.5764 Y-1.3403 F80.00
G01 X14.5679 Y-1.3340 F80.00
G01 X14.3808 Y-1.2089 F80.00
G01 X14.3717 Y-1.2035 F80.00
G01 X14.3622 Y-1.1990 F80.00
G01 X14.1542 Y-1.1128 F80.00
G01 X14.1442 Y-1.1092 F80.00
G01 X14.1339 Y-1.1066 F80.00
G01 X13.9130 Y-1.0627 F80.00
G01 X13.9026 Y-1.0612 F80.00
G01 X13.8920 Y-1.0607 F80.00
G01 X12.5364 Y-1.0606 F80.00
G01 X12.5232 Y-1.0614 F80.00
G01 X12.5154 Y-1.0626 F80.00
G01 X12.3190 Y-1.1017 F80.00
G01 X12.3087 Y-1.1043 F80.00
G01 X12.2988 Y-1.1078 F80.00
G01 X12.1116 Y-1.1854 F80.00
G01 X12.1021 Y-1.1902 F80.00
G01 X12.0953 Y-1.1943 F80.00
G01 X11.9266 Y-1.3071 F80.00
G01 X11.9163 Y-1.3154 F80.00
G01 X11.9018 Y-1.3297 F80.00
G01 X8.4464 Y2.1256 F80.00
G01 X8.4128 Y2.1560 F80.00
G01 X8.3786 Y2.1815 F80.00
G01 X8.3698 Y2.1874 F80.00
G01 X8.3331 Y2.2092 F80.00
G01 X8.2897 Y2.2297 F80.00
G01 X8.2496 Y2.2442 F80.00
G01 X8.2394 Y2.2473 F80.00
G01 X8.1954 Y2.2580 F80.00
G01 X8.1505 Y2.2646 F80.00
G01 X8.1026 Y2.2669 F80.00
G01 X-14.9860 Y2.2669 F80.00
G01 X-15.0287 Y2.2650 F80.00
G01 X-15.0366 Y2.2643 F80.00
G01 X-15.0542 Y2.2617 F80.00
G01 X-15.0788 Y2.2580 F80.00
G01 X-15.0865 Y2.2564 F80.00
G01 X-15.1279 Y2.2459 F80.00
G01 X-15.1731 Y2.2297 F80.00
G01 X-15.2165 Y2.2092 F80.00
G01 X-15.2532 Y2.1874 F80.00
G01 X-15.2620 Y2.1815 F80.00
G01 X-15.2920 Y2.1592 F80.00
G01 X-15.3002 Y2.1525 F80.00
G01 X-15.3317 Y2.1237 F80.00
G01 X-16.6444 Y0.8111 F80.00
G00 Z2.0000
G00 X-6.7504 Y-18.4203
G01 F100.00
G01 Z-0.1000
G01 F80.00
G01 X-6.7504 Y-18.4097 F80.00
G01 X-6.7630 Y-18.1555 F80.00
G01 X-6.8011 Y-17.8984 F80.00
G01 X-6.8643 Y-17.6464 F80.00
G01 X-6.9518 Y-17.4017 F80.00
G01 X-7.0629 Y-17.1669 F80.00
G01 X-7.1965 Y-16.9440 F80.00
G01 X-7.3513 Y-16.7353 F80.00
G01 X-7.5258 Y-16.5428 F80.00
G01 X-7.7183 Y-16.3683 F80.00
G01 X-7.9270 Y-16.2135 F80.00
G01 X-8.1499 Y-16.0799 F80.00
G01 X-8.3847 Y-15.9688 F80.00
G01 X-8.6294 Y-15.8813 F80.00
G01 X-8.8814 Y-15.8181 F80.00
G01 X-9.1385 Y-15.7800 F80.00
G01 X-9.3980 Y-15.7673 F80.00
G01 X-9.6575 Y-15.7800 F80.00
G01 X-9.9146 Y-15.8181 F80.00
G01 X-10.1666 Y-15.8813 F80.00
G01 X-10.4113 Y-15.9688 F80.00
G01 X-10.6461 Y-16.0799 F80.00
G01 X-10.8690 Y-16.2135 F80.00
G01 X-11.0777 Y-16.3683 F80.00
G01 X-11.2702 Y-16.5428 F80.00
G01 X-11.4447 Y-16.7353 F80.00
G01 X-11.5995 Y-16.9440 F80.00
G01 X-11.7331 Y-17.1669 F80.00
G01 X-11.8442 Y-17.4017 F80.00
G01 X-11.9317 Y-17.6464 F80.00
G01 X-11.9949 Y-17.8984 F80.00
G01 X-12.0330 Y-18.1555 F80.00
G01 X-12.0457 Y-18.4150 F80.00
G01 X-12.0330 Y-18.6745 F80.00
G01 X-11.9949 Y-18.9316 F80.00
G01 X-11.9317 Y-19.1836 F80.00
G01 X-11.8442 Y-19.4283 F80.00
G01 X-11.7331 Y-19.6631 F80.00
G01 X-11.5995 Y-19.8860 F80.00
G01 X-11.4447 Y-20.0947 F80.00
G01 X-11.2702 Y-20.2872 F80.00
G01 X-11.0777 Y-20.4617 F80.00
G01 X-10.8690 Y-20.6165 F80.00
G01 X-10.6461 Y-20.7501 F80.00
G01 X-10.4113 Y-20.8612 F80.00
G01 X-10.1666 Y-20.9487 F80.00
G01 X-9.9146 Y-21.0119 F80.00
G01 X-9.6575 Y-21.0500 F80.00
G01 X-9.3980 Y-21.0627 F80.00
G01 X-9.1385 Y-21.0500 F80.00
G01 X-8.8814 Y-21.0119 F80.00
G01 X-8.6294 Y-20.9487 F80.00
G01 X-8.3847 Y-20.8612 F80.00
G01 X-8.1499 Y-20.7501 F80.00
G01 X-7.9270 Y-20.6165 F80.00
G01 X-7.7183 Y-20.4617 F80.00
G01 X-7.5258 Y-20.2872 F80.00
G01 X-7.3513 Y-20.0947 F80.00
G01 X-7.1965 Y-19.8860 F80.00
G01 X-7.0629 Y-19.6631 F80.00
G01 X-6.9518 Y-19.4283 F80.00
G01 X-6.8643 Y-19.1836 F80.00
G01 X-6.8011 Y-18.9316 F80.00
G01 X-6.7630 Y-18.6745 F80.00
G01 X-6.7504 Y-18.4203 F80.00
G00 Z2.0000
G00 X13.6966 Y-18.4203
G01 F100.00
G01 Z-0.1000
G01 F80.00
G01 X13.6966 Y-18.4097 F80.00
G01 X13.6840 Y-18.1555 F80.00
G01 X13.6459 Y-17.8984 F80.00
G01 X13.5827 Y-17.6464 F80.00
G01 X13.4952 Y-17.4017 F80.00
G01 X13.3841 Y-17.1669 F80.00
G01 X13.2505 Y-16.9440 F80.00
G01 X13.0957 Y-16.7353 F80.00
G01 X12.9212 Y-16.5428 F80.00
G01 X12.7287 Y-16.3683 F80.00
G01 X12.5200 Y-16.2135 F80.00
G01 X12.2971 Y-16.0799 F80.00
G01 X12.0623 Y-15.9688 F80.00
G01 X11.8176 Y-15.8813 F80.00
G01 X11.5656 Y-15.8181 F80.00
G01 X11.3085 Y-15.7800 F80.00
G01 X11.0490 Y-15.7673 F80.00
G01 X10.7895 Y-15.7800 F80.00
G01 X10.5324 Y-15.8181 F80.00
G01 X10.2804 Y-15.8813 F80.00
G01 X10.0357 Y-15.9688 F80.00
G01 X9.8009 Y-16.0799 F80.00
G01 X9.5780 Y-16.2135 F80.00
G01 X9.3693 Y-16.3683 F80.00
G01 X9.1768 Y-16.5428 F80.00
G01 X9.0023 Y-16.7353 F80.00
G01 X8.8475 Y-16.9440 F80.00
G01 X8.7139 Y-17.1669 F80.00
G01 X8.6028 Y-17.4017 F80.00
G01 X8.5153 Y-17.6464 F80.00
G01 X8.4521 Y-17.8984 F80.00
G01 X8.4140 Y-18.1555 F80.00
G01 X8.4013 Y-18.4150 F80.00
G01 X8.4140 Y-18.6745 F80.00
G01 X8.4521 Y-18.9316 F80.00
G01 X8.5153 Y-19.1836 F80.00
G01 X8.6028 Y-19.4283 F80.00
G01 X8.7139 Y-19.6631 F80.00
G01 X8.8475 Y-19.8860 F80.00
G01 X9.0023 Y-20.0947 F80.00
G01 X9.1768 Y-20.2872 F80.00
G01 X9.3693 Y-20.4617 F80.00
G01 X9.5780 Y-20.6165 F80.00
G01 X9.8009 Y-20.7501 F80.00
G01 X10.0357 Y-20.8612 F80.00
G01 X10.2804 Y-20.9487 F80.00
G01 X10.5324 Y-21.0119 F80.00
G01 X10.7895 Y-21.0500 F80.00
G01 X11.0490 Y-21.0627 F80.00
G01 X11.3085 Y-21.0500 F80.00
G01 X11.5656 Y-21.0119 F80.00
G01 X11.8176 Y-20.9487 F80.00
G01 X12.0623 Y-20.8612 F80.00
G01 X12.2971 Y-20.7501 F80.00
G01 X12.5200 Y-20.6165 F80.00
G01 X12.7287 Y-20.4617 F80.00
G01 X12.9212 Y-20.2872 F80.00
G01 X13.0957 Y-20.0947 F80.00
G01 X13.2505 Y-19.8860 F80.00
G01 X13.3841 Y-19.6631 F80.00
G01 X13.4952 Y-19.4283 F80.00
G01 X13.5827 Y-19.1836 F80.00
G01 X13.6459 Y-18.9316 F80.00
G01 X13.6840 Y-18.6745 F80.00
G01 X13.6966 Y-18.4203 F80.00
G00 Z2.0000
M05
G00 Z2.0000
G00 Z15.00


