(G-CODE GENERATED BY FLATCAM v8.994 - www.flatcam.org - Version Date: 2020/11/7)

(Name: PCB2.GBS_mt_paint_cnc)
(Type: G-code from Geometry)
(Units: MM)

(Created on Friday, 27 January 2023 at 11:32)

(This preprocessor is used with a motion controller loaded with GRBL firmware. )
(It is for the case when it is used together with a LASER connected on the SPINDLE connector.)

(Feedrate: 1000.0 mm/min)
(Feedrate rapids: 1500.0 mm/min)

(Z Focus: 2.0 mm)
(Steps per circle: 64)
(Preprocessor Geometry: GRBL_laser)

(X range:  -18.9495 ...   23.2785  mm)
(Y range:  -20.9815 ...   21.8705  mm)

(Laser Power - Spindle Speed: 250.0)

G21
G90
G17
G94

G01 F1000.00

M5
G01 F1000.00
G00 X2.2297 Y-2.0645
G01 F60.00
M03 S250.0
G01 F1000.00
G01 X3.3773 Y-2.0646 F1000.00
G01 X3.4005 Y-2.0692 F1000.00
G01 X3.4221 Y-2.0782 F1000.00
G01 X3.4415 Y-2.0911 F1000.00
G01 X3.4587 Y-2.1083 F1000.00
G01 X3.4715 Y-2.1275 F1000.00
G01 X3.4806 Y-2.1494 F1000.00
G01 X3.4852 Y-2.1725 F1000.00
G01 X3.4852 Y-4.2284 F1000.00
G01 X3.4807 Y-4.2512 F1000.00
G01 X3.4715 Y-4.2733 F1000.00
G01 X3.4585 Y-4.2927 F1000.00
G01 X3.4417 Y-4.3096 F1000.00
G01 X3.4224 Y-4.3225 F1000.00
G01 X3.4007 Y-4.3315 F1000.00
G01 X3.3770 Y-4.3362 F1000.00
G01 X2.4519 Y-4.3362 F1000.00
G01 X2.4046 Y-4.3268 F1000.00
G01 X2.3597 Y-4.3082 F1000.00
G01 X2.3193 Y-4.2812 F1000.00
G01 X2.2846 Y-4.2465 F1000.00
G01 X2.2576 Y-4.2062 F1000.00
G01 X2.2391 Y-4.1613 F1000.00
G01 X2.2296 Y-4.1138 F1000.00
G01 X2.2296 Y-4.0892 F1000.00
G01 X2.2297 Y-2.0645 F1000.00
G01 X2.2597 Y-2.0945 F1000.00
G01 X3.3744 Y-2.0946 F1000.00
G01 X3.3918 Y-2.0981 F1000.00
G01 X3.4079 Y-2.1047 F1000.00
G01 X3.4224 Y-2.1145 F1000.00
G01 X3.4354 Y-2.1274 F1000.00
G01 X3.4449 Y-2.1417 F1000.00
G01 X3.4517 Y-2.1582 F1000.00
G01 X3.4552 Y-2.1754 F1000.00
G01 X3.4552 Y-4.2255 F1000.00
G01 X3.4518 Y-4.2424 F1000.00
G01 X3.4449 Y-4.2591 F1000.00
G01 X3.4352 Y-4.2736 F1000.00
G01 X3.4225 Y-4.2863 F1000.00
G01 X3.4082 Y-4.2959 F1000.00
G01 X3.3920 Y-4.3026 F1000.00
G01 X3.3740 Y-4.3062 F1000.00
G01 X2.4549 Y-4.3062 F1000.00
G01 X2.4133 Y-4.2979 F1000.00
G01 X2.3739 Y-4.2816 F1000.00
G01 X2.3384 Y-4.2579 F1000.00
G01 X2.3079 Y-4.2274 F1000.00
G01 X2.2842 Y-4.1920 F1000.00
G01 X2.2679 Y-4.1526 F1000.00
G01 X2.2596 Y-4.1109 F1000.00
G01 X2.2596 Y-4.0892 F1000.00
G01 X2.2597 Y-2.0945 F1000.00
G01 X2.2897 Y-2.1245 F1000.00
G01 X3.3714 Y-2.1246 F1000.00
G01 X3.3830 Y-2.1269 F1000.00
G01 X3.3937 Y-2.1313 F1000.00
G01 X3.4033 Y-2.1378 F1000.00
G01 X3.4121 Y-2.1465 F1000.00
G01 X3.4183 Y-2.1559 F1000.00
G01 X3.4229 Y-2.1669 F1000.00
G01 X3.4252 Y-2.1784 F1000.00
G01 X3.4252 Y-4.2225 F1000.00
G01 X3.4230 Y-4.2337 F1000.00
G01 X3.4183 Y-4.2449 F1000.00
G01 X3.4119 Y-4.2545 F1000.00
G01 X3.4034 Y-4.2630 F1000.00
G01 X3.3940 Y-4.2693 F1000.00
G01 X3.3832 Y-4.2738 F1000.00
G01 X3.3711 Y-4.2762 F1000.00
G01 X2.4578 Y-4.2762 F1000.00
G01 X2.4221 Y-4.2691 F1000.00
G01 X2.3881 Y-4.2550 F1000.00
G01 X2.3575 Y-4.2346 F1000.00
G01 X2.3312 Y-4.2082 F1000.00
G01 X2.3108 Y-4.1777 F1000.00
G01 X2.2967 Y-4.1438 F1000.00
G01 X2.2896 Y-4.1079 F1000.00
G01 X2.2896 Y-4.0892 F1000.00
G01 X2.2897 Y-2.1245 F1000.00
G01 X2.3197 Y-2.1545 F1000.00
G01 X3.3684 Y-2.1546 F1000.00
G01 X3.3743 Y-2.1558 F1000.00
G01 X3.3795 Y-2.1579 F1000.00
G01 X3.3842 Y-2.1611 F1000.00
G01 X3.3888 Y-2.1656 F1000.00
G01 X3.3917 Y-2.1701 F1000.00
G01 X3.3941 Y-2.1757 F1000.00
G01 X3.3952 Y-2.1813 F1000.00
G01 X3.3952 Y-4.2196 F1000.00
G01 X3.3941 Y-4.2249 F1000.00
G01 X3.3917 Y-4.2307 F1000.00
G01 X3.3886 Y-4.2354 F1000.00
G01 X3.3843 Y-4.2397 F1000.00
G01 X3.3798 Y-4.2427 F1000.00
G01 X3.3745 Y-4.2449 F1000.00
G01 X3.3681 Y-4.2462 F1000.00
G01 X2.4608 Y-4.2462 F1000.00
G01 X2.4308 Y-4.2402 F1000.00
G01 X2.4024 Y-4.2284 F1000.00
G01 X2.3767 Y-4.2113 F1000.00
G01 X2.3545 Y-4.1891 F1000.00
G01 X2.3374 Y-4.1635 F1000.00
G01 X2.3256 Y-4.1350 F1000.00
G01 X2.3196 Y-4.1050 F1000.00
G01 X2.3196 Y-4.0892 F1000.00
G01 X2.3197 Y-2.1545 F1000.00
G01 X2.3497 Y-2.1845 F1000.00
G01 X3.3652 Y-2.1846 F1000.00
G01 X3.3652 Y-4.2162 F1000.00
G01 X2.4637 Y-4.2162 F1000.00
G01 X2.4396 Y-4.2114 F1000.00
G01 X2.4166 Y-4.2019 F1000.00
G01 X2.3958 Y-4.1880 F1000.00
G01 X2.3778 Y-4.1700 F1000.00
G01 X2.3640 Y-4.1493 F1000.00
G01 X2.3544 Y-4.1263 F1000.00
G01 X2.3496 Y-4.1020 F1000.00
G01 X2.3496 Y-4.0892 F1000.00
G01 X2.3497 Y-2.1845 F1000.00
G01 X2.3797 Y-2.2145 F1000.00
G01 X3.3351 Y-2.2145 F1000.00
G01 X3.3352 Y-4.1862 F1000.00
G01 X2.4667 Y-4.1862 F1000.00
G01 X2.4484 Y-4.1826 F1000.00
G01 X2.4308 Y-4.1753 F1000.00
G01 X2.4149 Y-4.1647 F1000.00
G01 X2.4011 Y-4.1509 F1000.00
G01 X2.3906 Y-4.1351 F1000.00
G01 X2.3833 Y-4.1175 F1000.00
G01 X2.3796 Y-4.0990 F1000.00
G01 X2.3796 Y-4.0892 F1000.00
G01 X2.3797 Y-2.2145 F1000.00
G01 X2.4097 Y-2.2445 F1000.00
G01 X3.3051 Y-2.2445 F1000.00
G01 X3.3052 Y-4.1562 F1000.00
G01 X2.4697 Y-4.1562 F1000.00
G01 X2.4571 Y-4.1537 F1000.00
G01 X2.4450 Y-4.1487 F1000.00
G01 X2.4340 Y-4.1414 F1000.00
G01 X2.4244 Y-4.1317 F1000.00
G01 X2.4171 Y-4.1209 F1000.00
G01 X2.4121 Y-4.1088 F1000.00
G01 X2.4096 Y-4.0961 F1000.00
G01 X2.4096 Y-4.0892 F1000.00
G01 X2.4097 Y-2.2445 F1000.00
G01 X2.4397 Y-2.2745 F1000.00
G01 X3.2751 Y-2.2745 F1000.00
G01 X3.2752 Y-4.1262 F1000.00
G01 X2.4726 Y-4.1262 F1000.00
G01 X2.4659 Y-4.1249 F1000.00
G01 X2.4592 Y-4.1221 F1000.00
G01 X2.4531 Y-4.1181 F1000.00
G01 X2.4477 Y-4.1126 F1000.00
G01 X2.4437 Y-4.1067 F1000.00
G01 X2.4410 Y-4.1000 F1000.00
G01 X2.4396 Y-4.0931 F1000.00
G01 X2.4396 Y-4.0892 F1000.00
G01 X2.4397 Y-2.2745 F1000.00
G01 X2.4697 Y-2.3045 F1000.00
G01 X3.2451 Y-2.3045 F1000.00
G01 X3.2452 Y-4.0962 F1000.00
G01 X2.4756 Y-4.0962 F1000.00
G01 X2.4723 Y-4.0948 F1000.00
G01 X2.4703 Y-4.0925 F1000.00
G01 X2.4696 Y-4.0902 F1000.00
G01 X2.4696 Y-4.0892 F1000.00
G01 X2.4697 Y-2.3045 F1000.00
G01 X2.8296 Y-3.7362 F1000.00
G01 X2.8297 Y-2.6645 F1000.00
G01 X2.8852 Y-2.6645 F1000.00
G01 X2.8852 Y-3.7362 F1000.00
G01 X2.8296 Y-3.7362 F1000.00
G01 X2.7996 Y-3.7662 F1000.00
G01 X2.7997 Y-2.6345 F1000.00
G01 X2.9152 Y-2.6345 F1000.00
G01 X2.9152 Y-3.7662 F1000.00
G01 X2.7996 Y-3.7662 F1000.00
G01 X2.7696 Y-3.7962 F1000.00
G01 X2.7697 Y-2.6045 F1000.00
G01 X2.9451 Y-2.6045 F1000.00
G01 X2.9452 Y-3.7962 F1000.00
G01 X2.7696 Y-3.7962 F1000.00
G01 X2.7396 Y-3.8262 F1000.00
G01 X2.7397 Y-2.5745 F1000.00
G01 X2.9751 Y-2.5745 F1000.00
G01 X2.9752 Y-3.8262 F1000.00
G01 X2.7396 Y-3.8262 F1000.00
G01 X2.7096 Y-3.8562 F1000.00
G01 X2.7097 Y-2.5445 F1000.00
G01 X3.0051 Y-2.5445 F1000.00
G01 X3.0052 Y-3.8562 F1000.00
G01 X2.7096 Y-3.8562 F1000.00
G01 X2.6796 Y-3.8862 F1000.00
G01 X2.6797 Y-2.5145 F1000.00
G01 X3.0351 Y-2.5145 F1000.00
G01 X3.0352 Y-3.8862 F1000.00
G01 X2.6796 Y-3.8862 F1000.00
G01 X2.6496 Y-3.9162 F1000.00
G01 X2.6497 Y-2.4845 F1000.00
G01 X3.0651 Y-2.4845 F1000.00
G01 X3.0652 Y-3.9162 F1000.00
G01 X2.6496 Y-3.9162 F1000.00
G01 X2.6196 Y-3.9462 F1000.00
G01 X2.6197 Y-2.4545 F1000.00
G01 X3.0951 Y-2.4545 F1000.00
G01 X3.0952 Y-3.9462 F1000.00
G01 X2.6196 Y-3.9462 F1000.00
G01 X2.5896 Y-3.9762 F1000.00
G01 X2.5897 Y-2.4245 F1000.00
G01 X3.1251 Y-2.4245 F1000.00
G01 X3.1252 Y-3.9762 F1000.00
G01 X2.5896 Y-3.9762 F1000.00
G01 X2.5596 Y-4.0062 F1000.00
G01 X2.5597 Y-2.3945 F1000.00
G01 X3.1551 Y-2.3945 F1000.00
G01 X3.1552 Y-4.0062 F1000.00
G01 X2.5596 Y-4.0062 F1000.00
G01 X2.5296 Y-4.0362 F1000.00
G01 X2.5297 Y-2.3645 F1000.00
G01 X3.1851 Y-2.3645 F1000.00
G01 X3.1852 Y-4.0362 F1000.00
G01 X2.5296 Y-4.0362 F1000.00
G01 X2.4996 Y-4.0662 F1000.00
G01 X2.4997 Y-2.3345 F1000.00
G01 X3.2151 Y-2.3345 F1000.00
G01 X3.2152 Y-4.0662 F1000.00
G01 X2.4996 Y-4.0662 F1000.00
G01 X2.1996 Y-4.1168 F1000.00
G01 X2.1997 Y-2.0548 F1000.00
G01 X2.2005 Y-2.0507 F1000.00
G01 X2.2022 Y-2.0466 F1000.00
G01 X2.2049 Y-2.0426 F1000.00
G01 X2.2078 Y-2.0396 F1000.00
G01 X2.2116 Y-2.0371 F1000.00
G01 X2.2159 Y-2.0353 F1000.00
G01 X2.2200 Y-2.0345 F1000.00
G01 X3.3803 Y-2.0346 F1000.00
G01 X3.4093 Y-2.0404 F1000.00
G01 X3.4363 Y-2.0516 F1000.00
G01 X3.4607 Y-2.0678 F1000.00
G01 X3.4820 Y-2.0891 F1000.00
G01 X3.4981 Y-2.1133 F1000.00
G01 X3.5094 Y-2.1407 F1000.00
G01 X3.5152 Y-2.1695 F1000.00
G01 X3.5152 Y-4.2314 F1000.00
G01 X3.5095 Y-4.2599 F1000.00
G01 X3.4981 Y-4.2875 F1000.00
G01 X3.4819 Y-4.3119 F1000.00
G01 X3.4608 Y-4.3329 F1000.00
G01 X3.4367 Y-4.3491 F1000.00
G01 X3.4095 Y-4.3603 F1000.00
G01 X3.3799 Y-4.3662 F1000.00
G01 X2.4490 Y-4.3662 F1000.00
G01 X2.3958 Y-4.3556 F1000.00
G01 X2.3455 Y-4.3348 F1000.00
G01 X2.3002 Y-4.3045 F1000.00
G01 X2.2613 Y-4.2656 F1000.00
G01 X2.2311 Y-4.2204 F1000.00
G01 X2.2102 Y-4.1701 F1000.00
G01 X2.1996 Y-4.1168 F1000.00
G01 X2.1696 Y-4.1197 F1000.00
G01 X2.1697 Y-2.0518 F1000.00
G01 X2.1717 Y-2.0420 F1000.00
G01 X2.1756 Y-2.0324 F1000.00
G01 X2.1816 Y-2.0235 F1000.00
G01 X2.1887 Y-2.0163 F1000.00
G01 X2.1974 Y-2.0105 F1000.00
G01 X2.2071 Y-2.0065 F1000.00
G01 X2.2170 Y-2.0045 F1000.00
G01 X3.3832 Y-2.0046 F1000.00
G01 X3.4181 Y-2.0115 F1000.00
G01 X3.4505 Y-2.0250 F1000.00
G01 X3.4798 Y-2.0445 F1000.00
G01 X3.5053 Y-2.0700 F1000.00
G01 X3.5247 Y-2.0991 F1000.00
G01 X3.5383 Y-2.1319 F1000.00
G01 X3.5452 Y-2.1665 F1000.00
G01 X3.5452 Y-4.2343 F1000.00
G01 X3.5384 Y-4.2687 F1000.00
G01 X3.5247 Y-4.3017 F1000.00
G01 X3.5052 Y-4.3310 F1000.00
G01 X3.4799 Y-4.3562 F1000.00
G01 X3.4509 Y-4.3757 F1000.00
G01 X3.4182 Y-4.3892 F1000.00
G01 X3.3829 Y-4.3962 F1000.00
G01 X2.4460 Y-4.3962 F1000.00
G01 X2.3871 Y-4.3845 F1000.00
G01 X2.3313 Y-4.3614 F1000.00
G01 X2.2811 Y-4.3278 F1000.00
G01 X2.2380 Y-4.2847 F1000.00
G01 X2.2045 Y-4.2346 F1000.00
G01 X2.1814 Y-4.1788 F1000.00
G01 X2.1696 Y-4.1197 F1000.00
G01 X2.1396 Y-4.1227 F1000.00
G01 X2.1397 Y-2.0489 F1000.00
G01 X2.1428 Y-2.0332 F1000.00
G01 X2.1491 Y-2.0182 F1000.00
G01 X2.1583 Y-2.0043 F1000.00
G01 X2.1696 Y-1.9930 F1000.00
G01 X2.1832 Y-1.9839 F1000.00
G01 X2.1984 Y-1.9776 F1000.00
G01 X2.2141 Y-1.9745 F1000.00
G01 X3.3518 Y-1.9745 F1000.00
G01 X3.3862 Y-1.9746 F1000.00
G01 X3.4268 Y-1.9827 F1000.00
G01 X3.4647 Y-1.9984 F1000.00
G01 X3.4989 Y-2.0212 F1000.00
G01 X3.5286 Y-2.0509 F1000.00
G01 X3.5513 Y-2.0848 F1000.00
G01 X3.5671 Y-2.1231 F1000.00
G01 X3.5752 Y-2.1636 F1000.00
G01 X3.5752 Y-4.2373 F1000.00
G01 X3.5672 Y-4.2774 F1000.00
G01 X3.5513 Y-4.3159 F1000.00
G01 X3.5285 Y-4.3501 F1000.00
G01 X3.4990 Y-4.3795 F1000.00
G01 X3.4651 Y-4.4022 F1000.00
G01 X3.4270 Y-4.4180 F1000.00
G01 X3.3858 Y-4.4262 F1000.00
G01 X2.4431 Y-4.4262 F1000.00
G01 X2.3783 Y-4.4133 F1000.00
G01 X2.3171 Y-4.3880 F1000.00
G01 X2.2619 Y-4.3511 F1000.00
G01 X2.2147 Y-4.3039 F1000.00
G01 X2.1779 Y-4.2488 F1000.00
G01 X2.1525 Y-4.1876 F1000.00
G01 X2.1396 Y-4.1227 F1000.00
G01 X2.1096 Y-4.1257 F1000.00
G01 X2.1097 Y-2.0459 F1000.00
G01 X2.1140 Y-2.0245 F1000.00
G01 X2.1225 Y-2.0040 F1000.00
G01 X2.1350 Y-1.9852 F1000.00
G01 X2.1505 Y-1.9697 F1000.00
G01 X2.1690 Y-1.9573 F1000.00
G01 X2.1896 Y-1.9488 F1000.00
G01 X2.2111 Y-1.9445 F1000.00
G01 X3.3892 Y-1.9446 F1000.00
G01 X3.4356 Y-1.9538 F1000.00
G01 X3.4790 Y-1.9718 F1000.00
G01 X3.5180 Y-1.9979 F1000.00
G01 X3.5519 Y-2.0318 F1000.00
G01 X3.5778 Y-2.0706 F1000.00
G01 X3.5960 Y-2.1144 F1000.00
G01 X3.6052 Y-2.1606 F1000.00
G01 X3.6052 Y-4.2402 F1000.00
G01 X3.5961 Y-4.2862 F1000.00
G01 X3.5779 Y-4.3301 F1000.00
G01 X3.5518 Y-4.3692 F1000.00
G01 X3.5182 Y-4.4028 F1000.00
G01 X3.4793 Y-4.4288 F1000.00
G01 X3.4357 Y-4.4469 F1000.00
G01 X3.3888 Y-4.4562 F1000.00
G01 X2.4401 Y-4.4562 F1000.00
G01 X2.3696 Y-4.4422 F1000.00
G01 X2.3029 Y-4.4145 F1000.00
G01 X2.2428 Y-4.3744 F1000.00
G01 X2.1914 Y-4.3230 F1000.00
G01 X2.1513 Y-4.2630 F1000.00
G01 X2.1237 Y-4.1963 F1000.00
G01 X2.1096 Y-4.1257 F1000.00
G01 X2.0796 Y-4.1286 F1000.00
G01 X2.0797 Y-2.0430 F1000.00
G01 X2.0851 Y-2.0157 F1000.00
G01 X2.0959 Y-1.9897 F1000.00
G01 X2.1117 Y-1.9661 F1000.00
G01 X2.1313 Y-1.9464 F1000.00
G01 X2.1548 Y-1.9308 F1000.00
G01 X2.1809 Y-1.9200 F1000.00
G01 X2.2081 Y-1.9145 F1000.00
G01 X3.3921 Y-1.9146 F1000.00
G01 X3.4443 Y-1.9250 F1000.00
G01 X3.4932 Y-1.9452 F1000.00
G01 X3.5372 Y-1.9746 F1000.00
G01 X3.5752 Y-2.0126 F1000.00
G01 X3.6044 Y-2.0564 F1000.00
G01 X3.6248 Y-2.1056 F1000.00
G01 X3.6352 Y-2.1576 F1000.00
G01 X3.6352 Y-4.2432 F1000.00
G01 X3.6249 Y-4.2949 F1000.00
G01 X3.6044 Y-4.3443 F1000.00
G01 X3.5751 Y-4.3883 F1000.00
G01 X3.5373 Y-4.4261 F1000.00
G01 X3.4935 Y-4.4554 F1000.00
G01 X3.4445 Y-4.4757 F1000.00
G01 X3.3918 Y-4.4862 F1000.00
G01 X2.4372 Y-4.4862 F1000.00
G01 X2.3608 Y-4.4710 F1000.00
G01 X2.2887 Y-4.4411 F1000.00
G01 X2.2237 Y-4.3977 F1000.00
G01 X2.1681 Y-4.3421 F1000.00
G01 X2.1247 Y-4.2772 F1000.00
G01 X2.0948 Y-4.2051 F1000.00
G01 X2.0796 Y-4.1286 F1000.00
G01 X2.0496 Y-4.1316 F1000.00
G01 X2.0497 Y-2.0400 F1000.00
G01 X2.0563 Y-2.0070 F1000.00
G01 X2.0693 Y-1.9755 F1000.00
G01 X2.0884 Y-1.9470 F1000.00
G01 X2.1122 Y-1.9231 F1000.00
G01 X2.1406 Y-1.9042 F1000.00
G01 X2.1721 Y-1.8911 F1000.00
G01 X2.2052 Y-1.8845 F1000.00
G01 X3.3951 Y-1.8846 F1000.00
G01 X3.4531 Y-1.8962 F1000.00
G01 X3.5074 Y-1.9187 F1000.00
G01 X3.5563 Y-1.9513 F1000.00
G01 X3.5985 Y-1.9935 F1000.00
G01 X3.6310 Y-2.0422 F1000.00
G01 X3.6536 Y-2.0969 F1000.00
G01 X3.6652 Y-2.1547 F1000.00
G01 X3.6652 Y-4.2462 F1000.00
G01 X3.6538 Y-4.3037 F1000.00
G01 X3.6310 Y-4.3586 F1000.00
G01 X3.5984 Y-4.4074 F1000.00
G01 X3.5564 Y-4.4494 F1000.00
G01 X3.5077 Y-4.4820 F1000.00
G01 X3.4532 Y-4.5046 F1000.00
G01 X3.3947 Y-4.5162 F1000.00
G01 X2.4342 Y-4.5162 F1000.00
G01 X2.3521 Y-4.4999 F1000.00
G01 X2.2745 Y-4.4677 F1000.00
G01 X2.2046 Y-4.4210 F1000.00
G01 X2.1448 Y-4.3613 F1000.00
G01 X2.0981 Y-4.2915 F1000.00
G01 X2.0660 Y-4.2138 F1000.00
G01 X2.0496 Y-4.1316 F1000.00
G01 X2.0196 Y-4.1345 F1000.00
G01 X2.0197 Y-2.0371 F1000.00
G01 X2.0274 Y-1.9982 F1000.00
G01 X2.0427 Y-1.9613 F1000.00
G01 X2.0650 Y-1.9279 F1000.00
G01 X2.0931 Y-1.8998 F1000.00
G01 X2.1264 Y-1.8776 F1000.00
G01 X2.1634 Y-1.8623 F1000.00
G01 X2.2022 Y-1.8545 F1000.00
G01 X3.3980 Y-1.8546 F1000.00
G01 X3.4618 Y-1.8673 F1000.00
G01 X3.5216 Y-1.8921 F1000.00
G01 X3.5754 Y-1.9280 F1000.00
G01 X3.6218 Y-1.9744 F1000.00
G01 X3.6576 Y-2.0280 F1000.00
G01 X3.6825 Y-2.0881 F1000.00
G01 X3.6952 Y-2.1517 F1000.00
G01 X3.6952 Y-4.2491 F1000.00
G01 X3.6826 Y-4.3124 F1000.00
G01 X3.6576 Y-4.3728 F1000.00
G01 X3.6217 Y-4.4266 F1000.00
G01 X3.5755 Y-4.4727 F1000.00
G01 X3.5219 Y-4.5086 F1000.00
G01 X3.4619 Y-4.5334 F1000.00
G01 X3.3977 Y-4.5462 F1000.00
G01 X2.4313 Y-4.5462 F1000.00
G01 X2.3433 Y-4.5287 F1000.00
G01 X2.2603 Y-4.4943 F1000.00
G01 X2.1854 Y-4.4443 F1000.00
G01 X2.1215 Y-4.3804 F1000.00
G01 X2.0716 Y-4.3057 F1000.00
G01 X2.0371 Y-4.2226 F1000.00
G01 X2.0196 Y-4.1345 F1000.00
G01 X1.9896 Y-4.1375 F1000.00
G01 X1.9897 Y-2.0341 F1000.00
G01 X1.9986 Y-1.9895 F1000.00
G01 X2.0161 Y-1.9471 F1000.00
G01 X2.0417 Y-1.9088 F1000.00
G01 X2.0740 Y-1.8765 F1000.00
G01 X2.1122 Y-1.8510 F1000.00
G01 X2.1546 Y-1.8334 F1000.00
G01 X2.1993 Y-1.8245 F1000.00
G01 X3.4010 Y-1.8246 F1000.00
G01 X3.4706 Y-1.8385 F1000.00
G01 X3.5358 Y-1.8655 F1000.00
G01 X3.5945 Y-1.9047 F1000.00
G01 X3.6451 Y-1.9553 F1000.00
G01 X3.6842 Y-2.0138 F1000.00
G01 X3.7113 Y-2.0794 F1000.00
G01 X3.7252 Y-2.1487 F1000.00
G01 X3.7252 Y-4.2521 F1000.00
G01 X3.7115 Y-4.3212 F1000.00
G01 X3.6842 Y-4.3870 F1000.00
G01 X3.6450 Y-4.4457 F1000.00
G01 X3.5947 Y-4.4960 F1000.00
G01 X3.5361 Y-4.5352 F1000.00
G01 X3.4707 Y-4.5623 F1000.00
G01 X3.4006 Y-4.5762 F1000.00
G01 X2.4283 Y-4.5762 F1000.00
G01 X2.3346 Y-4.5576 F1000.00
G01 X2.2461 Y-4.5209 F1000.00
G01 X2.1663 Y-4.4676 F1000.00
G01 X2.0982 Y-4.3995 F1000.00
G01 X2.0450 Y-4.3199 F1000.00
G01 X2.0083 Y-4.2313 F1000.00
G01 X1.9896 Y-4.1375 F1000.00
G01 X1.9596 Y-4.1405 F1000.00
G01 X1.9597 Y-2.0312 F1000.00
G01 X1.9697 Y-1.9807 F1000.00
G01 X1.9895 Y-1.9329 F1000.00
G01 X2.0184 Y-1.8896 F1000.00
G01 X2.0548 Y-1.8532 F1000.00
G01 X2.0979 Y-1.8244 F1000.00
G01 X2.1458 Y-1.8046 F1000.00
G01 X2.1963 Y-1.7945 F1000.00
G01 X3.4039 Y-1.7946 F1000.00
G01 X3.4794 Y-1.8096 F1000.00
G01 X3.5500 Y-1.8389 F1000.00
G01 X3.6137 Y-1.8814 F1000.00
G01 X3.6684 Y-1.9361 F1000.00
G01 X3.7108 Y-1.9996 F1000.00
G01 X3.7402 Y-2.0706 F1000.00
G01 X3.7552 Y-2.1458 F1000.00
G01 X3.7552 Y-4.2550 F1000.00
G01 X3.7403 Y-4.3299 F1000.00
G01 X3.7108 Y-4.4012 F1000.00
G01 X3.6683 Y-4.4648 F1000.00
G01 X3.6138 Y-4.5193 F1000.00
G01 X3.5503 Y-4.5618 F1000.00
G01 X3.4794 Y-4.5911 F1000.00
G01 X3.4036 Y-4.6062 F1000.00
G01 X2.4253 Y-4.6062 F1000.00
G01 X2.3258 Y-4.5864 F1000.00
G01 X2.2318 Y-4.5475 F1000.00
G01 X2.1472 Y-4.4909 F1000.00
G01 X2.0749 Y-4.4186 F1000.00
G01 X2.0184 Y-4.3341 F1000.00
G01 X1.9794 Y-4.2401 F1000.00
G01 X1.9596 Y-4.1405 F1000.00
G01 X1.9296 Y-4.1434 F1000.00
G01 X1.9297 Y-2.0282 F1000.00
G01 X1.9409 Y-1.9720 F1000.00
G01 X1.9629 Y-1.9187 F1000.00
G01 X1.9951 Y-1.8705 F1000.00
G01 X2.0357 Y-1.8299 F1000.00
G01 X2.0837 Y-1.7978 F1000.00
G01 X2.1371 Y-1.7757 F1000.00
G01 X2.1933 Y-1.7645 F1000.00
G01 X3.4069 Y-1.7646 F1000.00
G01 X3.4881 Y-1.7808 F1000.00
G01 X3.5642 Y-1.8123 F1000.00
G01 X3.6328 Y-1.8581 F1000.00
G01 X3.6917 Y-1.9170 F1000.00
G01 X3.7374 Y-1.9854 F1000.00
G01 X3.7690 Y-2.0618 F1000.00
G01 X3.7852 Y-2.1428 F1000.00
G01 X3.7852 Y-4.2580 F1000.00
G01 X3.7692 Y-4.3387 F1000.00
G01 X3.7374 Y-4.4154 F1000.00
G01 X3.6916 Y-4.4839 F1000.00
G01 X3.6329 Y-4.5426 F1000.00
G01 X3.5645 Y-4.5884 F1000.00
G01 X3.4882 Y-4.6199 F1000.00
G01 X3.4065 Y-4.6362 F1000.00
G01 X2.4224 Y-4.6362 F1000.00
G01 X2.3171 Y-4.6153 F1000.00
G01 X2.2176 Y-4.5741 F1000.00
G01 X2.1281 Y-4.5142 F1000.00
G01 X2.0516 Y-4.4378 F1000.00
G01 X1.9918 Y-4.3483 F1000.00
G01 X1.9506 Y-4.2488 F1000.00
G01 X1.9296 Y-4.1434 F1000.00
G01 X1.8996 Y-4.1464 F1000.00
G01 X1.8997 Y-2.0253 F1000.00
G01 X1.9120 Y-1.9632 F1000.00
G01 X1.9364 Y-1.9045 F1000.00
G01 X1.9718 Y-1.8514 F1000.00
G01 X2.0166 Y-1.8066 F1000.00
G01 X2.0695 Y-1.7712 F1000.00
G01 X2.1283 Y-1.7469 F1000.00
G01 X2.1904 Y-1.7345 F1000.00
G01 X3.4099 Y-1.7346 F1000.00
G01 X3.4969 Y-1.7519 F1000.00
G01 X3.5784 Y-1.7857 F1000.00
G01 X3.6519 Y-1.8348 F1000.00
G01 X3.7150 Y-1.8979 F1000.00
G01 X3.7639 Y-1.9712 F1000.00
G01 X3.7979 Y-2.0531 F1000.00
G01 X3.8152 Y-2.1399 F1000.00
G01 X3.8152 Y-4.2609 F1000.00
G01 X3.7980 Y-4.3474 F1000.00
G01 X3.7640 Y-4.4296 F1000.00
G01 X3.7149 Y-4.5030 F1000.00
G01 X3.6520 Y-4.5659 F1000.00
G01 X3.5787 Y-4.6149 F1000.00
G01 X3.4969 Y-4.6488 F1000.00
G01 X3.4095 Y-4.6662 F1000.00
G01 X2.4194 Y-4.6662 F1000.00
G01 X2.3083 Y-4.6441 F1000.00
G01 X2.2034 Y-4.6006 F1000.00
G01 X2.1090 Y-4.5375 F1000.00
G01 X2.0283 Y-4.4569 F1000.00
G01 X1.9652 Y-4.3625 F1000.00
G01 X1.9217 Y-4.2576 F1000.00
G01 X1.8996 Y-4.1464 F1000.00
G01 X1.8696 Y-4.1493 F1000.00
G01 X1.8697 Y-2.0223 F1000.00
G01 X1.8832 Y-1.9545 F1000.00
G01 X1.9098 Y-1.8903 F1000.00
G01 X1.9485 Y-1.8323 F1000.00
G01 X1.9975 Y-1.7833 F1000.00
G01 X2.0553 Y-1.7447 F1000.00
G01 X2.1196 Y-1.7180 F1000.00
G01 X2.1874 Y-1.7045 F1000.00
G01 X3.4128 Y-1.7046 F1000.00
G01 X3.5056 Y-1.7231 F1000.00
G01 X3.5926 Y-1.7591 F1000.00
G01 X3.6710 Y-1.8115 F1000.00
G01 X3.7383 Y-1.8788 F1000.00
G01 X3.7905 Y-1.9570 F1000.00
G01 X3.8267 Y-2.0443 F1000.00
G01 X3.8452 Y-2.1369 F1000.00
G01 X3.8452 Y-4.2639 F1000.00
G01 X3.8269 Y-4.3562 F1000.00
G01 X3.7906 Y-4.4438 F1000.00
G01 X3.7383 Y-4.5222 F1000.00
G01 X3.6712 Y-4.5892 F1000.00
G01 X3.5929 Y-4.6415 F1000.00
G01 X3.5057 Y-4.6776 F1000.00
G01 X3.4125 Y-4.6962 F1000.00
G01 X2.4165 Y-4.6962 F1000.00
G01 X2.2996 Y-4.6730 F1000.00
G01 X2.1892 Y-4.6272 F1000.00
G01 X2.0898 Y-4.5608 F1000.00
G01 X2.0050 Y-4.4760 F1000.00
G01 X1.9386 Y-4.3767 F1000.00
G01 X1.8929 Y-4.2663 F1000.00
G01 X1.8696 Y-4.1493 F1000.00
G01 X1.8396 Y-4.1523 F1000.00
G01 X1.8397 Y-2.0194 F1000.00
G01 X1.8543 Y-1.9457 F1000.00
G01 X1.8832 Y-1.8761 F1000.00
G01 X1.9252 Y-1.8132 F1000.00
G01 X1.9783 Y-1.7600 F1000.00
G01 X2.0411 Y-1.7181 F1000.00
G01 X2.1108 Y-1.6892 F1000.00
G01 X2.1844 Y-1.6745 F1000.00
G01 X3.4158 Y-1.6746 F1000.00
G01 X3.5144 Y-1.6942 F1000.00
G01 X3.6069 Y-1.7326 F1000.00
G01 X3.6901 Y-1.7882 F1000.00
G01 X3.7616 Y-1.8596 F1000.00
G01 X3.8171 Y-1.9427 F1000.00
G01 X3.8556 Y-2.0356 F1000.00
G01 X3.8752 Y-2.1339 F1000.00
G01 X3.8752 Y-4.2668 F1000.00
G01 X3.8557 Y-4.3649 F1000.00
G01 X3.8172 Y-4.4580 F1000.00
G01 X3.7616 Y-4.5413 F1000.00
G01 X3.6903 Y-4.6125 F1000.00
G01 X3.6071 Y-4.6681 F1000.00
G01 X3.5144 Y-4.7065 F1000.00
G01 X3.4154 Y-4.7262 F1000.00
G01 X2.4135 Y-4.7262 F1000.00
G01 X2.2908 Y-4.7018 F1000.00
G01 X2.1750 Y-4.6538 F1000.00
G01 X2.0707 Y-4.5842 F1000.00
G01 X1.9817 Y-4.4951 F1000.00
G01 X1.9121 Y-4.3910 F1000.00
G01 X1.8640 Y-4.2751 F1000.00
G01 X1.8396 Y-4.1523 F1000.00
G01 X1.8096 Y-4.1552 F1000.00
G01 X1.8097 Y-2.0164 F1000.00
G01 X1.8255 Y-1.9370 F1000.00
G01 X1.8566 Y-1.8619 F1000.00
G01 X1.9019 Y-1.7940 F1000.00
G01 X1.9592 Y-1.7367 F1000.00
G01 X2.0269 Y-1.6915 F1000.00
G01 X2.1021 Y-1.6604 F1000.00
G01 X2.1815 Y-1.6445 F1000.00
G01 X3.4187 Y-1.6446 F1000.00
G01 X3.5231 Y-1.6654 F1000.00
G01 X3.6211 Y-1.7060 F1000.00
G01 X3.7093 Y-1.7649 F1000.00
G01 X3.7849 Y-1.8405 F1000.00
G01 X3.8437 Y-1.9285 F1000.00
G01 X3.8844 Y-2.0268 F1000.00
G01 X3.9052 Y-2.1310 F1000.00
G01 X3.9052 Y-4.2698 F1000.00
G01 X3.8845 Y-4.3737 F1000.00
G01 X3.8437 Y-4.4722 F1000.00
G01 X3.7849 Y-4.5604 F1000.00
G01 X3.7094 Y-4.6358 F1000.00
G01 X3.6214 Y-4.6947 F1000.00
G01 X3.5232 Y-4.7353 F1000.00
G01 X3.4184 Y-4.7562 F1000.00
G01 X2.4106 Y-4.7562 F1000.00
G01 X2.2821 Y-4.7306 F1000.00
G01 X2.1608 Y-4.6804 F1000.00
G01 X2.0516 Y-4.6075 F1000.00
G01 X1.9584 Y-4.5143 F1000.00
G01 X1.8855 Y-4.4052 F1000.00
G01 X1.8352 Y-4.2839 F1000.00
G01 X1.8096 Y-4.1552 F1000.00
G01 X1.7796 Y-4.1582 F1000.00
G01 X1.7797 Y-2.0135 F1000.00
G01 X1.7966 Y-1.9283 F1000.00
G01 X1.8300 Y-1.8477 F1000.00
G01 X1.8786 Y-1.7749 F1000.00
G01 X1.9401 Y-1.7134 F1000.00
G01 X2.0127 Y-1.6649 F1000.00
G01 X2.0933 Y-1.6315 F1000.00
G01 X2.1785 Y-1.6145 F1000.00
G01 X3.4217 Y-1.6146 F1000.00
G01 X3.5319 Y-1.6365 F1000.00
G01 X3.6353 Y-1.6794 F1000.00
G01 X3.7284 Y-1.7416 F1000.00
G01 X3.8082 Y-1.8214 F1000.00
G01 X3.8703 Y-1.9143 F1000.00
G01 X3.9132 Y-2.0181 F1000.00
G01 X3.9352 Y-2.1280 F1000.00
G01 X3.9352 Y-4.2727 F1000.00
G01 X3.9134 Y-4.3824 F1000.00
G01 X3.8703 Y-4.4864 F1000.00
G01 X3.8082 Y-4.5795 F1000.00
G01 X3.7285 Y-4.6591 F1000.00
G01 X3.6356 Y-4.7213 F1000.00
G01 X3.5319 Y-4.7642 F1000.00
G01 X3.4213 Y-4.7862 F1000.00
G01 X2.4076 Y-4.7862 F1000.00
G01 X2.2733 Y-4.7595 F1000.00
G01 X2.1466 Y-4.7070 F1000.00
G01 X2.0325 Y-4.6308 F1000.00
G01 X1.9351 Y-4.5334 F1000.00
G01 X1.8589 Y-4.4194 F1000.00
G01 X1.8064 Y-4.2926 F1000.00
G01 X1.7796 Y-4.1582 F1000.00
G01 X1.7496 Y-4.1612 F1000.00
G01 X1.7497 Y-2.0105 F1000.00
G01 X1.7678 Y-1.9195 F1000.00
G01 X1.8034 Y-1.8335 F1000.00
G01 X1.8553 Y-1.7558 F1000.00
G01 X1.9210 Y-1.6901 F1000.00
G01 X1.9985 Y-1.6383 F1000.00
G01 X2.0845 Y-1.6027 F1000.00
G01 X2.1756 Y-1.5845 F1000.00
G01 X3.4247 Y-1.5846 F1000.00
G01 X3.5406 Y-1.6077 F1000.00
G01 X3.6495 Y-1.6528 F1000.00
G01 X3.7475 Y-1.7183 F1000.00
G01 X3.8315 Y-1.8023 F1000.00
G01 X3.8969 Y-1.9001 F1000.00
G01 X3.9421 Y-2.0093 F1000.00
G01 X3.9652 Y-2.1250 F1000.00
G01 X3.9652 Y-4.2757 F1000.00
G01 X3.9422 Y-4.3912 F1000.00
G01 X3.8969 Y-4.5006 F1000.00
G01 X3.8315 Y-4.5986 F1000.00
G01 X3.7477 Y-4.6824 F1000.00
G01 X3.6498 Y-4.7479 F1000.00
G01 X3.5407 Y-4.7930 F1000.00
G01 X3.4243 Y-4.8162 F1000.00
G01 X2.4047 Y-4.8162 F1000.00
G01 X2.2646 Y-4.7883 F1000.00
G01 X2.1324 Y-4.7336 F1000.00
G01 X2.0134 Y-4.6541 F1000.00
G01 X1.9118 Y-4.5525 F1000.00
G01 X1.8323 Y-4.4336 F1000.00
G01 X1.7775 Y-4.3014 F1000.00
G01 X1.7496 Y-4.1612 F1000.00
G01 X1.7196 Y-4.1641 F1000.00
G01 X1.7197 Y-2.0076 F1000.00
G01 X1.7389 Y-1.9108 F1000.00
G01 X1.7768 Y-1.8193 F1000.00
G01 X1.8320 Y-1.7367 F1000.00
G01 X1.9018 Y-1.6668 F1000.00
G01 X1.9842 Y-1.6117 F1000.00
G01 X2.0758 Y-1.5738 F1000.00
G01 X2.1726 Y-1.5545 F1000.00
G01 X3.4276 Y-1.5546 F1000.00
G01 X3.5494 Y-1.5789 F1000.00
G01 X3.6637 Y-1.6262 F1000.00
G01 X3.7666 Y-1.6950 F1000.00
G01 X3.8548 Y-1.7831 F1000.00
G01 X3.9235 Y-1.8859 F1000.00
G01 X3.9709 Y-2.0005 F1000.00
G01 X3.9952 Y-2.1221 F1000.00
G01 X3.9952 Y-4.2786 F1000.00
G01 X3.9711 Y-4.3999 F1000.00
G01 X3.9235 Y-4.5148 F1000.00
G01 X3.8548 Y-4.6177 F1000.00
G01 X3.7668 Y-4.7058 F1000.00
G01 X3.6640 Y-4.7745 F1000.00
G01 X3.5494 Y-4.8219 F1000.00
G01 X3.4272 Y-4.8462 F1000.00
G01 X2.4017 Y-4.8462 F1000.00
G01 X2.2558 Y-4.8172 F1000.00
G01 X2.1182 Y-4.7602 F1000.00
G01 X1.9942 Y-4.6774 F1000.00
G01 X1.8885 Y-4.5716 F1000.00
G01 X1.8057 Y-4.4478 F1000.00
G01 X1.7487 Y-4.3101 F1000.00
G01 X1.7196 Y-4.1641 F1000.00
G01 X1.6896 Y-4.1671 F1000.00
G01 X1.6897 Y-2.0046 F1000.00
G01 X1.7101 Y-1.9020 F1000.00
G01 X1.7502 Y-1.8051 F1000.00
G01 X1.8087 Y-1.7176 F1000.00
G01 X1.8827 Y-1.6435 F1000.00
G01 X1.9700 Y-1.5852 F1000.00
G01 X2.0670 Y-1.5450 F1000.00
G01 X2.1696 Y-1.5245 F1000.00
G01 X3.4306 Y-1.5246 F1000.00
G01 X3.5582 Y-1.5500 F1000.00
G01 X3.6779 Y-1.5996 F1000.00
G01 X3.7858 Y-1.6717 F1000.00
G01 X3.8781 Y-1.7640 F1000.00
G01 X3.9501 Y-1.8717 F1000.00
G01 X3.9998 Y-1.9918 F1000.00
G01 X4.0252 Y-2.1191 F1000.00
G01 X4.0252 Y-4.2816 F1000.00
G01 X3.9999 Y-4.4087 F1000.00
G01 X3.9501 Y-4.5290 F1000.00
G01 X3.8781 Y-4.6369 F1000.00
G01 X3.7859 Y-4.7291 F1000.00
G01 X3.6782 Y-4.8011 F1000.00
G01 X3.5582 Y-4.8507 F1000.00
G01 X3.4302 Y-4.8762 F1000.00
G01 X2.3988 Y-4.8762 F1000.00
G01 X2.2471 Y-4.8460 F1000.00
G01 X2.1040 Y-4.7867 F1000.00
G01 X1.9751 Y-4.7007 F1000.00
G01 X1.8652 Y-4.5908 F1000.00
G01 X1.7791 Y-4.4620 F1000.00
G01 X1.7198 Y-4.3189 F1000.00
G01 X1.6896 Y-4.1671 F1000.00
G01 X1.6596 Y-4.1700 F1000.00
G01 X1.6597 Y-2.0017 F1000.00
G01 X1.6812 Y-1.8933 F1000.00
G01 X1.7237 Y-1.7909 F1000.00
G01 X1.7854 Y-1.6984 F1000.00
G01 X1.8636 Y-1.6202 F1000.00
G01 X1.9558 Y-1.5586 F1000.00
G01 X2.0583 Y-1.5161 F1000.00
G01 X2.1667 Y-1.4945 F1000.00
G01 X3.4335 Y-1.4946 F1000.00
G01 X3.5669 Y-1.5212 F1000.00
G01 X3.6921 Y-1.5730 F1000.00
G01 X3.8049 Y-1.6484 F1000.00
G01 X3.9014 Y-1.7449 F1000.00
G01 X3.9766 Y-1.8575 F1000.00
G01 X4.0286 Y-1.9830 F1000.00
G01 X4.0552 Y-2.1161 F1000.00
G01 X4.0552 Y-4.2845 F1000.00
G01 X4.0288 Y-4.4174 F1000.00
G01 X3.9767 Y-4.5432 F1000.00
G01 X3.9014 Y-4.6560 F1000.00
G01 X3.8051 Y-4.7524 F1000.00
G01 X3.6924 Y-4.8277 F1000.00
G01 X3.5669 Y-4.8796 F1000.00
G01 X3.4332 Y-4.9062 F1000.00
G01 X2.3958 Y-4.9062 F1000.00
G01 X2.2383 Y-4.8749 F1000.00
G01 X2.0898 Y-4.8133 F1000.00
G01 X1.9560 Y-4.7240 F1000.00
G01 X1.8419 Y-4.6099 F1000.00
G01 X1.7526 Y-4.4762 F1000.00
G01 X1.6910 Y-4.3276 F1000.00
G01 X1.6596 Y-4.1700 F1000.00
G01 X1.6296 Y-4.1730 F1000.00
G01 X1.6297 Y-1.9987 F1000.00
G01 X1.6524 Y-1.8845 F1000.00
G01 X1.6971 Y-1.7767 F1000.00
G01 X1.7621 Y-1.6793 F1000.00
G01 X1.8445 Y-1.5969 F1000.00
G01 X1.9416 Y-1.5320 F1000.00
G01 X2.0495 Y-1.4873 F1000.00
G01 X2.1637 Y-1.4645 F1000.00
G01 X3.4365 Y-1.4646 F1000.00
G01 X3.5757 Y-1.4923 F1000.00
G01 X3.7063 Y-1.5465 F1000.00
G01 X3.8240 Y-1.6251 F1000.00
G01 X3.9247 Y-1.7258 F1000.00
G01 X4.0032 Y-1.8433 F1000.00
G01 X4.0575 Y-1.9743 F1000.00
G01 X4.0852 Y-2.1132 F1000.00
G01 X4.0852 Y-4.2875 F1000.00
G01 X4.0576 Y-4.4262 F1000.00
G01 X4.0033 Y-4.5574 F1000.00
G01 X3.9247 Y-4.6751 F1000.00
G01 X3.8242 Y-4.7757 F1000.00
G01 X3.7066 Y-4.8542 F1000.00
G01 X3.5757 Y-4.9084 F1000.00
G01 X3.4361 Y-4.9362 F1000.00
G01 X2.3928 Y-4.9362 F1000.00
G01 X2.2296 Y-4.9037 F1000.00
G01 X2.0755 Y-4.8399 F1000.00
G01 X1.9369 Y-4.7473 F1000.00
G01 X1.8186 Y-4.6290 F1000.00
G01 X1.7260 Y-4.4905 F1000.00
G01 X1.6621 Y-4.3364 F1000.00
G01 X1.6296 Y-4.1730 F1000.00
G01 X1.5996 Y-4.1760 F1000.00
G01 X1.5997 Y-1.9958 F1000.00
G01 X1.6235 Y-1.8758 F1000.00
G01 X1.6705 Y-1.7625 F1000.00
G01 X1.7387 Y-1.6602 F1000.00
G01 X1.8253 Y-1.5736 F1000.00
G01 X1.9274 Y-1.5054 F1000.00
G01 X2.0408 Y-1.4584 F1000.00
G01 X2.1608 Y-1.4345 F1000.00
G01 X3.4395 Y-1.4346 F1000.00
G01 X3.5844 Y-1.4635 F1000.00
G01 X3.7206 Y-1.5199 F1000.00
G01 X3.8431 Y-1.6018 F1000.00
G01 X3.9480 Y-1.7066 F1000.00
G01 X4.0298 Y-1.8291 F1000.00
G01 X4.0863 Y-1.9655 F1000.00
G01 X4.1152 Y-2.1102 F1000.00
G01 X4.1152 Y-4.2904 F1000.00
G01 X4.0865 Y-4.4349 F1000.00
G01 X4.0299 Y-4.5716 F1000.00
G01 X3.9480 Y-4.6942 F1000.00
G01 X3.8433 Y-4.7990 F1000.00
G01 X3.7208 Y-4.8808 F1000.00
G01 X3.5844 Y-4.9373 F1000.00
G01 X3.4391 Y-4.9662 F1000.00
G01 X2.3899 Y-4.9662 F1000.00
G01 X2.2208 Y-4.9326 F1000.00
G01 X2.0613 Y-4.8665 F1000.00
G01 X1.9178 Y-4.7706 F1000.00
G01 X1.7953 Y-4.6482 F1000.00
G01 X1.6994 Y-4.5047 F1000.00
G01 X1.6333 Y-4.3451 F1000.00
G01 X1.5996 Y-4.1760 F1000.00
G01 X1.5696 Y-4.1789 F1000.00
G01 X1.5697 Y-1.9928 F1000.00
G01 X1.5947 Y-1.8670 F1000.00
G01 X1.6439 Y-1.7482 F1000.00
G01 X1.7154 Y-1.6411 F1000.00
G01 X1.8062 Y-1.5503 F1000.00
G01 X1.9132 Y-1.4788 F1000.00
G01 X2.0320 Y-1.4296 F1000.00
G01 X2.1578 Y-1.4045 F1000.00
G01 X3.4424 Y-1.4046 F1000.00
G01 X3.5932 Y-1.4346 F1000.00
G01 X3.7348 Y-1.4933 F1000.00
G01 X3.8623 Y-1.5785 F1000.00
G01 X3.9713 Y-1.6875 F1000.00
G01 X4.0564 Y-1.8149 F1000.00
G01 X4.1152 Y-1.9568 F1000.00
G01 X4.1452 Y-2.1073 F1000.00
G01 X4.1452 Y-4.2934 F1000.00
G01 X4.1153 Y-4.4437 F1000.00
G01 X4.0564 Y-4.5858 F1000.00
G01 X3.9713 Y-4.7133 F1000.00
G01 X3.8624 Y-4.8223 F1000.00
G01 X3.7350 Y-4.9074 F1000.00
G01 X3.5932 Y-4.9661 F1000.00
G01 X3.4420 Y-4.9962 F1000.00
G01 X2.3869 Y-4.9962 F1000.00
G01 X2.2121 Y-4.9614 F1000.00
G01 X2.0471 Y-4.8931 F1000.00
G01 X1.8986 Y-4.7939 F1000.00
G01 X1.7720 Y-4.6673 F1000.00
G01 X1.6728 Y-4.5189 F1000.00
G01 X1.6044 Y-4.3539 F1000.00
G01 X1.5696 Y-4.1789 F1000.00
G01 X1.5396 Y-4.1819 F1000.00
G01 X1.5397 Y-1.9899 F1000.00
G01 X1.5658 Y-1.8583 F1000.00
G01 X1.6173 Y-1.7340 F1000.00
G01 X1.6921 Y-1.6220 F1000.00
G01 X1.7871 Y-1.5270 F1000.00
G01 X1.8990 Y-1.4522 F1000.00
G01 X2.0233 Y-1.4007 F1000.00
G01 X2.1548 Y-1.3745 F1000.00
G01 X3.4454 Y-1.3746 F1000.00
G01 X3.6019 Y-1.4058 F1000.00
G01 X3.7490 Y-1.4667 F1000.00
G01 X3.8814 Y-1.5552 F1000.00
G01 X3.9946 Y-1.6684 F1000.00
G01 X4.0830 Y-1.8006 F1000.00
G01 X4.1440 Y-1.9480 F1000.00
G01 X4.1752 Y-2.1043 F1000.00
G01 X4.1752 Y-4.2963 F1000.00
G01 X4.1442 Y-4.4524 F1000.00
G01 X4.0830 Y-4.6000 F1000.00
G01 X3.9947 Y-4.7324 F1000.00
G01 X3.8816 Y-4.8456 F1000.00
G01 X3.7492 Y-4.9340 F1000.00
G01 X3.6019 Y-4.9950 F1000.00
G01 X3.4450 Y-5.0262 F1000.00
G01 X2.3840 Y-5.0262 F1000.00
G01 X2.2033 Y-4.9903 F1000.00
G01 X2.0329 Y-4.9197 F1000.00
G01 X1.8795 Y-4.8172 F1000.00
G01 X1.7487 Y-4.6864 F1000.00
G01 X1.6462 Y-4.5331 F1000.00
G01 X1.5756 Y-4.3626 F1000.00
G01 X1.5396 Y-4.1819 F1000.00
G01 X1.5096 Y-4.1848 F1000.00
G01 X1.5097 Y-1.9869 F1000.00
G01 X1.5370 Y-1.8495 F1000.00
G01 X1.5907 Y-1.7198 F1000.00
G01 X1.6688 Y-1.6028 F1000.00
G01 X1.7679 Y-1.5037 F1000.00
G01 X1.8848 Y-1.4256 F1000.00
G01 X2.0145 Y-1.3719 F1000.00
G01 X2.1519 Y-1.3445 F1000.00
G01 X3.4483 Y-1.3446 F1000.00
G01 X3.6107 Y-1.3769 F1000.00
G01 X3.7632 Y-1.4401 F1000.00
G01 X3.9005 Y-1.5319 F1000.00
G01 X4.0179 Y-1.6493 F1000.00
G01 X4.1096 Y-1.7864 F1000.00
G01 X4.1728 Y-1.9392 F1000.00
G01 X4.2052 Y-2.1013 F1000.00
G01 X4.2052 Y-4.2993 F1000.00
G01 X4.1730 Y-4.4612 F1000.00
G01 X4.1096 Y-4.6142 F1000.00
G01 X4.0180 Y-4.7516 F1000.00
G01 X3.9007 Y-4.8689 F1000.00
G01 X3.7634 Y-4.9606 F1000.00
G01 X3.6107 Y-5.0238 F1000.00
G01 X3.4479 Y-5.0562 F1000.00
G01 X2.3810 Y-5.0562 F1000.00
G01 X2.1946 Y-5.0191 F1000.00
G01 X2.0187 Y-4.9463 F1000.00
G01 X1.8604 Y-4.8405 F1000.00
G01 X1.7254 Y-4.7055 F1000.00
G01 X1.6196 Y-4.5473 F1000.00
G01 X1.5467 Y-4.3714 F1000.00
G01 X1.5096 Y-4.1848 F1000.00
G01 X1.4796 Y-4.1878 F1000.00
G01 X1.4797 Y-1.9840 F1000.00
G01 X1.5081 Y-1.8408 F1000.00
G01 X1.5641 Y-1.7056 F1000.00
G01 X1.6455 Y-1.5837 F1000.00
G01 X1.7488 Y-1.4804 F1000.00
G01 X1.8706 Y-1.3991 F1000.00
G01 X2.0057 Y-1.3431 F1000.00
G01 X2.1489 Y-1.3145 F1000.00
G01 X3.4513 Y-1.3146 F1000.00
G01 X3.6194 Y-1.3481 F1000.00
G01 X3.7774 Y-1.4135 F1000.00
G01 X3.9196 Y-1.5086 F1000.00
G01 X4.0412 Y-1.6301 F1000.00
G01 X4.1362 Y-1.7722 F1000.00
G01 X4.2017 Y-1.9305 F1000.00
G01 X4.2352 Y-2.0984 F1000.00
G01 X4.2352 Y-4.3022 F1000.00
G01 X4.2019 Y-4.4699 F1000.00
G01 X4.1362 Y-4.6284 F1000.00
G01 X4.0413 Y-4.7707 F1000.00
G01 X3.9198 Y-4.8922 F1000.00
G01 X3.7776 Y-4.9872 F1000.00
G01 X3.6194 Y-5.0527 F1000.00
G01 X3.4509 Y-5.0862 F1000.00
G01 X2.3781 Y-5.0862 F1000.00
G01 X2.1858 Y-5.0480 F1000.00
G01 X2.0045 Y-4.9728 F1000.00
G01 X1.8413 Y-4.8638 F1000.00
G01 X1.7021 Y-4.7247 F1000.00
G01 X1.5931 Y-4.5615 F1000.00
G01 X1.5179 Y-4.3801 F1000.00
G01 X1.4796 Y-4.1878 F1000.00
G01 X1.4496 Y-4.1907 F1000.00
G01 X1.4497 Y-1.9810 F1000.00
G01 X1.4793 Y-1.8320 F1000.00
G01 X1.5375 Y-1.6914 F1000.00
G01 X1.6222 Y-1.5646 F1000.00
G01 X1.7297 Y-1.4571 F1000.00
G01 X1.8563 Y-1.3725 F1000.00
G01 X1.9970 Y-1.3142 F1000.00
G01 X2.1460 Y-1.2845 F1000.00
G01 X3.4542 Y-1.2846 F1000.00
G01 X3.6282 Y-1.3193 F1000.00
G01 X3.7916 Y-1.3870 F1000.00
G01 X3.9387 Y-1.4853 F1000.00
G01 X4.0645 Y-1.6110 F1000.00
G01 X4.1627 Y-1.7580 F1000.00
G01 X4.2305 Y-1.9217 F1000.00
G01 X4.2652 Y-2.0954 F1000.00
G01 X4.2652 Y-4.3052 F1000.00
G01 X4.2307 Y-4.4787 F1000.00
G01 X4.1628 Y-4.6426 F1000.00
G01 X4.0646 Y-4.7898 F1000.00
G01 X3.9389 Y-4.9155 F1000.00
G01 X3.7918 Y-5.0138 F1000.00
G01 X3.6281 Y-5.0815 F1000.00
G01 X3.4539 Y-5.1162 F1000.00
G01 X2.3751 Y-5.1162 F1000.00
G01 X2.1771 Y-5.0768 F1000.00
G01 X1.9903 Y-4.9994 F1000.00
G01 X1.8221 Y-4.8871 F1000.00
G01 X1.6788 Y-4.7438 F1000.00
G01 X1.5665 Y-4.5757 F1000.00
G01 X1.4890 Y-4.3889 F1000.00
G01 X1.4496 Y-4.1907 F1000.00
G01 X1.4196 Y-4.1937 F1000.00
G01 X1.4197 Y-1.9781 F1000.00
G01 X1.4504 Y-1.8233 F1000.00
G01 X1.5110 Y-1.6772 F1000.00
G01 X1.5989 Y-1.5455 F1000.00
G01 X1.7106 Y-1.4338 F1000.00
G01 X1.8421 Y-1.3459 F1000.00
G01 X1.9882 Y-1.2854 F1000.00
G01 X2.1430 Y-1.2545 F1000.00
G01 X3.4572 Y-1.2546 F1000.00
G01 X3.6370 Y-1.2904 F1000.00
G01 X3.8058 Y-1.3604 F1000.00
G01 X3.9579 Y-1.4620 F1000.00
G01 X4.0878 Y-1.5919 F1000.00
G01 X4.1893 Y-1.7438 F1000.00
G01 X4.2594 Y-1.9130 F1000.00
G01 X4.2952 Y-2.0924 F1000.00
G01 X4.2952 Y-4.3081 F1000.00
G01 X4.2596 Y-4.4874 F1000.00
G01 X4.1894 Y-4.6568 F1000.00
G01 X4.0879 Y-4.8089 F1000.00
G01 X3.9581 Y-4.9388 F1000.00
G01 X3.8061 Y-5.0404 F1000.00
G01 X3.6369 Y-5.1104 F1000.00
G01 X3.4568 Y-5.1462 F1000.00
G01 X2.3722 Y-5.1462 F1000.00
G01 X2.1683 Y-5.1057 F1000.00
G01 X1.9761 Y-5.0260 F1000.00
G01 X1.8030 Y-4.9104 F1000.00
G01 X1.6555 Y-4.7629 F1000.00
G01 X1.5399 Y-4.5900 F1000.00
G01 X1.4602 Y-4.3977 F1000.00
G01 X1.4196 Y-4.1937 F1000.00
G01 X1.3896 Y-4.1967 F1000.00
G01 X1.3897 Y-1.9751 F1000.00
G01 X1.4216 Y-1.8145 F1000.00
G01 X1.4844 Y-1.6630 F1000.00
G01 X1.5756 Y-1.5264 F1000.00
G01 X1.6914 Y-1.4105 F1000.00
G01 X1.8279 Y-1.3193 F1000.00
G01 X1.9795 Y-1.2565 F1000.00
G01 X2.1400 Y-1.2245 F1000.00
G01 X3.4602 Y-1.2246 F1000.00
G01 X3.6457 Y-1.2616 F1000.00
G01 X3.8200 Y-1.3338 F1000.00
G01 X3.9770 Y-1.4387 F1000.00
G01 X4.1111 Y-1.5727 F1000.00
G01 X4.2159 Y-1.7296 F1000.00
G01 X4.2882 Y-1.9042 F1000.00
G01 X4.3252 Y-2.0895 F1000.00
G01 X4.3252 Y-4.3111 F1000.00
G01 X4.2884 Y-4.4962 F1000.00
G01 X4.2160 Y-4.6710 F1000.00
G01 X4.1112 Y-4.8280 F1000.00
G01 X3.9772 Y-4.9621 F1000.00
G01 X3.8203 Y-5.0669 F1000.00
G01 X3.6456 Y-5.1392 F1000.00
G01 X3.4598 Y-5.1762 F1000.00
G01 X2.3692 Y-5.1762 F1000.00
G01 X2.1595 Y-5.1345 F1000.00
G01 X1.9619 Y-5.0526 F1000.00
G01 X1.7839 Y-4.9337 F1000.00
G01 X1.6322 Y-4.7820 F1000.00
G01 X1.5133 Y-4.6042 F1000.00
G01 X1.4314 Y-4.4064 F1000.00
G01 X1.3896 Y-4.1967 F1000.00
G01 X1.3596 Y-4.1996 F1000.00
G01 X1.3597 Y-1.9721 F1000.00
G01 X1.3928 Y-1.8058 F1000.00
G01 X1.4578 Y-1.6488 F1000.00
G01 X1.5523 Y-1.5072 F1000.00
G01 X1.6723 Y-1.3872 F1000.00
G01 X1.8137 Y-1.2927 F1000.00
G01 X1.9707 Y-1.2277 F1000.00
G01 X2.1371 Y-1.1945 F1000.00
G01 X3.4631 Y-1.1946 F1000.00
G01 X3.6545 Y-1.2327 F1000.00
G01 X3.8342 Y-1.3072 F1000.00
G01 X3.9961 Y-1.4154 F1000.00
G01 X4.1344 Y-1.5536 F1000.00
G01 X4.2425 Y-1.7154 F1000.00
G01 X4.3171 Y-1.8955 F1000.00
G01 X4.3552 Y-2.0865 F1000.00
G01 X4.3552 Y-4.3140 F1000.00
G01 X4.3173 Y-4.5049 F1000.00
G01 X4.2426 Y-4.6852 F1000.00
G01 X4.1345 Y-4.8471 F1000.00
G01 X3.9963 Y-4.9854 F1000.00
G01 X3.8345 Y-5.0935 F1000.00
G01 X3.6544 Y-5.1680 F1000.00
G01 X3.4627 Y-5.2062 F1000.00
G01 X2.3663 Y-5.2062 F1000.00
G01 X2.1508 Y-5.1634 F1000.00
G01 X1.9477 Y-5.0792 F1000.00
G01 X1.7648 Y-4.9570 F1000.00
G01 X1.6089 Y-4.8012 F1000.00
G01 X1.4867 Y-4.6184 F1000.00
G01 X1.4025 Y-4.4152 F1000.00
G01 X1.3596 Y-4.1996 F1000.00
G01 X1.3296 Y-4.2026 F1000.00
G01 X1.3297 Y-1.9692 F1000.00
G01 X1.3639 Y-1.7970 F1000.00
G01 X1.4312 Y-1.6346 F1000.00
G01 X1.5290 Y-1.4881 F1000.00
G01 X1.6532 Y-1.3639 F1000.00
G01 X1.7995 Y-1.2661 F1000.00
G01 X1.9620 Y-1.1988 F1000.00
G01 X2.1341 Y-1.1645 F1000.00
G01 X3.4661 Y-1.1646 F1000.00
G01 X3.6632 Y-1.2039 F1000.00
G01 X3.8485 Y-1.2806 F1000.00
G01 X4.0152 Y-1.3921 F1000.00
G01 X4.1577 Y-1.5345 F1000.00
G01 X4.2691 Y-1.7012 F1000.00
G01 X4.3459 Y-1.8867 F1000.00
G01 X4.3852 Y-2.0835 F1000.00
G01 X4.3852 Y-4.3170 F1000.00
G01 X4.3461 Y-4.5137 F1000.00
G01 X4.2691 Y-4.6994 F1000.00
G01 X4.1578 Y-4.8663 F1000.00
G01 X4.0154 Y-5.0087 F1000.00
G01 X3.8487 Y-5.1201 F1000.00
G01 X3.6631 Y-5.1969 F1000.00
G01 X3.4657 Y-5.2362 F1000.00
G01 X2.3633 Y-5.2362 F1000.00
G01 X2.1420 Y-5.1922 F1000.00
G01 X1.9334 Y-5.1058 F1000.00
G01 X1.7457 Y-4.9803 F1000.00
G01 X1.5856 Y-4.8203 F1000.00
G01 X1.4601 Y-4.6326 F1000.00
G01 X1.3737 Y-4.4239 F1000.00
G01 X1.3296 Y-4.2026 F1000.00
G01 X1.2996 Y-4.2055 F1000.00
G01 X1.2997 Y-1.9662 F1000.00
G01 X1.3351 Y-1.7883 F1000.00
G01 X1.4046 Y-1.6204 F1000.00
G01 X1.5057 Y-1.4690 F1000.00
G01 X1.6341 Y-1.3406 F1000.00
G01 X1.7853 Y-1.2396 F1000.00
G01 X1.9532 Y-1.1700 F1000.00
G01 X2.1312 Y-1.1345 F1000.00
G01 X3.4690 Y-1.1346 F1000.00
G01 X3.6720 Y-1.1750 F1000.00
G01 X3.8627 Y-1.2540 F1000.00
G01 X4.0344 Y-1.3688 F1000.00
G01 X4.1810 Y-1.5154 F1000.00
G01 X4.2957 Y-1.6870 F1000.00
G01 X4.3748 Y-1.8779 F1000.00
G01 X4.4152 Y-2.0806 F1000.00
G01 X4.4152 Y-4.3200 F1000.00
G01 X4.3750 Y-4.5224 F1000.00
G01 X4.2957 Y-4.7136 F1000.00
G01 X4.1811 Y-4.8854 F1000.00
G01 X4.0346 Y-5.0320 F1000.00
G01 X3.8629 Y-5.1467 F1000.00
G01 X3.6719 Y-5.2257 F1000.00
G01 X3.4686 Y-5.2662 F1000.00
G01 X2.3604 Y-5.2662 F1000.00
G01 X2.1333 Y-5.2210 F1000.00
G01 X1.9192 Y-5.1324 F1000.00
G01 X1.7265 Y-5.0036 F1000.00
G01 X1.5623 Y-4.8394 F1000.00
G01 X1.4336 Y-4.6468 F1000.00
G01 X1.3448 Y-4.4327 F1000.00
G01 X1.2996 Y-4.2055 F1000.00
G01 X1.2696 Y-4.2085 F1000.00
G01 X1.2697 Y-1.9633 F1000.00
G01 X1.3063 Y-1.7792 F1000.00
G01 X1.3780 Y-1.6062 F1000.00
G01 X1.4824 Y-1.4499 F1000.00
G01 X1.6149 Y-1.3173 F1000.00
G01 X1.7711 Y-1.2130 F1000.00
G01 X1.9444 Y-1.1411 F1000.00
G01 X2.1282 Y-1.1045 F1000.00
G01 X3.4720 Y-1.1046 F1000.00
G01 X3.6807 Y-1.1462 F1000.00
G01 X3.8769 Y-1.2274 F1000.00
G01 X4.0535 Y-1.3455 F1000.00
G01 X4.2043 Y-1.4962 F1000.00
G01 X4.3223 Y-1.6728 F1000.00
G01 X4.4036 Y-1.8692 F1000.00
G01 X4.4452 Y-2.0776 F1000.00
G01 X4.4452 Y-4.3229 F1000.00
G01 X4.4038 Y-4.5312 F1000.00
G01 X4.3223 Y-4.7278 F1000.00
G01 X4.2044 Y-4.9045 F1000.00
G01 X4.0537 Y-5.0553 F1000.00
G01 X3.8771 Y-5.1733 F1000.00
G01 X3.6806 Y-5.2546 F1000.00
G01 X3.4716 Y-5.2962 F1000.00
G01 X2.3574 Y-5.2962 F1000.00
G01 X2.1247 Y-5.2499 F1000.00
G01 X1.9050 Y-5.1589 F1000.00
G01 X1.7074 Y-5.0269 F1000.00
G01 X1.5390 Y-4.8585 F1000.00
G01 X1.4070 Y-4.6610 F1000.00
G01 X1.3160 Y-4.4414 F1000.00
G01 X1.2696 Y-4.2085 F1000.00
G01 X1.2396 Y-4.2111 F1000.00
G01 X1.2397 Y-1.9614 F1000.00
G01 X1.2400 Y-1.9588 F1000.00
G01 X1.2774 Y-1.7712 F1000.00
G01 X1.3517 Y-1.5916 F1000.00
G01 X1.4593 Y-1.4306 F1000.00
G01 X1.5952 Y-1.2946 F1000.00
G01 X1.7563 Y-1.1867 F1000.00
G01 X1.7581 Y-1.1859 F1000.00
G01 X1.9352 Y-1.1125 F1000.00
G01 X2.1254 Y-1.0746 F1000.00
G01 X3.4741 Y-1.0746 F1000.00
G01 X3.6891 Y-1.1172 F1000.00
G01 X3.8908 Y-1.2008 F1000.00
G01 X4.0723 Y-1.3220 F1000.00
G01 X4.2275 Y-1.4771 F1000.00
G01 X4.3478 Y-1.6570 F1000.00
G01 X4.3494 Y-1.6599 F1000.00
G01 X4.4326 Y-1.8608 F1000.00
G01 X4.4752 Y-2.0753 F1000.00
G01 X4.4752 Y-4.3250 F1000.00
G01 X4.4330 Y-4.5384 F1000.00
G01 X4.4324 Y-4.5405 F1000.00
G01 X4.3486 Y-4.7426 F1000.00
G01 X4.2272 Y-4.9241 F1000.00
G01 X4.0732 Y-5.0781 F1000.00
G01 X3.8930 Y-5.1988 F1000.00
G01 X3.8894 Y-5.2007 F1000.00
G01 X3.6891 Y-5.2836 F1000.00
G01 X3.4748 Y-5.3261 F1000.00
G01 X2.3554 Y-5.3262 F1000.00
G01 X2.1175 Y-5.2791 F1000.00
G01 X2.1136 Y-5.2778 F1000.00
G01 X1.8903 Y-5.1852 F1000.00
G01 X1.6884 Y-5.0502 F1000.00
G01 X1.5156 Y-4.8774 F1000.00
G01 X1.3807 Y-4.6758 F1000.00
G01 X1.3799 Y-4.6740 F1000.00
G01 X1.2871 Y-4.4499 F1000.00
G01 X1.2396 Y-4.2111 F1000.00
G01 X1.2097 Y-4.2140 F1000.00
G01 X1.2097 Y-1.9606 F1000.00
G01 X1.2104 Y-1.9540 F1000.00
G01 X1.2486 Y-1.7624 F1000.00
G01 X1.3252 Y-1.5774 F1000.00
G01 X1.4340 Y-1.4143 F1000.00
G01 X1.4364 Y-1.4112 F1000.00
G01 X1.5746 Y-1.2728 F1000.00
G01 X1.5787 Y-1.2694 F1000.00
G01 X1.7404 Y-1.1613 F1000.00
G01 X1.7458 Y-1.1585 F1000.00
G01 X1.9264 Y-1.0838 F1000.00
G01 X2.1192 Y-1.0451 F1000.00
G01 X2.1255 Y-1.0445 F1000.00
G01 X3.4749 Y-1.0446 F1000.00
G01 X3.4812 Y-1.0452 F1000.00
G01 X3.6978 Y-1.0885 F1000.00
G01 X3.9050 Y-1.1743 F1000.00
G01 X4.0909 Y-1.2984 F1000.00
G01 X4.2507 Y-1.4580 F1000.00
G01 X4.3733 Y-1.6412 F1000.00
G01 X4.3768 Y-1.6476 F1000.00
G01 X4.4614 Y-1.8526 F1000.00
G01 X4.5046 Y-2.0686 F1000.00
G01 X4.5052 Y-2.0749 F1000.00
G01 X4.5051 Y-4.3286 F1000.00
G01 X4.4612 Y-4.5491 F1000.00
G01 X4.3756 Y-4.7558 F1000.00
G01 X4.2505 Y-4.9431 F1000.00
G01 X4.0922 Y-5.1014 F1000.00
G01 X3.9053 Y-5.2263 F1000.00
G01 X3.6968 Y-5.3126 F1000.00
G01 X3.4798 Y-5.3557 F1000.00
G01 X3.4749 Y-5.3562 F1000.00
G01 X2.3546 Y-5.3562 F1000.00
G01 X2.3483 Y-5.3556 F1000.00
G01 X2.1074 Y-5.3075 F1000.00
G01 X1.8760 Y-5.2116 F1000.00
G01 X1.6692 Y-5.0734 F1000.00
G01 X1.4946 Y-4.8990 F1000.00
G01 X1.4907 Y-4.8943 F1000.00
G01 X1.3553 Y-4.6917 F1000.00
G01 X1.3525 Y-4.6863 F1000.00
G01 X1.2584 Y-4.4587 F1000.00
G01 X1.2097 Y-4.2140 F1000.00
M5
G00 X1.1799 Y-4.2175
G01 F60.00
M03 S250.0
G01 F1000.00
G01 X1.1796 Y-4.2121 F1000.00
G01 X1.1796 Y-4.0893 F1000.00
G01 X1.1797 Y-1.9597 F1000.00
G01 X1.1800 Y-1.9544 F1000.00
G01 X1.1807 Y-1.9492 F1000.00
G01 X1.2198 Y-1.7541 F1000.00
G01 X1.2220 Y-1.7477 F1000.00
G01 X1.2963 Y-1.5684 F1000.00
G01 X1.2989 Y-1.5629 F1000.00
G01 X1.4096 Y-1.3968 F1000.00
G01 X1.4136 Y-1.3916 F1000.00
G01 X1.5572 Y-1.2481 F1000.00
G01 X1.5614 Y-1.2448 F1000.00
G01 X1.7244 Y-1.1359 F1000.00
G01 X1.7334 Y-1.1312 F1000.00
G01 X1.9171 Y-1.0552 F1000.00
G01 X1.9237 Y-1.0535 F1000.00
G01 X2.1182 Y-1.0150 F1000.00
G01 X2.1246 Y-1.0145 F1000.00
G01 X3.3622 Y-1.0145 F1000.00
G01 X3.4802 Y-1.0148 F1000.00
G01 X3.4860 Y-1.0156 F1000.00
G01 X3.7062 Y-1.0596 F1000.00
G01 X3.7119 Y-1.0616 F1000.00
G01 X3.9192 Y-1.1478 F1000.00
G01 X3.9244 Y-1.1509 F1000.00
G01 X4.1095 Y-1.2748 F1000.00
G01 X4.1147 Y-1.2793 F1000.00
G01 X4.2734 Y-1.4383 F1000.00
G01 X4.2770 Y-1.4431 F1000.00
G01 X4.3989 Y-1.6254 F1000.00
G01 X4.4019 Y-1.6305 F1000.00
G01 X4.4041 Y-1.6352 F1000.00
G01 X4.4885 Y-1.8389 F1000.00
G01 X4.4904 Y-1.8446 F1000.00
G01 X4.5342 Y-2.0638 F1000.00
G01 X4.5350 Y-2.0696 F1000.00
G01 X4.5350 Y-4.3311 F1000.00
G01 X4.5342 Y-4.3370 F1000.00
G01 X4.4914 Y-4.5521 F1000.00
G01 X4.4898 Y-4.5584 F1000.00
G01 X4.4025 Y-4.7692 F1000.00
G01 X4.3994 Y-4.7745 F1000.00
G01 X4.2775 Y-4.9571 F1000.00
G01 X4.2735 Y-4.9625 F1000.00
G01 X4.1116 Y-5.1244 F1000.00
G01 X4.1062 Y-5.1284 F1000.00
G01 X3.9245 Y-5.2499 F1000.00
G01 X3.9198 Y-5.2527 F1000.00
G01 X3.9143 Y-5.2553 F1000.00
G01 X3.7109 Y-5.3395 F1000.00
G01 X3.7050 Y-5.3415 F1000.00
G01 X3.4822 Y-5.3857 F1000.00
G01 X3.4758 Y-5.3862 F1000.00
G01 X2.3537 Y-5.3862 F1000.00
G01 X2.3434 Y-5.3852 F1000.00
G01 X2.1037 Y-5.3375 F1000.00
G01 X2.0984 Y-5.3362 F1000.00
G01 X2.0927 Y-5.3341 F1000.00
G01 X1.8671 Y-5.2406 F1000.00
G01 X1.8612 Y-5.2377 F1000.00
G01 X1.6540 Y-5.0995 F1000.00
G01 X1.6462 Y-5.0931 F1000.00
G01 X1.4727 Y-4.9196 F1000.00
G01 X1.4686 Y-4.9149 F1000.00
G01 X1.3281 Y-4.7046 F1000.00
G01 X1.3252 Y-4.6987 F1000.00
G01 X1.2315 Y-4.4728 F1000.00
G01 X1.2297 Y-4.4678 F1000.00
G01 X1.2283 Y-4.4621 F1000.00
G01 X1.1799 Y-4.2175 F1000.00
M5
G00 X6.4167 Y-4.2140
G01 F60.00
M03 S250.0
G01 F1000.00
G01 X6.4654 Y-4.4587 F1000.00
G01 X6.5595 Y-4.6863 F1000.00
G01 X6.5623 Y-4.6917 F1000.00
G01 X6.6994 Y-4.8966 F1000.00
G01 X6.8762 Y-5.0734 F1000.00
G01 X7.0811 Y-5.2105 F1000.00
G01 X7.0865 Y-5.2133 F1000.00
G01 X7.3107 Y-5.3062 F1000.00
G01 X7.3176 Y-5.3083 F1000.00
G01 X7.5553 Y-5.3556 F1000.00
G01 X7.5616 Y-5.3562 F1000.00
G01 X8.6819 Y-5.3562 F1000.00
G01 X8.6868 Y-5.3557 F1000.00
G01 X8.9038 Y-5.3126 F1000.00
G01 X9.1121 Y-5.2265 F1000.00
G01 X9.2992 Y-5.1014 F1000.00
G01 X9.4575 Y-4.9431 F1000.00
G01 X9.5810 Y-4.7586 F1000.00
G01 X9.5839 Y-4.7531 F1000.00
G01 X9.6682 Y-4.5491 F1000.00
G01 X9.7121 Y-4.3286 F1000.00
G01 X9.7121 Y-2.0721 F1000.00
G01 X9.6683 Y-1.8520 F1000.00
G01 X9.5838 Y-1.6476 F1000.00
G01 X9.5803 Y-1.6412 F1000.00
G01 X9.4577 Y-1.4580 F1000.00
G01 X9.3011 Y-1.3012 F1000.00
G01 X9.2971 Y-1.2978 F1000.00
G01 X9.1120 Y-1.1743 F1000.00
G01 X8.9082 Y-1.0897 F1000.00
G01 X8.9027 Y-1.0880 F1000.00
G01 X8.6882 Y-1.0452 F1000.00
G01 X8.6819 Y-1.0446 F1000.00
G01 X7.3325 Y-1.0445 F1000.00
G01 X7.3262 Y-1.0451 F1000.00
G01 X7.1334 Y-1.0838 F1000.00
G01 X6.9494 Y-1.1601 F1000.00
G01 X6.7841 Y-1.2706 F1000.00
G01 X6.6430 Y-1.4116 F1000.00
G01 X6.5322 Y-1.5774 F1000.00
G01 X6.4571 Y-1.7581 F1000.00
G01 X6.4548 Y-1.7656 F1000.00
G01 X6.4168 Y-1.9578 F1000.00
G01 X6.4168 Y-1.9586 F1000.00
G01 X6.4168 Y-1.9591 F1000.00
G01 X6.4167 Y-1.9606 F1000.00
G01 X6.4166 Y-4.0893 F1000.00
G01 X6.4167 Y-4.2140 F1000.00
G01 X6.4466 Y-4.2111 F1000.00
G01 X6.4941 Y-4.4499 F1000.00
G01 X6.5869 Y-4.6740 F1000.00
G01 X6.5877 Y-4.6758 F1000.00
G01 X6.7226 Y-4.8774 F1000.00
G01 X6.8954 Y-5.0502 F1000.00
G01 X7.0973 Y-5.1852 F1000.00
G01 X7.3213 Y-5.2781 F1000.00
G01 X7.3245 Y-5.2791 F1000.00
G01 X7.5624 Y-5.3262 F1000.00
G01 X8.6818 Y-5.3261 F1000.00
G01 X8.8961 Y-5.2836 F1000.00
G01 X9.0978 Y-5.2000 F1000.00
G01 X9.2802 Y-5.0781 F1000.00
G01 X9.4342 Y-4.9241 F1000.00
G01 X9.5565 Y-4.7408 F1000.00
G01 X9.6394 Y-4.5405 F1000.00
G01 X9.6822 Y-4.3257 F1000.00
G01 X9.6820 Y-2.0735 F1000.00
G01 X9.6396 Y-1.8608 F1000.00
G01 X9.5564 Y-1.6599 F1000.00
G01 X9.5548 Y-1.6570 F1000.00
G01 X9.4345 Y-1.4771 F1000.00
G01 X9.2793 Y-1.3220 F1000.00
G01 X9.0978 Y-1.2008 F1000.00
G01 X8.8961 Y-1.1172 F1000.00
G01 X8.6811 Y-1.0746 F1000.00
G01 X7.3324 Y-1.0746 F1000.00
G01 X7.1422 Y-1.1125 F1000.00
G01 X6.9635 Y-1.1866 F1000.00
G01 X6.8031 Y-1.2938 F1000.00
G01 X6.6663 Y-1.4306 F1000.00
G01 X6.5587 Y-1.5916 F1000.00
G01 X6.4853 Y-1.7686 F1000.00
G01 X6.4840 Y-1.7724 F1000.00
G01 X6.4467 Y-1.9607 F1000.00
G01 X6.4467 Y-1.9614 F1000.00
G01 X6.4467 Y-2.0574 F1000.00
G01 X6.4466 Y-4.0893 F1000.00
G01 X6.4466 Y-4.2111 F1000.00
G01 X6.4766 Y-4.2085 F1000.00
G01 X6.5229 Y-4.4410 F1000.00
G01 X6.6140 Y-4.6610 F1000.00
G01 X6.7460 Y-4.8585 F1000.00
G01 X6.9144 Y-5.0269 F1000.00
G01 X7.1120 Y-5.1589 F1000.00
G01 X7.3316 Y-5.2499 F1000.00
G01 X7.5644 Y-5.2962 F1000.00
G01 X8.6786 Y-5.2962 F1000.00
G01 X8.8876 Y-5.2546 F1000.00
G01 X9.0841 Y-5.1733 F1000.00
G01 X9.2607 Y-5.0553 F1000.00
G01 X9.4114 Y-4.9045 F1000.00
G01 X9.5296 Y-4.7275 F1000.00
G01 X9.6108 Y-4.5312 F1000.00
G01 X9.6522 Y-4.3229 F1000.00
G01 X9.6522 Y-2.0776 F1000.00
G01 X9.6106 Y-1.8692 F1000.00
G01 X9.5293 Y-1.6728 F1000.00
G01 X9.4113 Y-1.4962 F1000.00
G01 X9.2605 Y-1.3455 F1000.00
G01 X9.0839 Y-1.2274 F1000.00
G01 X8.8877 Y-1.1462 F1000.00
G01 X8.6790 Y-1.1046 F1000.00
G01 X7.3352 Y-1.1045 F1000.00
G01 X7.1514 Y-1.1411 F1000.00
G01 X6.9781 Y-1.2130 F1000.00
G01 X6.8219 Y-1.3173 F1000.00
G01 X6.6894 Y-1.4499 F1000.00
G01 X6.5850 Y-1.6062 F1000.00
G01 X6.5133 Y-1.7792 F1000.00
G01 X6.4767 Y-1.9633 F1000.00
G01 X6.4767 Y-2.0574 F1000.00
G01 X6.4766 Y-4.0893 F1000.00
G01 X6.4766 Y-4.2085 F1000.00
G01 X6.5066 Y-4.2055 F1000.00
G01 X6.5517 Y-4.4322 F1000.00
G01 X6.6406 Y-4.6468 F1000.00
G01 X6.7693 Y-4.8394 F1000.00
G01 X6.9335 Y-5.0036 F1000.00
G01 X7.1262 Y-5.1324 F1000.00
G01 X7.3404 Y-5.2211 F1000.00
G01 X7.5674 Y-5.2662 F1000.00
G01 X8.6756 Y-5.2662 F1000.00
G01 X8.8789 Y-5.2257 F1000.00
G01 X9.0698 Y-5.1467 F1000.00
G01 X9.2416 Y-5.0320 F1000.00
G01 X9.3881 Y-4.8854 F1000.00
G01 X9.5030 Y-4.7133 F1000.00
G01 X9.5820 Y-4.5224 F1000.00
G01 X9.6222 Y-4.3200 F1000.00
G01 X9.6222 Y-2.0806 F1000.00
G01 X9.5818 Y-1.8779 F1000.00
G01 X9.5027 Y-1.6870 F1000.00
G01 X9.3880 Y-1.5154 F1000.00
G01 X9.2414 Y-1.3688 F1000.00
G01 X9.0697 Y-1.2540 F1000.00
G01 X8.8790 Y-1.1750 F1000.00
G01 X8.6760 Y-1.1346 F1000.00
G01 X7.3382 Y-1.1345 F1000.00
G01 X7.1602 Y-1.1700 F1000.00
G01 X6.9923 Y-1.2396 F1000.00
G01 X6.8411 Y-1.3406 F1000.00
G01 X6.7127 Y-1.4690 F1000.00
G01 X6.6116 Y-1.6204 F1000.00
G01 X6.5421 Y-1.7883 F1000.00
G01 X6.5067 Y-1.9662 F1000.00
G01 X6.5067 Y-2.0574 F1000.00
G01 X6.5066 Y-4.0893 F1000.00
G01 X6.5066 Y-4.2055 F1000.00
G01 X6.5366 Y-4.2026 F1000.00
G01 X6.5806 Y-4.4235 F1000.00
G01 X6.6671 Y-4.6326 F1000.00
G01 X6.7926 Y-4.8203 F1000.00
G01 X6.9527 Y-4.9803 F1000.00
G01 X7.1404 Y-5.1058 F1000.00
G01 X7.3491 Y-5.1922 F1000.00
G01 X7.5703 Y-5.2362 F1000.00
G01 X8.6727 Y-5.2362 F1000.00
G01 X8.8701 Y-5.1969 F1000.00
G01 X9.0556 Y-5.1201 F1000.00
G01 X9.2224 Y-5.0087 F1000.00
G01 X9.3648 Y-4.8663 F1000.00
G01 X9.4764 Y-4.6991 F1000.00
G01 X9.5531 Y-4.5137 F1000.00
G01 X9.5922 Y-4.3170 F1000.00
G01 X9.5922 Y-2.0835 F1000.00
G01 X9.5529 Y-1.8867 F1000.00
G01 X9.4761 Y-1.7012 F1000.00
G01 X9.3647 Y-1.5345 F1000.00
G01 X9.2222 Y-1.3921 F1000.00
G01 X9.0555 Y-1.2806 F1000.00
G01 X8.8702 Y-1.2039 F1000.00
G01 X8.6731 Y-1.1646 F1000.00
G01 X7.3411 Y-1.1645 F1000.00
G01 X7.1690 Y-1.1988 F1000.00
G01 X7.0065 Y-1.2661 F1000.00
G01 X6.8602 Y-1.3639 F1000.00
G01 X6.7360 Y-1.4881 F1000.00
G01 X6.6382 Y-1.6346 F1000.00
G01 X6.5709 Y-1.7970 F1000.00
G01 X6.5367 Y-1.9692 F1000.00
G01 X6.5367 Y-2.0574 F1000.00
G01 X6.5366 Y-4.0893 F1000.00
G01 X6.5366 Y-4.2026 F1000.00
G01 X6.5666 Y-4.1996 F1000.00
G01 X6.6094 Y-4.4147 F1000.00
G01 X6.6937 Y-4.6184 F1000.00
G01 X6.8159 Y-4.8012 F1000.00
G01 X6.9718 Y-4.9570 F1000.00
G01 X7.1547 Y-5.0792 F1000.00
G01 X7.3579 Y-5.1634 F1000.00
G01 X7.5733 Y-5.2062 F1000.00
G01 X8.6697 Y-5.2062 F1000.00
G01 X8.8614 Y-5.1680 F1000.00
G01 X9.0414 Y-5.0936 F1000.00
G01 X9.2033 Y-4.9854 F1000.00
G01 X9.3415 Y-4.8471 F1000.00
G01 X9.4498 Y-4.6849 F1000.00
G01 X9.5243 Y-4.5050 F1000.00
G01 X9.5622 Y-4.3140 F1000.00
G01 X9.5622 Y-2.0865 F1000.00
G01 X9.5241 Y-1.8955 F1000.00
G01 X9.4495 Y-1.7154 F1000.00
G01 X9.3414 Y-1.5536 F1000.00
G01 X9.2031 Y-1.4154 F1000.00
G01 X9.0412 Y-1.3072 F1000.00
G01 X8.8615 Y-1.2327 F1000.00
G01 X8.6701 Y-1.1946 F1000.00
G01 X7.3441 Y-1.1945 F1000.00
G01 X7.1777 Y-1.2277 F1000.00
G01 X7.0207 Y-1.2927 F1000.00
G01 X6.8793 Y-1.3872 F1000.00
G01 X6.7593 Y-1.5072 F1000.00
G01 X6.6648 Y-1.6488 F1000.00
G01 X6.5998 Y-1.8058 F1000.00
G01 X6.5667 Y-1.9721 F1000.00
G01 X6.5667 Y-2.0574 F1000.00
G01 X6.5666 Y-4.0893 F1000.00
G01 X6.5666 Y-4.1996 F1000.00
G01 X6.5966 Y-4.1967 F1000.00
G01 X6.6383 Y-4.4060 F1000.00
G01 X6.7203 Y-4.6042 F1000.00
G01 X6.8392 Y-4.7820 F1000.00
G01 X6.9909 Y-4.9337 F1000.00
G01 X7.1689 Y-5.0526 F1000.00
G01 X7.3666 Y-5.1345 F1000.00
G01 X7.5762 Y-5.1762 F1000.00
G01 X8.6668 Y-5.1762 F1000.00
G01 X8.8526 Y-5.1392 F1000.00
G01 X9.0272 Y-5.0670 F1000.00
G01 X9.1842 Y-4.9621 F1000.00
G01 X9.3182 Y-4.8280 F1000.00
G01 X9.4232 Y-4.6707 F1000.00
G01 X9.4954 Y-4.4962 F1000.00
G01 X9.5322 Y-4.3111 F1000.00
G01 X9.5322 Y-2.0895 F1000.00
G01 X9.4952 Y-1.9042 F1000.00
G01 X9.4229 Y-1.7296 F1000.00
G01 X9.3181 Y-1.5727 F1000.00
G01 X9.1840 Y-1.4387 F1000.00
G01 X9.0270 Y-1.3338 F1000.00
G01 X8.8527 Y-1.2616 F1000.00
G01 X8.6672 Y-1.2246 F1000.00
G01 X7.3470 Y-1.2245 F1000.00
G01 X7.1865 Y-1.2565 F1000.00
G01 X7.0349 Y-1.3193 F1000.00
G01 X6.8984 Y-1.4105 F1000.00
G01 X6.7826 Y-1.5264 F1000.00
G01 X6.6914 Y-1.6630 F1000.00
G01 X6.6286 Y-1.8145 F1000.00
G01 X6.5967 Y-1.9751 F1000.00
G01 X6.5967 Y-2.0574 F1000.00
G01 X6.5966 Y-4.0893 F1000.00
G01 X6.5966 Y-4.1967 F1000.00
G01 X6.6266 Y-4.1937 F1000.00
G01 X6.6671 Y-4.3972 F1000.00
G01 X6.7469 Y-4.5900 F1000.00
G01 X6.8625 Y-4.7629 F1000.00
G01 X7.0100 Y-4.9104 F1000.00
G01 X7.1831 Y-5.0260 F1000.00
G01 X7.3754 Y-5.1057 F1000.00
G01 X7.5792 Y-5.1462 F1000.00
G01 X8.6638 Y-5.1462 F1000.00
G01 X8.8439 Y-5.1103 F1000.00
G01 X9.0130 Y-5.0404 F1000.00
G01 X9.1651 Y-4.9388 F1000.00
G01 X9.2949 Y-4.8089 F1000.00
G01 X9.3966 Y-4.6565 F1000.00
G01 X9.4666 Y-4.4875 F1000.00
G01 X9.5022 Y-4.3081 F1000.00
G01 X9.5022 Y-2.0924 F1000.00
G01 X9.4664 Y-1.9130 F1000.00
G01 X9.3963 Y-1.7438 F1000.00
G01 X9.2948 Y-1.5919 F1000.00
G01 X9.1649 Y-1.4620 F1000.00
G01 X9.0128 Y-1.3604 F1000.00
G01 X8.8440 Y-1.2904 F1000.00
G01 X8.6642 Y-1.2546 F1000.00
G01 X7.3500 Y-1.2545 F1000.00
G01 X7.1952 Y-1.2854 F1000.00
G01 X7.0491 Y-1.3459 F1000.00
G01 X6.9176 Y-1.4338 F1000.00
G01 X6.8059 Y-1.5455 F1000.00
G01 X6.7180 Y-1.6772 F1000.00
G01 X6.6574 Y-1.8233 F1000.00
G01 X6.6267 Y-1.9781 F1000.00
G01 X6.6267 Y-2.0574 F1000.00
G01 X6.6266 Y-4.0893 F1000.00
G01 X6.6266 Y-4.1937 F1000.00
G01 X6.6566 Y-4.1907 F1000.00
G01 X6.6960 Y-4.3885 F1000.00
G01 X6.7735 Y-4.5758 F1000.00
G01 X6.8858 Y-4.7438 F1000.00
G01 X7.0291 Y-4.8871 F1000.00
G01 X7.1973 Y-4.9994 F1000.00
G01 X7.3841 Y-5.0768 F1000.00
G01 X7.5821 Y-5.1162 F1000.00
G01 X8.6609 Y-5.1162 F1000.00
G01 X8.8352 Y-5.0815 F1000.00
G01 X8.9988 Y-5.0138 F1000.00
G01 X9.1459 Y-4.9155 F1000.00
G01 X9.2716 Y-4.7898 F1000.00
G01 X9.3700 Y-4.6423 F1000.00
G01 X9.4377 Y-4.4787 F1000.00
G01 X9.4722 Y-4.3052 F1000.00
G01 X9.4722 Y-2.0954 F1000.00
G01 X9.4375 Y-1.9217 F1000.00
G01 X9.3697 Y-1.7580 F1000.00
G01 X9.2715 Y-1.6110 F1000.00
G01 X9.1457 Y-1.4853 F1000.00
G01 X8.9986 Y-1.3870 F1000.00
G01 X8.8352 Y-1.3193 F1000.00
G01 X8.6612 Y-1.2846 F1000.00
G01 X7.3530 Y-1.2845 F1000.00
G01 X7.2040 Y-1.3142 F1000.00
G01 X7.0633 Y-1.3725 F1000.00
G01 X6.9367 Y-1.4571 F1000.00
G01 X6.8292 Y-1.5646 F1000.00
G01 X6.7445 Y-1.6914 F1000.00
G01 X6.6863 Y-1.8320 F1000.00
G01 X6.6567 Y-1.9810 F1000.00
G01 X6.6567 Y-2.0574 F1000.00
G01 X6.6566 Y-4.0893 F1000.00
G01 X6.6566 Y-4.1907 F1000.00
G01 X6.6866 Y-4.1878 F1000.00
G01 X6.7248 Y-4.3797 F1000.00
G01 X6.8001 Y-4.5616 F1000.00
G01 X6.9091 Y-4.7247 F1000.00
G01 X7.0483 Y-4.8638 F1000.00
G01 X7.2115 Y-4.9728 F1000.00
G01 X7.3929 Y-5.0480 F1000.00
G01 X7.5851 Y-5.0862 F1000.00
G01 X8.6579 Y-5.0862 F1000.00
G01 X8.8264 Y-5.0527 F1000.00
G01 X8.9846 Y-4.9872 F1000.00
G01 X9.1268 Y-4.8922 F1000.00
G01 X9.2483 Y-4.7707 F1000.00
G01 X9.3434 Y-4.6281 F1000.00
G01 X9.4089 Y-4.4700 F1000.00
G01 X9.4422 Y-4.3022 F1000.00
G01 X9.4422 Y-2.0984 F1000.00
G01 X9.4087 Y-1.9305 F1000.00
G01 X9.3432 Y-1.7722 F1000.00
G01 X9.2482 Y-1.6301 F1000.00
G01 X9.1266 Y-1.5086 F1000.00
G01 X8.9844 Y-1.4135 F1000.00
G01 X8.8264 Y-1.3481 F1000.00
G01 X8.6583 Y-1.3146 F1000.00
G01 X7.3559 Y-1.3145 F1000.00
G01 X7.2127 Y-1.3431 F1000.00
G01 X7.0776 Y-1.3991 F1000.00
G01 X6.9558 Y-1.4804 F1000.00
G01 X6.8525 Y-1.5837 F1000.00
G01 X6.7711 Y-1.7056 F1000.00
G01 X6.7151 Y-1.8408 F1000.00
G01 X6.6867 Y-1.9840 F1000.00
G01 X6.6867 Y-2.0574 F1000.00
G01 X6.6866 Y-4.0893 F1000.00
G01 X6.6866 Y-4.1878 F1000.00
G01 X6.7166 Y-4.1848 F1000.00
G01 X6.7537 Y-4.3710 F1000.00
G01 X6.8267 Y-4.5474 F1000.00
G01 X6.9324 Y-4.7055 F1000.00
G01 X7.0674 Y-4.8405 F1000.00
G01 X7.2257 Y-4.9463 F1000.00
G01 X7.4016 Y-5.0191 F1000.00
G01 X7.5880 Y-5.0562 F1000.00
G01 X8.6549 Y-5.0562 F1000.00
G01 X8.8177 Y-5.0238 F1000.00
G01 X8.9704 Y-4.9606 F1000.00
G01 X9.1077 Y-4.8689 F1000.00
G01 X9.2250 Y-4.7516 F1000.00
G01 X9.3168 Y-4.6139 F1000.00
G01 X9.3800 Y-4.4612 F1000.00
G01 X9.4122 Y-4.2993 F1000.00
G01 X9.4122 Y-2.1013 F1000.00
G01 X9.3798 Y-1.9392 F1000.00
G01 X9.3166 Y-1.7864 F1000.00
G01 X9.2249 Y-1.6493 F1000.00
G01 X9.1075 Y-1.5319 F1000.00
G01 X8.9702 Y-1.4401 F1000.00
G01 X8.8177 Y-1.3769 F1000.00
G01 X8.6553 Y-1.3446 F1000.00
G01 X7.3589 Y-1.3445 F1000.00
G01 X7.2215 Y-1.3719 F1000.00
G01 X7.0918 Y-1.4256 F1000.00
G01 X6.9749 Y-1.5037 F1000.00
G01 X6.8758 Y-1.6028 F1000.00
G01 X6.7977 Y-1.7198 F1000.00
G01 X6.7440 Y-1.8495 F1000.00
G01 X6.7167 Y-1.9869 F1000.00
G01 X6.7167 Y-2.0574 F1000.00
G01 X6.7166 Y-4.0893 F1000.00
G01 X6.7166 Y-4.1848 F1000.00
G01 X6.7466 Y-4.1819 F1000.00
G01 X6.7825 Y-4.3622 F1000.00
G01 X6.8533 Y-4.5332 F1000.00
G01 X6.9557 Y-4.6864 F1000.00
G01 X7.0865 Y-4.8172 F1000.00
G01 X7.2399 Y-4.9197 F1000.00
G01 X7.4104 Y-4.9903 F1000.00
G01 X7.5910 Y-5.0262 F1000.00
G01 X8.6520 Y-5.0262 F1000.00
G01 X8.8089 Y-4.9950 F1000.00
G01 X8.9562 Y-4.9340 F1000.00
G01 X9.0886 Y-4.8456 F1000.00
G01 X9.2017 Y-4.7324 F1000.00
G01 X9.2903 Y-4.5997 F1000.00
G01 X9.3512 Y-4.4525 F1000.00
G01 X9.3822 Y-4.2963 F1000.00
G01 X9.3822 Y-2.1043 F1000.00
G01 X9.3510 Y-1.9480 F1000.00
G01 X9.2900 Y-1.8006 F1000.00
G01 X9.2016 Y-1.6684 F1000.00
G01 X9.0884 Y-1.5552 F1000.00
G01 X8.9560 Y-1.4667 F1000.00
G01 X8.8089 Y-1.4058 F1000.00
G01 X8.6524 Y-1.3746 F1000.00
G01 X7.3618 Y-1.3745 F1000.00
G01 X7.2303 Y-1.4007 F1000.00
G01 X7.1060 Y-1.4522 F1000.00
G01 X6.9941 Y-1.5270 F1000.00
G01 X6.8991 Y-1.6220 F1000.00
G01 X6.8243 Y-1.7340 F1000.00
G01 X6.7728 Y-1.8583 F1000.00
G01 X6.7467 Y-1.9899 F1000.00
G01 X6.7467 Y-2.0574 F1000.00
G01 X6.7466 Y-4.0893 F1000.00
G01 X6.7466 Y-4.1819 F1000.00
G01 X6.7766 Y-4.1789 F1000.00
G01 X6.8114 Y-4.3535 F1000.00
G01 X6.8798 Y-4.5189 F1000.00
G01 X6.9790 Y-4.6673 F1000.00
G01 X7.1056 Y-4.7939 F1000.00
G01 X7.2541 Y-4.8931 F1000.00
G01 X7.4191 Y-4.9614 F1000.00
G01 X7.5939 Y-4.9962 F1000.00
G01 X8.6490 Y-4.9962 F1000.00
G01 X8.8002 Y-4.9661 F1000.00
G01 X8.9420 Y-4.9074 F1000.00
G01 X9.0694 Y-4.8223 F1000.00
G01 X9.1783 Y-4.7133 F1000.00
G01 X9.2637 Y-4.5855 F1000.00
G01 X9.3223 Y-4.4437 F1000.00
G01 X9.3522 Y-4.2934 F1000.00
G01 X9.3522 Y-2.1073 F1000.00
G01 X9.3222 Y-1.9568 F1000.00
G01 X9.2634 Y-1.8149 F1000.00
G01 X9.1783 Y-1.6875 F1000.00
G01 X9.0693 Y-1.5785 F1000.00
G01 X8.9418 Y-1.4933 F1000.00
G01 X8.8002 Y-1.4346 F1000.00
G01 X8.6494 Y-1.4046 F1000.00
G01 X7.3648 Y-1.4045 F1000.00
G01 X7.2390 Y-1.4296 F1000.00
G01 X7.1202 Y-1.4788 F1000.00
G01 X7.0132 Y-1.5503 F1000.00
G01 X6.9224 Y-1.6411 F1000.00
G01 X6.8509 Y-1.7482 F1000.00
G01 X6.8017 Y-1.8670 F1000.00
G01 X6.7767 Y-1.9928 F1000.00
G01 X6.7767 Y-2.0574 F1000.00
G01 X6.7766 Y-4.0893 F1000.00
G01 X6.7766 Y-4.1789 F1000.00
G01 X6.8066 Y-4.1760 F1000.00
G01 X6.8402 Y-4.3447 F1000.00
G01 X6.9064 Y-4.5047 F1000.00
G01 X7.0023 Y-4.6482 F1000.00
G01 X7.1248 Y-4.7706 F1000.00
G01 X7.2683 Y-4.8665 F1000.00
G01 X7.4279 Y-4.9326 F1000.00
G01 X7.5969 Y-4.9662 F1000.00
G01 X8.6461 Y-4.9662 F1000.00
G01 X8.7914 Y-4.9373 F1000.00
G01 X8.9278 Y-4.8808 F1000.00
G01 X9.0503 Y-4.7990 F1000.00
G01 X9.1550 Y-4.6942 F1000.00
G01 X9.2371 Y-4.5713 F1000.00
G01 X9.2935 Y-4.4350 F1000.00
G01 X9.3222 Y-4.2904 F1000.00
G01 X9.3222 Y-2.1102 F1000.00
G01 X9.2933 Y-1.9655 F1000.00
G01 X9.2368 Y-1.8291 F1000.00
G01 X9.1550 Y-1.7066 F1000.00
G01 X9.0501 Y-1.6018 F1000.00
G01 X8.9276 Y-1.5199 F1000.00
G01 X8.7914 Y-1.4635 F1000.00
G01 X8.6465 Y-1.4346 F1000.00
G01 X7.3678 Y-1.4345 F1000.00
G01 X7.2478 Y-1.4584 F1000.00
G01 X7.1344 Y-1.5054 F1000.00
G01 X7.0323 Y-1.5736 F1000.00
G01 X6.9457 Y-1.6602 F1000.00
G01 X6.8775 Y-1.7625 F1000.00
G01 X6.8305 Y-1.8758 F1000.00
G01 X6.8067 Y-1.9958 F1000.00
G01 X6.8067 Y-2.0574 F1000.00
G01 X6.8066 Y-4.0893 F1000.00
G01 X6.8066 Y-4.1760 F1000.00
G01 X6.8366 Y-4.1730 F1000.00
G01 X6.8690 Y-4.3360 F1000.00
G01 X6.9330 Y-4.4905 F1000.00
G01 X7.0256 Y-4.6290 F1000.00
G01 X7.1439 Y-4.7473 F1000.00
G01 X7.2825 Y-4.8399 F1000.00
G01 X7.4366 Y-4.9037 F1000.00
G01 X7.5998 Y-4.9362 F1000.00
G01 X8.6431 Y-4.9362 F1000.00
G01 X8.7827 Y-4.9084 F1000.00
G01 X8.9136 Y-4.8543 F1000.00
G01 X9.0312 Y-4.7757 F1000.00
G01 X9.1317 Y-4.6751 F1000.00
G01 X9.2105 Y-4.5571 F1000.00
G01 X9.2646 Y-4.4263 F1000.00
G01 X9.2922 Y-4.2875 F1000.00
G01 X9.2922 Y-2.1132 F1000.00
G01 X9.2645 Y-1.9743 F1000.00
G01 X9.2102 Y-1.8433 F1000.00
G01 X9.1317 Y-1.7258 F1000.00
G01 X9.0310 Y-1.6251 F1000.00
G01 X8.9133 Y-1.5465 F1000.00
G01 X8.7827 Y-1.4923 F1000.00
G01 X8.6435 Y-1.4646 F1000.00
G01 X7.3707 Y-1.4645 F1000.00
G01 X7.2565 Y-1.4873 F1000.00
G01 X7.1486 Y-1.5320 F1000.00
G01 X7.0515 Y-1.5969 F1000.00
G01 X6.9691 Y-1.6793 F1000.00
G01 X6.9041 Y-1.7767 F1000.00
G01 X6.8594 Y-1.8845 F1000.00
G01 X6.8367 Y-1.9987 F1000.00
G01 X6.8367 Y-2.0574 F1000.00
G01 X6.8366 Y-4.0893 F1000.00
G01 X6.8366 Y-4.1730 F1000.00
G01 X6.8666 Y-4.1700 F1000.00
G01 X6.8979 Y-4.3272 F1000.00
G01 X6.9596 Y-4.4763 F1000.00
G01 X7.0489 Y-4.6099 F1000.00
G01 X7.1630 Y-4.7240 F1000.00
G01 X7.2967 Y-4.8133 F1000.00
G01 X7.4454 Y-4.8749 F1000.00
G01 X7.6028 Y-4.9062 F1000.00
G01 X8.6402 Y-4.9062 F1000.00
G01 X8.7739 Y-4.8796 F1000.00
G01 X8.8994 Y-4.8277 F1000.00
G01 X9.0121 Y-4.7524 F1000.00
G01 X9.1084 Y-4.6560 F1000.00
G01 X9.1839 Y-4.5429 F1000.00
G01 X9.2358 Y-4.4175 F1000.00
G01 X9.2622 Y-4.2845 F1000.00
G01 X9.2622 Y-2.1161 F1000.00
G01 X9.2356 Y-1.9830 F1000.00
G01 X9.1836 Y-1.8575 F1000.00
G01 X9.1084 Y-1.7449 F1000.00
G01 X9.0119 Y-1.6484 F1000.00
G01 X8.8991 Y-1.5730 F1000.00
G01 X8.7739 Y-1.5212 F1000.00
G01 X8.6405 Y-1.4946 F1000.00
G01 X7.3737 Y-1.4945 F1000.00
G01 X7.2653 Y-1.5161 F1000.00
G01 X7.1628 Y-1.5586 F1000.00
G01 X7.0706 Y-1.6202 F1000.00
G01 X6.9924 Y-1.6984 F1000.00
G01 X6.9307 Y-1.7909 F1000.00
G01 X6.8882 Y-1.8933 F1000.00
G01 X6.8667 Y-2.0017 F1000.00
G01 X6.8667 Y-2.0574 F1000.00
G01 X6.8666 Y-4.0893 F1000.00
G01 X6.8666 Y-4.1700 F1000.00
G01 X6.8966 Y-4.1671 F1000.00
G01 X6.9267 Y-4.3185 F1000.00
G01 X6.9862 Y-4.4621 F1000.00
G01 X7.0722 Y-4.5908 F1000.00
G01 X7.1821 Y-4.7007 F1000.00
G01 X7.3109 Y-4.7867 F1000.00
G01 X7.4541 Y-4.8460 F1000.00
G01 X7.6058 Y-4.8762 F1000.00
G01 X8.6372 Y-4.8762 F1000.00
G01 X8.7652 Y-4.8507 F1000.00
G01 X8.8852 Y-4.8011 F1000.00
G01 X8.9929 Y-4.7291 F1000.00
G01 X9.0851 Y-4.6369 F1000.00
G01 X9.1573 Y-4.5287 F1000.00
G01 X9.2069 Y-4.4088 F1000.00
G01 X9.2322 Y-4.2816 F1000.00
G01 X9.2322 Y-2.1191 F1000.00
G01 X9.2068 Y-1.9918 F1000.00
G01 X9.1571 Y-1.8717 F1000.00
G01 X9.0851 Y-1.7640 F1000.00
G01 X8.9928 Y-1.6717 F1000.00
G01 X8.8849 Y-1.5996 F1000.00
G01 X8.7652 Y-1.5500 F1000.00
G01 X8.6376 Y-1.5246 F1000.00
G01 X7.3766 Y-1.5245 F1000.00
G01 X7.2740 Y-1.5450 F1000.00
G01 X7.1770 Y-1.5852 F1000.00
G01 X7.0897 Y-1.6435 F1000.00
G01 X7.0157 Y-1.7176 F1000.00
G01 X6.9572 Y-1.8051 F1000.00
G01 X6.9171 Y-1.9020 F1000.00
G01 X6.8967 Y-2.0046 F1000.00
G01 X6.8967 Y-2.0574 F1000.00
G01 X6.8966 Y-4.0893 F1000.00
G01 X6.8966 Y-4.1671 F1000.00
G01 X6.9266 Y-4.1641 F1000.00
G01 X6.9556 Y-4.3097 F1000.00
G01 X7.0128 Y-4.4479 F1000.00
G01 X7.0955 Y-4.5716 F1000.00
G01 X7.2012 Y-4.6774 F1000.00
G01 X7.3252 Y-4.7601 F1000.00
G01 X7.4629 Y-4.8172 F1000.00
G01 X7.6087 Y-4.8462 F1000.00
G01 X8.6342 Y-4.8462 F1000.00
G01 X8.7564 Y-4.8219 F1000.00
G01 X8.8709 Y-4.7745 F1000.00
G01 X8.9738 Y-4.7058 F1000.00
G01 X9.0618 Y-4.6177 F1000.00
G01 X9.1307 Y-4.5145 F1000.00
G01 X9.1781 Y-4.4000 F1000.00
G01 X9.2022 Y-4.2786 F1000.00
G01 X9.2022 Y-2.1221 F1000.00
G01 X9.1779 Y-2.0005 F1000.00
G01 X9.1305 Y-1.8859 F1000.00
G01 X9.0618 Y-1.7831 F1000.00
G01 X8.9736 Y-1.6950 F1000.00
G01 X8.8707 Y-1.6262 F1000.00
G01 X8.7564 Y-1.5789 F1000.00
G01 X8.6346 Y-1.5546 F1000.00
G01 X7.3796 Y-1.5545 F1000.00
G01 X7.2828 Y-1.5738 F1000.00
G01 X7.1912 Y-1.6117 F1000.00
G01 X7.1088 Y-1.6668 F1000.00
G01 X7.0390 Y-1.7367 F1000.00
G01 X6.9838 Y-1.8193 F1000.00
G01 X6.9459 Y-1.9108 F1000.00
G01 X6.9267 Y-2.0076 F1000.00
G01 X6.9267 Y-2.0574 F1000.00
G01 X6.9266 Y-4.0893 F1000.00
G01 X6.9266 Y-4.1641 F1000.00
G01 X6.9566 Y-4.1612 F1000.00
G01 X6.9844 Y-4.3010 F1000.00
G01 X7.0394 Y-4.4337 F1000.00
G01 X7.1188 Y-4.5525 F1000.00
G01 X7.2204 Y-4.6541 F1000.00
G01 X7.3394 Y-4.7336 F1000.00
G01 X7.4716 Y-4.7884 F1000.00
G01 X7.6117 Y-4.8162 F1000.00
G01 X8.6313 Y-4.8162 F1000.00
G01 X8.7477 Y-4.7930 F1000.00
G01 X8.8567 Y-4.7479 F1000.00
G01 X8.9547 Y-4.6824 F1000.00
G01 X9.0385 Y-4.5986 F1000.00
G01 X9.1041 Y-4.5003 F1000.00
G01 X9.1492 Y-4.3913 F1000.00
G01 X9.1722 Y-4.2757 F1000.00
G01 X9.1722 Y-2.1250 F1000.00
G01 X9.1491 Y-2.0093 F1000.00
G01 X9.1039 Y-1.9001 F1000.00
G01 X9.0385 Y-1.8023 F1000.00
G01 X8.9545 Y-1.7183 F1000.00
G01 X8.8565 Y-1.6528 F1000.00
G01 X8.7476 Y-1.6077 F1000.00
G01 X8.6317 Y-1.5846 F1000.00
G01 X7.3826 Y-1.5845 F1000.00
G01 X7.2915 Y-1.6027 F1000.00
G01 X7.2055 Y-1.6383 F1000.00
G01 X7.1280 Y-1.6901 F1000.00
G01 X7.0623 Y-1.7558 F1000.00
G01 X7.0104 Y-1.8335 F1000.00
G01 X6.9748 Y-1.9195 F1000.00
G01 X6.9567 Y-2.0105 F1000.00
G01 X6.9567 Y-2.0574 F1000.00
G01 X6.9566 Y-4.0893 F1000.00
G01 X6.9566 Y-4.1612 F1000.00
G01 X6.9866 Y-4.1582 F1000.00
G01 X7.0133 Y-4.2922 F1000.00
G01 X7.0659 Y-4.4195 F1000.00
G01 X7.1421 Y-4.5334 F1000.00
G01 X7.2395 Y-4.6308 F1000.00
G01 X7.3536 Y-4.7070 F1000.00
G01 X7.4804 Y-4.7595 F1000.00
G01 X7.6146 Y-4.7862 F1000.00
G01 X8.6283 Y-4.7862 F1000.00
G01 X8.7389 Y-4.7642 F1000.00
G01 X8.8425 Y-4.7213 F1000.00
G01 X8.9355 Y-4.6591 F1000.00
G01 X9.0152 Y-4.5795 F1000.00
G01 X9.0775 Y-4.4861 F1000.00
G01 X9.1204 Y-4.3825 F1000.00
G01 X9.1422 Y-4.2727 F1000.00
G01 X9.1422 Y-2.1280 F1000.00
G01 X9.1202 Y-2.0181 F1000.00
G01 X9.0773 Y-1.9143 F1000.00
G01 X9.0152 Y-1.8214 F1000.00
G01 X8.9354 Y-1.7416 F1000.00
G01 X8.8423 Y-1.6794 F1000.00
G01 X8.7389 Y-1.6365 F1000.00
G01 X8.6287 Y-1.6146 F1000.00
G01 X7.3855 Y-1.6145 F1000.00
G01 X7.3003 Y-1.6315 F1000.00
G01 X7.2197 Y-1.6649 F1000.00
G01 X7.1471 Y-1.7134 F1000.00
G01 X7.0856 Y-1.7749 F1000.00
G01 X7.0370 Y-1.8477 F1000.00
G01 X7.0036 Y-1.9283 F1000.00
G01 X6.9867 Y-2.0135 F1000.00
G01 X6.9867 Y-2.0574 F1000.00
G01 X6.9866 Y-4.0893 F1000.00
G01 X6.9866 Y-4.1582 F1000.00
G01 X7.0166 Y-4.1552 F1000.00
G01 X7.0421 Y-4.2835 F1000.00
G01 X7.0925 Y-4.4053 F1000.00
G01 X7.1654 Y-4.5143 F1000.00
G01 X7.2586 Y-4.6075 F1000.00
G01 X7.3678 Y-4.6804 F1000.00
G01 X7.4891 Y-4.7307 F1000.00
G01 X7.6176 Y-4.7562 F1000.00
G01 X8.6254 Y-4.7562 F1000.00
G01 X8.7302 Y-4.7353 F1000.00
G01 X8.8283 Y-4.6947 F1000.00
G01 X8.9164 Y-4.6358 F1000.00
G01 X8.9919 Y-4.5604 F1000.00
G01 X9.0509 Y-4.4719 F1000.00
G01 X9.0915 Y-4.3738 F1000.00
G01 X9.1122 Y-4.2698 F1000.00
G01 X9.1122 Y-2.1310 F1000.00
G01 X9.0914 Y-2.0268 F1000.00
G01 X9.0507 Y-1.9285 F1000.00
G01 X8.9919 Y-1.8405 F1000.00
G01 X8.9163 Y-1.7649 F1000.00
G01 X8.8281 Y-1.7060 F1000.00
G01 X8.7301 Y-1.6654 F1000.00
G01 X8.6257 Y-1.6446 F1000.00
G01 X7.3885 Y-1.6445 F1000.00
G01 X7.3091 Y-1.6604 F1000.00
G01 X7.2339 Y-1.6915 F1000.00
G01 X7.1662 Y-1.7367 F1000.00
G01 X7.1089 Y-1.7940 F1000.00
G01 X7.0636 Y-1.8619 F1000.00
G01 X7.0325 Y-1.9370 F1000.00
G01 X7.0167 Y-2.0164 F1000.00
G01 X7.0167 Y-2.0574 F1000.00
G01 X7.0166 Y-4.0893 F1000.00
G01 X7.0166 Y-4.1552 F1000.00
G01 X7.0466 Y-4.1523 F1000.00
G01 X7.0710 Y-4.2748 F1000.00
G01 X7.1191 Y-4.3911 F1000.00
G01 X7.1887 Y-4.4951 F1000.00
G01 X7.2777 Y-4.5842 F1000.00
G01 X7.3820 Y-4.6538 F1000.00
G01 X7.4979 Y-4.7018 F1000.00
G01 X7.6205 Y-4.7262 F1000.00
G01 X8.6224 Y-4.7262 F1000.00
G01 X8.7214 Y-4.7065 F1000.00
G01 X8.8141 Y-4.6681 F1000.00
G01 X8.8973 Y-4.6125 F1000.00
G01 X8.9686 Y-4.5413 F1000.00
G01 X9.0243 Y-4.4577 F1000.00
G01 X9.0627 Y-4.3651 F1000.00
G01 X9.0822 Y-4.2668 F1000.00
G01 X9.0822 Y-2.1339 F1000.00
G01 X9.0626 Y-2.0356 F1000.00
G01 X9.0241 Y-1.9427 F1000.00
G01 X8.9686 Y-1.8596 F1000.00
G01 X8.8971 Y-1.7882 F1000.00
G01 X8.8139 Y-1.7326 F1000.00
G01 X8.7214 Y-1.6942 F1000.00
G01 X8.6228 Y-1.6746 F1000.00
G01 X7.3914 Y-1.6745 F1000.00
G01 X7.3178 Y-1.6892 F1000.00
G01 X7.2481 Y-1.7181 F1000.00
G01 X7.1853 Y-1.7600 F1000.00
G01 X7.1322 Y-1.8132 F1000.00
G01 X7.0902 Y-1.8761 F1000.00
G01 X7.0613 Y-1.9457 F1000.00
G01 X7.0467 Y-2.0194 F1000.00
G01 X7.0467 Y-2.0574 F1000.00
G01 X7.0466 Y-4.0893 F1000.00
G01 X7.0466 Y-4.1523 F1000.00
G01 X7.0766 Y-4.1493 F1000.00
G01 X7.0998 Y-4.2660 F1000.00
G01 X7.1457 Y-4.3768 F1000.00
G01 X7.2120 Y-4.4760 F1000.00
G01 X7.2968 Y-4.5608 F1000.00
G01 X7.3962 Y-4.6272 F1000.00
G01 X7.5066 Y-4.6730 F1000.00
G01 X7.6235 Y-4.6962 F1000.00
G01 X8.6195 Y-4.6962 F1000.00
G01 X8.7127 Y-4.6776 F1000.00
G01 X8.7999 Y-4.6416 F1000.00
G01 X8.8782 Y-4.5892 F1000.00
G01 X8.9453 Y-4.5222 F1000.00
G01 X8.9977 Y-4.4435 F1000.00
G01 X9.0338 Y-4.3563 F1000.00
G01 X9.0522 Y-4.2639 F1000.00
G01 X9.0522 Y-2.1369 F1000.00
G01 X9.0337 Y-2.0443 F1000.00
G01 X8.9975 Y-1.9570 F1000.00
G01 X8.9453 Y-1.8788 F1000.00
G01 X8.8780 Y-1.8115 F1000.00
G01 X8.7996 Y-1.7591 F1000.00
G01 X8.7126 Y-1.7231 F1000.00
G01 X8.6198 Y-1.7046 F1000.00
G01 X7.3944 Y-1.7045 F1000.00
G01 X7.3266 Y-1.7180 F1000.00
G01 X7.2623 Y-1.7447 F1000.00
G01 X7.2045 Y-1.7833 F1000.00
G01 X7.1555 Y-1.8323 F1000.00
G01 X7.1168 Y-1.8903 F1000.00
G01 X7.0902 Y-1.9545 F1000.00
G01 X7.0767 Y-2.0223 F1000.00
G01 X7.0767 Y-2.0574 F1000.00
G01 X7.0766 Y-4.0893 F1000.00
G01 X7.0766 Y-4.1493 F1000.00
G01 X7.1066 Y-4.1464 F1000.00
G01 X7.1287 Y-4.2573 F1000.00
G01 X7.1723 Y-4.3626 F1000.00
G01 X7.2353 Y-4.4569 F1000.00
G01 X7.3160 Y-4.5375 F1000.00
G01 X7.4104 Y-4.6006 F1000.00
G01 X7.5154 Y-4.6441 F1000.00
G01 X7.6264 Y-4.6662 F1000.00
G01 X8.6165 Y-4.6662 F1000.00
G01 X8.7039 Y-4.6488 F1000.00
G01 X8.7857 Y-4.6150 F1000.00
G01 X8.8590 Y-4.5659 F1000.00
G01 X8.9219 Y-4.5030 F1000.00
G01 X8.9712 Y-4.4293 F1000.00
G01 X9.0050 Y-4.3476 F1000.00
G01 X9.0222 Y-4.2609 F1000.00
G01 X9.0222 Y-2.1399 F1000.00
G01 X9.0049 Y-2.0531 F1000.00
G01 X8.9709 Y-1.9712 F1000.00
G01 X8.9220 Y-1.8979 F1000.00
G01 X8.8589 Y-1.8348 F1000.00
G01 X8.7854 Y-1.7857 F1000.00
G01 X8.7039 Y-1.7519 F1000.00
G01 X8.6169 Y-1.7346 F1000.00
G01 X7.3974 Y-1.7345 F1000.00
G01 X7.3353 Y-1.7469 F1000.00
G01 X7.2765 Y-1.7712 F1000.00
G01 X7.2236 Y-1.8066 F1000.00
G01 X7.1788 Y-1.8514 F1000.00
G01 X7.1434 Y-1.9045 F1000.00
G01 X7.1190 Y-1.9632 F1000.00
G01 X7.1067 Y-2.0253 F1000.00
G01 X7.1067 Y-2.0574 F1000.00
G01 X7.1066 Y-4.0893 F1000.00
G01 X7.1066 Y-4.1464 F1000.00
G01 X7.1366 Y-4.1434 F1000.00
G01 X7.1575 Y-4.2485 F1000.00
G01 X7.1989 Y-4.3484 F1000.00
G01 X7.2586 Y-4.4378 F1000.00
G01 X7.3351 Y-4.5142 F1000.00
G01 X7.4246 Y-4.5740 F1000.00
G01 X7.5241 Y-4.6153 F1000.00
G01 X7.6294 Y-4.6362 F1000.00
G01 X8.6135 Y-4.6362 F1000.00
G01 X8.6952 Y-4.6199 F1000.00
G01 X8.7715 Y-4.5884 F1000.00
G01 X8.8399 Y-4.5426 F1000.00
G01 X8.8986 Y-4.4839 F1000.00
G01 X8.9446 Y-4.4151 F1000.00
G01 X8.9761 Y-4.3388 F1000.00
G01 X8.9922 Y-4.2580 F1000.00
G01 X8.9922 Y-2.1428 F1000.00
G01 X8.9760 Y-2.0618 F1000.00
G01 X8.9444 Y-1.9854 F1000.00
G01 X8.8987 Y-1.9170 F1000.00
G01 X8.8398 Y-1.8581 F1000.00
G01 X8.7712 Y-1.8123 F1000.00
G01 X8.6951 Y-1.7808 F1000.00
G01 X8.6139 Y-1.7646 F1000.00
G01 X7.4003 Y-1.7645 F1000.00
G01 X7.3441 Y-1.7757 F1000.00
G01 X7.2907 Y-1.7978 F1000.00
G01 X7.2427 Y-1.8299 F1000.00
G01 X7.2021 Y-1.8705 F1000.00
G01 X7.1699 Y-1.9187 F1000.00
G01 X7.1479 Y-1.9720 F1000.00
G01 X7.1367 Y-2.0282 F1000.00
G01 X7.1367 Y-2.0574 F1000.00
G01 X7.1366 Y-4.0893 F1000.00
G01 X7.1366 Y-4.1434 F1000.00
G01 X7.1666 Y-4.1405 F1000.00
G01 X7.1864 Y-4.2398 F1000.00
G01 X7.2255 Y-4.3342 F1000.00
G01 X7.2819 Y-4.4186 F1000.00
G01 X7.3542 Y-4.4909 F1000.00
G01 X7.4388 Y-4.5475 F1000.00
G01 X7.5329 Y-4.5864 F1000.00
G01 X7.6323 Y-4.6062 F1000.00
G01 X8.6106 Y-4.6062 F1000.00
G01 X8.6865 Y-4.5911 F1000.00
G01 X8.7573 Y-4.5618 F1000.00
G01 X8.8208 Y-4.5193 F1000.00
G01 X8.8753 Y-4.4648 F1000.00
G01 X8.9180 Y-4.4009 F1000.00
G01 X8.9473 Y-4.3301 F1000.00
G01 X8.9622 Y-4.2550 F1000.00
G01 X8.9622 Y-2.1458 F1000.00
G01 X8.9472 Y-2.0706 F1000.00
G01 X8.9178 Y-1.9996 F1000.00
G01 X8.8754 Y-1.9361 F1000.00
G01 X8.8207 Y-1.8814 F1000.00
G01 X8.7570 Y-1.8389 F1000.00
G01 X8.6864 Y-1.8096 F1000.00
G01 X8.6109 Y-1.7946 F1000.00
G01 X7.4033 Y-1.7945 F1000.00
G01 X7.3528 Y-1.8046 F1000.00
G01 X7.3049 Y-1.8244 F1000.00
G01 X7.2618 Y-1.8532 F1000.00
G01 X7.2254 Y-1.8896 F1000.00
G01 X7.1965 Y-1.9329 F1000.00
G01 X7.1767 Y-1.9807 F1000.00
G01 X7.1667 Y-2.0312 F1000.00
G01 X7.1667 Y-2.0574 F1000.00
G01 X7.1666 Y-4.0893 F1000.00
G01 X7.1666 Y-4.1405 F1000.00
G01 X7.1966 Y-4.1375 F1000.00
G01 X7.2152 Y-4.2310 F1000.00
G01 X7.2521 Y-4.3200 F1000.00
G01 X7.3052 Y-4.3995 F1000.00
G01 X7.3733 Y-4.4676 F1000.00
G01 X7.4530 Y-4.5209 F1000.00
G01 X7.5416 Y-4.5576 F1000.00
G01 X7.6353 Y-4.5762 F1000.00
G01 X8.6076 Y-4.5762 F1000.00
G01 X8.6777 Y-4.5622 F1000.00
G01 X8.7431 Y-4.5352 F1000.00
G01 X8.8017 Y-4.4960 F1000.00
G01 X8.8520 Y-4.4457 F1000.00
G01 X8.8914 Y-4.3867 F1000.00
G01 X8.9184 Y-4.3213 F1000.00
G01 X8.9322 Y-4.2521 F1000.00
G01 X8.9322 Y-2.1487 F1000.00
G01 X8.9183 Y-2.0794 F1000.00
G01 X8.8912 Y-2.0138 F1000.00
G01 X8.8521 Y-1.9553 F1000.00
G01 X8.8015 Y-1.9047 F1000.00
G01 X8.7428 Y-1.8655 F1000.00
G01 X8.6776 Y-1.8385 F1000.00
G01 X8.6080 Y-1.8246 F1000.00
G01 X7.4063 Y-1.8245 F1000.00
G01 X7.3616 Y-1.8334 F1000.00
G01 X7.3192 Y-1.8510 F1000.00
G01 X7.2810 Y-1.8765 F1000.00
G01 X7.2487 Y-1.9088 F1000.00
G01 X7.2231 Y-1.9471 F1000.00
G01 X7.2056 Y-1.9895 F1000.00
G01 X7.1967 Y-2.0341 F1000.00
G01 X7.1967 Y-2.0574 F1000.00
G01 X7.1966 Y-4.0893 F1000.00
G01 X7.1966 Y-4.1375 F1000.00
G01 X7.2266 Y-4.1345 F1000.00
G01 X7.2441 Y-4.2223 F1000.00
G01 X7.2786 Y-4.3058 F1000.00
G01 X7.3285 Y-4.3804 F1000.00
G01 X7.3924 Y-4.4443 F1000.00
G01 X7.4672 Y-4.4943 F1000.00
G01 X7.5504 Y-4.5287 F1000.00
G01 X7.6383 Y-4.5462 F1000.00
G01 X8.6047 Y-4.5462 F1000.00
G01 X8.6690 Y-4.5334 F1000.00
G01 X8.7289 Y-4.5086 F1000.00
G01 X8.7825 Y-4.4727 F1000.00
G01 X8.8287 Y-4.4266 F1000.00
G01 X8.8648 Y-4.3725 F1000.00
G01 X8.8896 Y-4.3126 F1000.00
G01 X8.9022 Y-4.2491 F1000.00
G01 X8.9022 Y-2.1517 F1000.00
G01 X8.8895 Y-2.0881 F1000.00
G01 X8.8646 Y-2.0280 F1000.00
G01 X8.8288 Y-1.9744 F1000.00
G01 X8.7824 Y-1.9280 F1000.00
G01 X8.7286 Y-1.8921 F1000.00
G01 X8.6688 Y-1.8673 F1000.00
G01 X8.6050 Y-1.8546 F1000.00
G01 X7.4092 Y-1.8545 F1000.00
G01 X7.3704 Y-1.8623 F1000.00
G01 X7.3334 Y-1.8776 F1000.00
G01 X7.3001 Y-1.8998 F1000.00
G01 X7.2720 Y-1.9279 F1000.00
G01 X7.2497 Y-1.9613 F1000.00
G01 X7.2344 Y-1.9982 F1000.00
G01 X7.2267 Y-2.0371 F1000.00
G01 X7.2267 Y-2.0574 F1000.00
G01 X7.2266 Y-4.0893 F1000.00
G01 X7.2266 Y-4.1345 F1000.00
G01 X7.2566 Y-4.1316 F1000.00
G01 X7.2729 Y-4.2135 F1000.00
G01 X7.3052 Y-4.2916 F1000.00
G01 X7.3518 Y-4.3613 F1000.00
G01 X7.4116 Y-4.4210 F1000.00
G01 X7.4815 Y-4.4677 F1000.00
G01 X7.5591 Y-4.4999 F1000.00
G01 X7.6412 Y-4.5162 F1000.00
G01 X8.6017 Y-4.5162 F1000.00
G01 X8.6602 Y-4.5046 F1000.00
G01 X8.7147 Y-4.4820 F1000.00
G01 X8.7634 Y-4.4494 F1000.00
G01 X8.8054 Y-4.4074 F1000.00
G01 X8.8382 Y-4.3583 F1000.00
G01 X8.8607 Y-4.3039 F1000.00
G01 X8.8722 Y-4.2462 F1000.00
G01 X8.8722 Y-2.1547 F1000.00
G01 X8.8606 Y-2.0969 F1000.00
G01 X8.8380 Y-2.0422 F1000.00
G01 X8.8055 Y-1.9935 F1000.00
G01 X8.7633 Y-1.9513 F1000.00
G01 X8.7144 Y-1.9187 F1000.00
G01 X8.6601 Y-1.8962 F1000.00
G01 X8.6021 Y-1.8846 F1000.00
G01 X7.4122 Y-1.8845 F1000.00
G01 X7.3791 Y-1.8911 F1000.00
G01 X7.3476 Y-1.9042 F1000.00
G01 X7.3192 Y-1.9231 F1000.00
G01 X7.2954 Y-1.9470 F1000.00
G01 X7.2763 Y-1.9755 F1000.00
G01 X7.2633 Y-2.0070 F1000.00
G01 X7.2567 Y-2.0400 F1000.00
G01 X7.2567 Y-2.0574 F1000.00
G01 X7.2566 Y-4.0893 F1000.00
G01 X7.2566 Y-4.1316 F1000.00
G01 X7.2866 Y-4.1286 F1000.00
G01 X7.3018 Y-4.2048 F1000.00
G01 X7.3318 Y-4.2774 F1000.00
G01 X7.3751 Y-4.3421 F1000.00
G01 X7.4307 Y-4.3977 F1000.00
G01 X7.4957 Y-4.4411 F1000.00
G01 X7.5679 Y-4.4710 F1000.00
G01 X7.6442 Y-4.4862 F1000.00
G01 X8.5988 Y-4.4862 F1000.00
G01 X8.6515 Y-4.4757 F1000.00
G01 X8.7005 Y-4.4554 F1000.00
G01 X8.7443 Y-4.4261 F1000.00
G01 X8.7821 Y-4.3883 F1000.00
G01 X8.8116 Y-4.3441 F1000.00
G01 X8.8319 Y-4.2951 F1000.00
G01 X8.8422 Y-4.2432 F1000.00
G01 X8.8422 Y-2.1576 F1000.00
G01 X8.8318 Y-2.1056 F1000.00
G01 X8.8114 Y-2.0564 F1000.00
G01 X8.7822 Y-2.0126 F1000.00
G01 X8.7442 Y-1.9746 F1000.00
G01 X8.7002 Y-1.9452 F1000.00
G01 X8.6513 Y-1.9250 F1000.00
G01 X8.5991 Y-1.9146 F1000.00
G01 X7.4151 Y-1.9145 F1000.00
G01 X7.3879 Y-1.9200 F1000.00
G01 X7.3618 Y-1.9308 F1000.00
G01 X7.3383 Y-1.9464 F1000.00
G01 X7.3187 Y-1.9661 F1000.00
G01 X7.3029 Y-1.9897 F1000.00
G01 X7.2921 Y-2.0157 F1000.00
G01 X7.2867 Y-2.0430 F1000.00
G01 X7.2867 Y-2.0574 F1000.00
G01 X7.2866 Y-4.0893 F1000.00
G01 X7.2866 Y-4.1286 F1000.00
G01 X7.3166 Y-4.1257 F1000.00
G01 X7.3306 Y-4.1960 F1000.00
G01 X7.3584 Y-4.2632 F1000.00
G01 X7.3984 Y-4.3230 F1000.00
G01 X7.4498 Y-4.3744 F1000.00
G01 X7.5099 Y-4.4145 F1000.00
G01 X7.5766 Y-4.4422 F1000.00
G01 X7.6471 Y-4.4562 F1000.00
G01 X8.5958 Y-4.4562 F1000.00
G01 X8.6427 Y-4.4469 F1000.00
G01 X8.6863 Y-4.4288 F1000.00
G01 X8.7252 Y-4.4028 F1000.00
G01 X8.7588 Y-4.3692 F1000.00
G01 X8.7850 Y-4.3299 F1000.00
G01 X8.8030 Y-4.2864 F1000.00
G01 X8.8122 Y-4.2402 F1000.00
G01 X8.8122 Y-2.1606 F1000.00
G01 X8.8030 Y-2.1144 F1000.00
G01 X8.7848 Y-2.0706 F1000.00
G01 X8.7589 Y-2.0318 F1000.00
G01 X8.7250 Y-1.9979 F1000.00
G01 X8.6860 Y-1.9718 F1000.00
G01 X8.6426 Y-1.9538 F1000.00
G01 X8.5962 Y-1.9446 F1000.00
G01 X7.4181 Y-1.9445 F1000.00
G01 X7.3966 Y-1.9488 F1000.00
G01 X7.3760 Y-1.9573 F1000.00
G01 X7.3575 Y-1.9697 F1000.00
G01 X7.3420 Y-1.9852 F1000.00
G01 X7.3295 Y-2.0040 F1000.00
G01 X7.3210 Y-2.0245 F1000.00
G01 X7.3167 Y-2.0459 F1000.00
G01 X7.3167 Y-2.0574 F1000.00
G01 X7.3166 Y-4.0892 F1000.00
G01 X7.3166 Y-4.1257 F1000.00
G01 X7.3466 Y-4.1227 F1000.00
G01 X7.3595 Y-4.1873 F1000.00
G01 X7.3850 Y-4.2490 F1000.00
G01 X7.4217 Y-4.3039 F1000.00
G01 X7.4689 Y-4.3511 F1000.00
G01 X7.5241 Y-4.3879 F1000.00
G01 X7.5854 Y-4.4133 F1000.00
G01 X7.6501 Y-4.4262 F1000.00
G01 X8.5928 Y-4.4262 F1000.00
G01 X8.6340 Y-4.4180 F1000.00
G01 X8.6720 Y-4.4023 F1000.00
G01 X8.7060 Y-4.3795 F1000.00
G01 X8.7355 Y-4.3501 F1000.00
G01 X8.7584 Y-4.3157 F1000.00
G01 X8.7742 Y-4.2776 F1000.00
G01 X8.7822 Y-4.2373 F1000.00
G01 X8.7822 Y-2.1636 F1000.00
G01 X8.7741 Y-2.1231 F1000.00
G01 X8.7583 Y-2.0848 F1000.00
G01 X8.7356 Y-2.0509 F1000.00
G01 X8.7059 Y-2.0212 F1000.00
G01 X8.6717 Y-1.9984 F1000.00
G01 X8.6338 Y-1.9827 F1000.00
G01 X8.5932 Y-1.9746 F1000.00
G01 X7.4211 Y-1.9745 F1000.00
G01 X7.4054 Y-1.9776 F1000.00
G01 X7.3902 Y-1.9839 F1000.00
G01 X7.3766 Y-1.9930 F1000.00
G01 X7.3653 Y-2.0043 F1000.00
G01 X7.3561 Y-2.0182 F1000.00
G01 X7.3498 Y-2.0332 F1000.00
G01 X7.3467 Y-2.0489 F1000.00
G01 X7.3467 Y-2.0575 F1000.00
G01 X7.3466 Y-4.0892 F1000.00
G01 X7.3466 Y-4.1227 F1000.00
G01 X7.3766 Y-4.1197 F1000.00
G01 X7.3883 Y-4.1785 F1000.00
G01 X7.4116 Y-4.2348 F1000.00
G01 X7.4450 Y-4.2847 F1000.00
G01 X7.4881 Y-4.3278 F1000.00
G01 X7.5383 Y-4.3614 F1000.00
G01 X7.5941 Y-4.3845 F1000.00
G01 X7.6530 Y-4.3962 F1000.00
G01 X8.5899 Y-4.3962 F1000.00
G01 X8.6252 Y-4.3892 F1000.00
G01 X8.6578 Y-4.3757 F1000.00
G01 X8.6869 Y-4.3562 F1000.00
G01 X8.7122 Y-4.3310 F1000.00
G01 X8.7318 Y-4.3015 F1000.00
G01 X8.7453 Y-4.2689 F1000.00
G01 X8.7522 Y-4.2343 F1000.00
G01 X8.7522 Y-2.1665 F1000.00
G01 X8.7453 Y-2.1319 F1000.00
G01 X8.7317 Y-2.0991 F1000.00
G01 X8.7123 Y-2.0700 F1000.00
G01 X8.6868 Y-2.0445 F1000.00
G01 X8.6575 Y-2.0250 F1000.00
G01 X8.6251 Y-2.0115 F1000.00
G01 X8.5902 Y-2.0046 F1000.00
G01 X7.4240 Y-2.0045 F1000.00
G01 X7.4141 Y-2.0065 F1000.00
G01 X7.4044 Y-2.0105 F1000.00
G01 X7.3957 Y-2.0163 F1000.00
G01 X7.3886 Y-2.0235 F1000.00
G01 X7.3826 Y-2.0324 F1000.00
G01 X7.3787 Y-2.0420 F1000.00
G01 X7.3767 Y-2.0518 F1000.00
G01 X7.3767 Y-2.0575 F1000.00
G01 X7.3766 Y-4.0892 F1000.00
G01 X7.3766 Y-4.1197 F1000.00
G01 X7.4066 Y-4.1168 F1000.00
G01 X7.4171 Y-4.1698 F1000.00
G01 X7.4382 Y-4.2205 F1000.00
G01 X7.4683 Y-4.2656 F1000.00
G01 X7.5072 Y-4.3045 F1000.00
G01 X7.5525 Y-4.3348 F1000.00
G01 X7.6029 Y-4.3556 F1000.00
G01 X7.6560 Y-4.3662 F1000.00
G01 X8.5869 Y-4.3662 F1000.00
G01 X8.6165 Y-4.3603 F1000.00
G01 X8.6436 Y-4.3491 F1000.00
G01 X8.6678 Y-4.3329 F1000.00
G01 X8.6889 Y-4.3119 F1000.00
G01 X8.7052 Y-4.2873 F1000.00
G01 X8.7165 Y-4.2601 F1000.00
G01 X8.7222 Y-4.2314 F1000.00
G01 X8.7222 Y-2.1695 F1000.00
G01 X8.7164 Y-2.1407 F1000.00
G01 X8.7051 Y-2.1133 F1000.00
G01 X8.6890 Y-2.0891 F1000.00
G01 X8.6677 Y-2.0678 F1000.00
G01 X8.6433 Y-2.0516 F1000.00
G01 X8.6163 Y-2.0404 F1000.00
G01 X8.5873 Y-2.0346 F1000.00
G01 X7.4270 Y-2.0345 F1000.00
G01 X7.4229 Y-2.0353 F1000.00
G01 X7.4186 Y-2.0371 F1000.00
G01 X7.4148 Y-2.0396 F1000.00
G01 X7.4119 Y-2.0426 F1000.00
G01 X7.4092 Y-2.0466 F1000.00
G01 X7.4075 Y-2.0507 F1000.00
G01 X7.4067 Y-2.0548 F1000.00
G01 X7.4067 Y-2.0575 F1000.00
G01 X7.4066 Y-4.0892 F1000.00
G01 X7.4066 Y-4.1168 F1000.00
G01 X7.7066 Y-4.0662 F1000.00
G01 X8.4222 Y-4.0662 F1000.00
G01 X8.4221 Y-2.3345 F1000.00
G01 X7.7067 Y-2.3345 F1000.00
G01 X7.7066 Y-4.0662 F1000.00
G01 X7.7366 Y-4.0362 F1000.00
G01 X8.3922 Y-4.0362 F1000.00
G01 X8.3921 Y-2.3645 F1000.00
G01 X7.7367 Y-2.3645 F1000.00
G01 X7.7366 Y-4.0362 F1000.00
G01 X7.7666 Y-4.0062 F1000.00
G01 X8.3622 Y-4.0062 F1000.00
G01 X8.3621 Y-2.3945 F1000.00
G01 X7.7667 Y-2.3945 F1000.00
G01 X7.7666 Y-4.0062 F1000.00
G01 X7.7966 Y-3.9762 F1000.00
G01 X8.3322 Y-3.9762 F1000.00
G01 X8.3321 Y-2.4245 F1000.00
G01 X7.7967 Y-2.4245 F1000.00
G01 X7.7966 Y-3.9762 F1000.00
G01 X7.8266 Y-3.9462 F1000.00
G01 X8.3022 Y-3.9462 F1000.00
G01 X8.3021 Y-2.4545 F1000.00
G01 X7.8267 Y-2.4545 F1000.00
G01 X7.8266 Y-3.9462 F1000.00
G01 X7.8566 Y-3.9162 F1000.00
G01 X8.2722 Y-3.9162 F1000.00
G01 X8.2721 Y-2.4845 F1000.00
G01 X7.8567 Y-2.4845 F1000.00
G01 X7.8566 Y-3.9162 F1000.00
G01 X7.8866 Y-3.8862 F1000.00
G01 X8.2422 Y-3.8862 F1000.00
G01 X8.2421 Y-2.5145 F1000.00
G01 X7.8867 Y-2.5145 F1000.00
G01 X7.8866 Y-3.8862 F1000.00
G01 X7.9166 Y-3.8562 F1000.00
G01 X8.2122 Y-3.8562 F1000.00
G01 X8.2121 Y-2.5445 F1000.00
G01 X7.9167 Y-2.5445 F1000.00
G01 X7.9166 Y-3.8562 F1000.00
G01 X7.9466 Y-3.8262 F1000.00
G01 X8.1822 Y-3.8262 F1000.00
G01 X8.1821 Y-2.5745 F1000.00
G01 X7.9467 Y-2.5745 F1000.00
G01 X7.9466 Y-3.8262 F1000.00
G01 X7.9766 Y-3.7962 F1000.00
G01 X8.1522 Y-3.7962 F1000.00
G01 X8.1521 Y-2.6045 F1000.00
G01 X7.9767 Y-2.6045 F1000.00
G01 X7.9766 Y-3.7962 F1000.00
G01 X8.0066 Y-3.7662 F1000.00
G01 X8.1222 Y-3.7662 F1000.00
G01 X8.1222 Y-2.6345 F1000.00
G01 X8.0067 Y-2.6345 F1000.00
G01 X8.0066 Y-3.7662 F1000.00
G01 X8.0366 Y-3.7362 F1000.00
G01 X8.0922 Y-3.7362 F1000.00
G01 X8.0922 Y-2.6645 F1000.00
G01 X8.0367 Y-2.6645 F1000.00
G01 X8.0366 Y-3.7362 F1000.00
G01 X7.6767 Y-2.3045 F1000.00
G01 X7.6766 Y-4.0892 F1000.00
G01 X7.6766 Y-4.0902 F1000.00
G01 X7.6774 Y-4.0927 F1000.00
G01 X7.6793 Y-4.0948 F1000.00
G01 X7.6826 Y-4.0962 F1000.00
G01 X8.4522 Y-4.0962 F1000.00
G01 X8.4521 Y-2.3045 F1000.00
G01 X7.6767 Y-2.3045 F1000.00
G01 X7.6467 Y-2.2745 F1000.00
G01 X7.6466 Y-4.0892 F1000.00
G01 X7.6466 Y-4.0931 F1000.00
G01 X7.6479 Y-4.0998 F1000.00
G01 X7.6509 Y-4.1069 F1000.00
G01 X7.6547 Y-4.1126 F1000.00
G01 X7.6601 Y-4.1181 F1000.00
G01 X7.6662 Y-4.1221 F1000.00
G01 X7.6729 Y-4.1249 F1000.00
G01 X7.6796 Y-4.1262 F1000.00
G01 X8.4822 Y-4.1262 F1000.00
G01 X8.4821 Y-2.2745 F1000.00
G01 X7.6467 Y-2.2745 F1000.00
G01 X7.6167 Y-2.2445 F1000.00
G01 X7.6166 Y-4.0892 F1000.00
G01 X7.6166 Y-4.0961 F1000.00
G01 X7.6191 Y-4.1085 F1000.00
G01 X7.6243 Y-4.1211 F1000.00
G01 X7.6314 Y-4.1317 F1000.00
G01 X7.6410 Y-4.1414 F1000.00
G01 X7.6520 Y-4.1487 F1000.00
G01 X7.6641 Y-4.1537 F1000.00
G01 X7.6767 Y-4.1562 F1000.00
G01 X8.5122 Y-4.1562 F1000.00
G01 X8.5121 Y-2.2445 F1000.00
G01 X7.6167 Y-2.2445 F1000.00
G01 X7.5867 Y-2.2145 F1000.00
G01 X7.5866 Y-4.0892 F1000.00
G01 X7.5866 Y-4.0990 F1000.00
G01 X7.5902 Y-4.1173 F1000.00
G01 X7.5977 Y-4.1353 F1000.00
G01 X7.6081 Y-4.1509 F1000.00
G01 X7.6219 Y-4.1647 F1000.00
G01 X7.6377 Y-4.1753 F1000.00
G01 X7.6554 Y-4.1826 F1000.00
G01 X7.6737 Y-4.1862 F1000.00
G01 X8.5422 Y-4.1862 F1000.00
G01 X8.5421 Y-2.2145 F1000.00
G01 X7.5867 Y-2.2145 F1000.00
G01 X7.5567 Y-2.1845 F1000.00
G01 X7.5566 Y-4.0892 F1000.00
G01 X7.5566 Y-4.1020 F1000.00
G01 X7.5614 Y-4.1260 F1000.00
G01 X7.5711 Y-4.1495 F1000.00
G01 X7.5848 Y-4.1700 F1000.00
G01 X7.6028 Y-4.1880 F1000.00
G01 X7.6235 Y-4.2018 F1000.00
G01 X7.6466 Y-4.2114 F1000.00
G01 X7.6707 Y-4.2162 F1000.00
G01 X8.5722 Y-4.2162 F1000.00
G01 X8.5722 Y-2.1846 F1000.00
G01 X7.5567 Y-2.1845 F1000.00
G01 X7.5267 Y-2.1545 F1000.00
G01 X7.5266 Y-4.0892 F1000.00
G01 X7.5266 Y-4.1050 F1000.00
G01 X7.5325 Y-4.1348 F1000.00
G01 X7.5445 Y-4.1637 F1000.00
G01 X7.5615 Y-4.1891 F1000.00
G01 X7.5837 Y-4.2113 F1000.00
G01 X7.6093 Y-4.2284 F1000.00
G01 X7.6379 Y-4.2403 F1000.00
G01 X7.6678 Y-4.2462 F1000.00
G01 X8.5751 Y-4.2462 F1000.00
G01 X8.5815 Y-4.2449 F1000.00
G01 X8.5868 Y-4.2427 F1000.00
G01 X8.5913 Y-4.2397 F1000.00
G01 X8.5956 Y-4.2354 F1000.00
G01 X8.5989 Y-4.2305 F1000.00
G01 X8.6011 Y-4.2252 F1000.00
G01 X8.6022 Y-4.2196 F1000.00
G01 X8.6022 Y-2.1813 F1000.00
G01 X8.6011 Y-2.1757 F1000.00
G01 X8.5987 Y-2.1701 F1000.00
G01 X8.5958 Y-2.1656 F1000.00
G01 X8.5912 Y-2.1611 F1000.00
G01 X8.5865 Y-2.1579 F1000.00
G01 X8.5813 Y-2.1558 F1000.00
G01 X8.5754 Y-2.1546 F1000.00
G01 X7.5267 Y-2.1545 F1000.00
G01 X7.4967 Y-2.1245 F1000.00
G01 X7.4966 Y-4.0892 F1000.00
G01 X7.4966 Y-4.1079 F1000.00
G01 X7.5037 Y-4.1435 F1000.00
G01 X7.5179 Y-4.1779 F1000.00
G01 X7.5382 Y-4.2082 F1000.00
G01 X7.5645 Y-4.2346 F1000.00
G01 X7.5951 Y-4.2550 F1000.00
G01 X7.6291 Y-4.2691 F1000.00
G01 X7.6648 Y-4.2762 F1000.00
G01 X8.5781 Y-4.2762 F1000.00
G01 X8.5902 Y-4.2738 F1000.00
G01 X8.6010 Y-4.2693 F1000.00
G01 X8.6104 Y-4.2630 F1000.00
G01 X8.6189 Y-4.2545 F1000.00
G01 X8.6255 Y-4.2447 F1000.00
G01 X8.6299 Y-4.2339 F1000.00
G01 X8.6322 Y-4.2225 F1000.00
G01 X8.6322 Y-2.1784 F1000.00
G01 X8.6299 Y-2.1669 F1000.00
G01 X8.6253 Y-2.1559 F1000.00
G01 X8.6191 Y-2.1465 F1000.00
G01 X8.6103 Y-2.1378 F1000.00
G01 X8.6007 Y-2.1313 F1000.00
G01 X8.5900 Y-2.1269 F1000.00
G01 X8.5784 Y-2.1246 F1000.00
G01 X7.4967 Y-2.1245 F1000.00
G01 X7.4667 Y-2.0945 F1000.00
G01 X7.4666 Y-4.0892 F1000.00
G01 X7.4666 Y-4.1109 F1000.00
G01 X7.4748 Y-4.1523 F1000.00
G01 X7.4913 Y-4.1921 F1000.00
G01 X7.5149 Y-4.2274 F1000.00
G01 X7.5454 Y-4.2579 F1000.00
G01 X7.5809 Y-4.2816 F1000.00
G01 X7.6204 Y-4.2979 F1000.00
G01 X7.6619 Y-4.3062 F1000.00
G01 X8.5810 Y-4.3062 F1000.00
G01 X8.5990 Y-4.3026 F1000.00
G01 X8.6152 Y-4.2959 F1000.00
G01 X8.6295 Y-4.2863 F1000.00
G01 X8.6422 Y-4.2736 F1000.00
G01 X8.6521 Y-4.2589 F1000.00
G01 X8.6588 Y-4.2427 F1000.00
G01 X8.6622 Y-4.2255 F1000.00
G01 X8.6622 Y-2.1754 F1000.00
G01 X8.6587 Y-2.1582 F1000.00
G01 X8.6519 Y-2.1417 F1000.00
G01 X8.6424 Y-2.1274 F1000.00
G01 X8.6294 Y-2.1145 F1000.00
G01 X8.6149 Y-2.1047 F1000.00
G01 X8.5988 Y-2.0981 F1000.00
G01 X8.5814 Y-2.0946 F1000.00
G01 X7.4667 Y-2.0945 F1000.00
G01 X7.4367 Y-2.0645 F1000.00
G01 X7.4366 Y-4.0892 F1000.00
G01 X7.4366 Y-4.1138 F1000.00
G01 X7.4460 Y-4.1610 F1000.00
G01 X7.4647 Y-4.2063 F1000.00
G01 X7.4916 Y-4.2465 F1000.00
G01 X7.5263 Y-4.2812 F1000.00
G01 X7.5667 Y-4.3082 F1000.00
G01 X7.6116 Y-4.3268 F1000.00
G01 X7.6589 Y-4.3362 F1000.00
G01 X8.5840 Y-4.3362 F1000.00
G01 X8.6077 Y-4.3315 F1000.00
G01 X8.6294 Y-4.3225 F1000.00
G01 X8.6487 Y-4.3096 F1000.00
G01 X8.6655 Y-4.2927 F1000.00
G01 X8.6786 Y-4.2731 F1000.00
G01 X8.6876 Y-4.2514 F1000.00
G01 X8.6922 Y-4.2284 F1000.00
G01 X8.6922 Y-2.1725 F1000.00
G01 X8.6876 Y-2.1494 F1000.00
G01 X8.6785 Y-2.1275 F1000.00
G01 X8.6657 Y-2.1083 F1000.00
G01 X8.6485 Y-2.0911 F1000.00
G01 X8.6291 Y-2.0782 F1000.00
G01 X8.6075 Y-2.0692 F1000.00
G01 X8.5843 Y-2.0646 F1000.00
G01 X7.4367 Y-2.0645 F1000.00
G01 X6.3869 Y-1.9552 F1000.00
G01 X6.3868 Y-4.2165 F1000.00
G01 X6.3876 Y-4.2224 F1000.00
G01 X6.4353 Y-4.4621 F1000.00
G01 X6.4365 Y-4.4671 F1000.00
G01 X6.4382 Y-4.4718 F1000.00
G01 X6.5322 Y-4.6987 F1000.00
G01 X6.5351 Y-4.7046 F1000.00
G01 X6.6756 Y-4.9149 F1000.00
G01 X6.6797 Y-4.9196 F1000.00
G01 X6.8532 Y-5.0931 F1000.00
G01 X6.8610 Y-5.0995 F1000.00
G01 X7.0682 Y-5.2377 F1000.00
G01 X7.0741 Y-5.2406 F1000.00
G01 X7.3000 Y-5.3343 F1000.00
G01 X7.3050 Y-5.3361 F1000.00
G01 X7.3107 Y-5.3375 F1000.00
G01 X7.5504 Y-5.3852 F1000.00
G01 X7.5607 Y-5.3862 F1000.00
G01 X8.6828 Y-5.3862 F1000.00
G01 X8.6920 Y-5.3853 F1000.00
G01 X8.9120 Y-5.3415 F1000.00
G01 X8.9179 Y-5.3395 F1000.00
G01 X9.1218 Y-5.2551 F1000.00
G01 X9.1315 Y-5.2499 F1000.00
G01 X9.3132 Y-5.1284 F1000.00
G01 X9.3186 Y-5.1244 F1000.00
G01 X9.4776 Y-4.9657 F1000.00
G01 X9.4845 Y-4.9571 F1000.00
G01 X9.6064 Y-4.7745 F1000.00
G01 X9.6095 Y-4.7692 F1000.00
G01 X9.6954 Y-4.5621 F1000.00
G01 X9.6984 Y-4.5521 F1000.00
G01 X9.7412 Y-4.3370 F1000.00
G01 X9.7422 Y-4.3267 F1000.00
G01 X9.7422 Y-2.0740 F1000.00
G01 X9.7412 Y-2.0638 F1000.00
G01 X9.6972 Y-1.8436 F1000.00
G01 X9.6111 Y-1.6352 F1000.00
G01 X9.6089 Y-1.6305 F1000.00
G01 X9.6059 Y-1.6254 F1000.00
G01 X9.4840 Y-1.4431 F1000.00
G01 X9.4775 Y-1.4351 F1000.00
G01 X9.3217 Y-1.2793 F1000.00
G01 X9.3165 Y-1.2748 F1000.00
G01 X9.1314 Y-1.1509 F1000.00
G01 X9.1262 Y-1.1478 F1000.00
G01 X8.9189 Y-1.0616 F1000.00
G01 X8.9132 Y-1.0596 F1000.00
G01 X8.6930 Y-1.0156 F1000.00
G01 X8.6828 Y-1.0146 F1000.00
G01 X7.3316 Y-1.0145 F1000.00
G01 X7.3214 Y-1.0155 F1000.00
G01 X7.1307 Y-1.0535 F1000.00
G01 X7.1210 Y-1.0563 F1000.00
G01 X6.9404 Y-1.1312 F1000.00
G01 X6.9349 Y-1.1338 F1000.00
G01 X6.7684 Y-1.2448 F1000.00
G01 X6.7610 Y-1.2509 F1000.00
G01 X6.6200 Y-1.3922 F1000.00
G01 X6.6166 Y-1.3968 F1000.00
G01 X6.5059 Y-1.5629 F1000.00
G01 X6.5033 Y-1.5684 F1000.00
G01 X6.4290 Y-1.7477 F1000.00
G01 X6.4256 Y-1.7587 F1000.00
G01 X6.3877 Y-1.9492 F1000.00
G01 X6.3869 Y-1.9552 F1000.00
M5
G00 X11.5939 Y-4.3445
G01 F60.00
M03 S250.0
G01 F1000.00
G01 X11.5936 Y-4.3391 F1000.00
G01 X11.5936 Y-4.2163 F1000.00
G01 X11.5937 Y-2.0867 F1000.00
G01 X11.5940 Y-2.0814 F1000.00
G01 X11.5947 Y-2.0762 F1000.00
G01 X11.6338 Y-1.8811 F1000.00
G01 X11.6360 Y-1.8747 F1000.00
G01 X11.7103 Y-1.6954 F1000.00
G01 X11.7129 Y-1.6899 F1000.00
G01 X11.8236 Y-1.5238 F1000.00
G01 X11.8276 Y-1.5186 F1000.00
G01 X11.9712 Y-1.3751 F1000.00
G01 X11.9754 Y-1.3718 F1000.00
G01 X12.1384 Y-1.2629 F1000.00
G01 X12.1474 Y-1.2582 F1000.00
G01 X12.3311 Y-1.1822 F1000.00
G01 X12.3377 Y-1.1805 F1000.00
G01 X12.5332 Y-1.1418 F1000.00
G01 X12.5386 Y-1.1415 F1000.00
G01 X13.7762 Y-1.1415 F1000.00
G01 X13.8942 Y-1.1418 F1000.00
G01 X13.9000 Y-1.1426 F1000.00
G01 X14.1202 Y-1.1866 F1000.00
G01 X14.3332 Y-1.2748 F1000.00
G01 X14.3384 Y-1.2779 F1000.00
G01 X14.5235 Y-1.4018 F1000.00
G01 X14.5287 Y-1.4063 F1000.00
G01 X14.6874 Y-1.5653 F1000.00
G01 X14.6906 Y-1.5694 F1000.00
G01 X14.8129 Y-1.7524 F1000.00
G01 X14.8159 Y-1.7575 F1000.00
G01 X14.8181 Y-1.7622 F1000.00
G01 X14.9025 Y-1.9659 F1000.00
G01 X14.9044 Y-1.9716 F1000.00
G01 X14.9482 Y-2.1908 F1000.00
G01 X14.9490 Y-2.1966 F1000.00
G01 X14.9490 Y-4.4581 F1000.00
G01 X14.9482 Y-4.4640 F1000.00
G01 X14.9054 Y-4.6791 F1000.00
G01 X14.9037 Y-4.6857 F1000.00
G01 X14.8165 Y-4.8962 F1000.00
G01 X14.8134 Y-4.9015 F1000.00
G01 X14.6915 Y-5.0841 F1000.00
G01 X14.6875 Y-5.0895 F1000.00
G01 X14.5256 Y-5.2514 F1000.00
G01 X14.5202 Y-5.2554 F1000.00
G01 X14.3377 Y-5.3773 F1000.00
G01 X14.3288 Y-5.3821 F1000.00
G01 X14.1249 Y-5.4665 F1000.00
G01 X14.1190 Y-5.4685 F1000.00
G01 X13.8962 Y-5.5127 F1000.00
G01 X13.8898 Y-5.5132 F1000.00
G01 X12.7677 Y-5.5132 F1000.00
G01 X12.7576 Y-5.5122 F1000.00
G01 X12.5177 Y-5.4645 F1000.00
G01 X12.5125 Y-5.4632 F1000.00
G01 X12.5067 Y-5.4611 F1000.00
G01 X12.2811 Y-5.3676 F1000.00
G01 X12.2752 Y-5.3647 F1000.00
G01 X12.0680 Y-5.2265 F1000.00
G01 X12.0602 Y-5.2201 F1000.00
G01 X11.8867 Y-5.0466 F1000.00
G01 X11.8826 Y-5.0419 F1000.00
G01 X11.7421 Y-4.8316 F1000.00
G01 X11.7390 Y-4.8253 F1000.00
G01 X11.6455 Y-4.5998 F1000.00
G01 X11.6437 Y-4.5948 F1000.00
G01 X11.6426 Y-4.5902 F1000.00
G01 X11.5939 Y-4.3445 F1000.00
M5
G00 X11.6237 Y-4.3410
G01 F60.00
M03 S250.0
G01 F1000.00
G01 X11.6238 Y-2.0848 F1000.00
G01 X11.6618 Y-1.8926 F1000.00
G01 X11.6641 Y-1.8851 F1000.00
G01 X11.7392 Y-1.7044 F1000.00
G01 X11.8480 Y-1.5413 F1000.00
G01 X11.8518 Y-1.5366 F1000.00
G01 X11.9911 Y-1.3976 F1000.00
G01 X12.1564 Y-1.2871 F1000.00
G01 X12.3404 Y-1.2108 F1000.00
G01 X12.5332 Y-1.1721 F1000.00
G01 X12.5395 Y-1.1715 F1000.00
G01 X13.7755 Y-1.1715 F1000.00
G01 X13.8889 Y-1.1716 F1000.00
G01 X13.8952 Y-1.1722 F1000.00
G01 X14.1118 Y-1.2155 F1000.00
G01 X14.3162 Y-1.3000 F1000.00
G01 X14.3225 Y-1.3034 F1000.00
G01 X14.5049 Y-1.4254 F1000.00
G01 X14.6654 Y-1.5859 F1000.00
G01 X14.7873 Y-1.7682 F1000.00
G01 X14.7908 Y-1.7746 F1000.00
G01 X14.8744 Y-1.9767 F1000.00
G01 X14.8758 Y-1.9811 F1000.00
G01 X14.9186 Y-2.1956 F1000.00
G01 X14.9192 Y-2.2019 F1000.00
G01 X14.9192 Y-4.4527 F1000.00
G01 X14.9186 Y-4.4591 F1000.00
G01 X14.8751 Y-4.6764 F1000.00
G01 X14.7896 Y-4.8828 F1000.00
G01 X14.6672 Y-5.0665 F1000.00
G01 X14.6627 Y-5.0721 F1000.00
G01 X14.5062 Y-5.2284 F1000.00
G01 X14.3217 Y-5.3519 F1000.00
G01 X14.3163 Y-5.3548 F1000.00
G01 X14.1108 Y-5.4396 F1000.00
G01 X13.8938 Y-5.4827 F1000.00
G01 X13.8889 Y-5.4832 F1000.00
G01 X12.7686 Y-5.4832 F1000.00
G01 X12.7624 Y-5.4826 F1000.00
G01 X12.5246 Y-5.4353 F1000.00
G01 X12.5171 Y-5.4330 F1000.00
G01 X12.2935 Y-5.3403 F1000.00
G01 X12.2881 Y-5.3375 F1000.00
G01 X12.0832 Y-5.2004 F1000.00
G01 X11.9064 Y-5.0236 F1000.00
G01 X11.7683 Y-4.8170 F1000.00
G01 X11.6737 Y-4.5893 F1000.00
G01 X11.6719 Y-4.5836 F1000.00
G01 X11.6237 Y-4.3410 F1000.00
G01 X11.6536 Y-4.3381 F1000.00
G01 X11.6537 Y-2.0884 F1000.00
G01 X11.6540 Y-2.0858 F1000.00
G01 X11.6914 Y-1.8982 F1000.00
G01 X11.7657 Y-1.7186 F1000.00
G01 X11.8733 Y-1.5576 F1000.00
G01 X12.0092 Y-1.4216 F1000.00
G01 X12.1703 Y-1.3137 F1000.00
G01 X12.1721 Y-1.3129 F1000.00
G01 X12.3492 Y-1.2395 F1000.00
G01 X12.5396 Y-1.2015 F1000.00
G01 X13.8881 Y-1.2016 F1000.00
G01 X14.1030 Y-1.2442 F1000.00
G01 X14.3048 Y-1.3278 F1000.00
G01 X14.4863 Y-1.4490 F1000.00
G01 X14.6418 Y-1.6045 F1000.00
G01 X14.7618 Y-1.7840 F1000.00
G01 X14.7634 Y-1.7869 F1000.00
G01 X14.8466 Y-1.9878 F1000.00
G01 X14.8892 Y-2.2023 F1000.00
G01 X14.8892 Y-4.4519 F1000.00
G01 X14.8464 Y-4.6676 F1000.00
G01 X14.7630 Y-4.8689 F1000.00
G01 X14.6429 Y-5.0489 F1000.00
G01 X14.6410 Y-5.0513 F1000.00
G01 X14.4872 Y-5.2051 F1000.00
G01 X14.3040 Y-5.3274 F1000.00
G01 X14.1031 Y-5.4106 F1000.00
G01 X13.8888 Y-5.4531 F1000.00
G01 X12.7694 Y-5.4532 F1000.00
G01 X12.5314 Y-5.4061 F1000.00
G01 X12.5276 Y-5.4048 F1000.00
G01 X12.3043 Y-5.3122 F1000.00
G01 X12.1024 Y-5.1772 F1000.00
G01 X11.9296 Y-5.0044 F1000.00
G01 X11.7948 Y-4.8029 F1000.00
G01 X11.7018 Y-4.5788 F1000.00
G01 X11.7011 Y-4.5770 F1000.00
G01 X11.6536 Y-4.3381 F1000.00
G01 X11.6836 Y-4.3355 F1000.00
G01 X11.6837 Y-2.0903 F1000.00
G01 X11.7202 Y-1.9067 F1000.00
G01 X11.7920 Y-1.7332 F1000.00
G01 X11.8963 Y-1.5769 F1000.00
G01 X12.0289 Y-1.4443 F1000.00
G01 X12.1851 Y-1.3400 F1000.00
G01 X12.3584 Y-1.2681 F1000.00
G01 X12.5423 Y-1.2315 F1000.00
G01 X13.8860 Y-1.2316 F1000.00
G01 X14.0943 Y-1.2731 F1000.00
G01 X14.2909 Y-1.3545 F1000.00
G01 X14.4675 Y-1.4725 F1000.00
G01 X14.6182 Y-1.6232 F1000.00
G01 X14.7363 Y-1.7998 F1000.00
G01 X14.8176 Y-1.9962 F1000.00
G01 X14.8592 Y-2.2046 F1000.00
G01 X14.8592 Y-4.4499 F1000.00
G01 X14.8178 Y-4.6583 F1000.00
G01 X14.7363 Y-4.8548 F1000.00
G01 X14.6184 Y-5.0315 F1000.00
G01 X14.4677 Y-5.1823 F1000.00
G01 X14.2907 Y-5.3005 F1000.00
G01 X14.0946 Y-5.3816 F1000.00
G01 X13.8856 Y-5.4232 F1000.00
G01 X12.7714 Y-5.4232 F1000.00
G01 X12.5387 Y-5.3769 F1000.00
G01 X12.3190 Y-5.2859 F1000.00
G01 X12.1214 Y-5.1539 F1000.00
G01 X11.9530 Y-4.9855 F1000.00
G01 X11.8210 Y-4.7881 F1000.00
G01 X11.7301 Y-4.5687 F1000.00
G01 X11.6836 Y-4.3355 F1000.00
G01 X11.7136 Y-4.3325 F1000.00
G01 X11.7137 Y-2.0932 F1000.00
G01 X11.7491 Y-1.9153 F1000.00
G01 X11.8186 Y-1.7474 F1000.00
G01 X11.9196 Y-1.5961 F1000.00
G01 X12.0481 Y-1.4676 F1000.00
G01 X12.1993 Y-1.3666 F1000.00
G01 X12.3672 Y-1.2970 F1000.00
G01 X12.5453 Y-1.2615 F1000.00
G01 X13.8830 Y-1.2616 F1000.00
G01 X14.0855 Y-1.3019 F1000.00
G01 X14.2767 Y-1.3810 F1000.00
G01 X14.4484 Y-1.4958 F1000.00
G01 X14.5949 Y-1.6423 F1000.00
G01 X14.7097 Y-1.8140 F1000.00
G01 X14.7888 Y-2.0049 F1000.00
G01 X14.8292 Y-2.2076 F1000.00
G01 X14.8292 Y-4.4470 F1000.00
G01 X14.7889 Y-4.6495 F1000.00
G01 X14.7097 Y-4.8406 F1000.00
G01 X14.5951 Y-5.0124 F1000.00
G01 X14.4486 Y-5.1590 F1000.00
G01 X14.2765 Y-5.2739 F1000.00
G01 X14.0859 Y-5.3527 F1000.00
G01 X13.8826 Y-5.3932 F1000.00
G01 X12.7744 Y-5.3932 F1000.00
G01 X12.5473 Y-5.3480 F1000.00
G01 X12.3332 Y-5.2594 F1000.00
G01 X12.1405 Y-5.1306 F1000.00
G01 X11.9763 Y-4.9664 F1000.00
G01 X11.8476 Y-4.7739 F1000.00
G01 X11.7589 Y-4.5600 F1000.00
G01 X11.7136 Y-4.3325 F1000.00
G01 X11.7436 Y-4.3296 F1000.00
G01 X11.7437 Y-2.0962 F1000.00
G01 X11.7779 Y-1.9240 F1000.00
G01 X11.8452 Y-1.7616 F1000.00
G01 X11.9430 Y-1.6152 F1000.00
G01 X12.0672 Y-1.4909 F1000.00
G01 X12.2135 Y-1.3931 F1000.00
G01 X12.3760 Y-1.3258 F1000.00
G01 X12.5482 Y-1.2915 F1000.00
G01 X13.8801 Y-1.2916 F1000.00
G01 X14.0768 Y-1.3308 F1000.00
G01 X14.2625 Y-1.4076 F1000.00
G01 X14.4292 Y-1.5191 F1000.00
G01 X14.5716 Y-1.6614 F1000.00
G01 X14.6831 Y-1.8282 F1000.00
G01 X14.7599 Y-2.0137 F1000.00
G01 X14.7992 Y-2.2105 F1000.00
G01 X14.7992 Y-4.4440 F1000.00
G01 X14.7601 Y-4.6408 F1000.00
G01 X14.6832 Y-4.8264 F1000.00
G01 X14.5718 Y-4.9933 F1000.00
G01 X14.4295 Y-5.1356 F1000.00
G01 X14.2623 Y-5.2473 F1000.00
G01 X14.0771 Y-5.3239 F1000.00
G01 X13.8797 Y-5.3632 F1000.00
G01 X12.7773 Y-5.3632 F1000.00
G01 X12.5560 Y-5.3192 F1000.00
G01 X12.3474 Y-5.2328 F1000.00
G01 X12.1597 Y-5.1073 F1000.00
G01 X11.9996 Y-4.9473 F1000.00
G01 X11.8742 Y-4.7597 F1000.00
G01 X11.7878 Y-4.5512 F1000.00
G01 X11.7436 Y-4.3296 F1000.00
G01 X11.7736 Y-4.3266 F1000.00
G01 X11.7737 Y-2.0991 F1000.00
G01 X11.8068 Y-1.9328 F1000.00
G01 X11.8718 Y-1.7758 F1000.00
G01 X11.9663 Y-1.6343 F1000.00
G01 X12.0863 Y-1.5142 F1000.00
G01 X12.2277 Y-1.4197 F1000.00
G01 X12.3847 Y-1.3547 F1000.00
G01 X12.5512 Y-1.3215 F1000.00
G01 X13.8771 Y-1.3216 F1000.00
G01 X14.0680 Y-1.3596 F1000.00
G01 X14.2483 Y-1.4342 F1000.00
G01 X14.4101 Y-1.5424 F1000.00
G01 X14.5483 Y-1.6806 F1000.00
G01 X14.6565 Y-1.8424 F1000.00
G01 X14.7311 Y-2.0225 F1000.00
G01 X14.7692 Y-2.2135 F1000.00
G01 X14.7692 Y-4.4410 F1000.00
G01 X14.7312 Y-4.6320 F1000.00
G01 X14.6566 Y-4.8122 F1000.00
G01 X14.5485 Y-4.9741 F1000.00
G01 X14.4103 Y-5.1123 F1000.00
G01 X14.2481 Y-5.2207 F1000.00
G01 X14.0684 Y-5.2950 F1000.00
G01 X13.8767 Y-5.3332 F1000.00
G01 X12.7803 Y-5.3332 F1000.00
G01 X12.5648 Y-5.2904 F1000.00
G01 X12.3617 Y-5.2062 F1000.00
G01 X12.1788 Y-5.0840 F1000.00
G01 X12.0229 Y-4.9282 F1000.00
G01 X11.9008 Y-4.7455 F1000.00
G01 X11.8166 Y-4.5425 F1000.00
G01 X11.7736 Y-4.3266 F1000.00
G01 X11.8036 Y-4.3236 F1000.00
G01 X11.8037 Y-2.1021 F1000.00
G01 X11.8356 Y-1.9415 F1000.00
G01 X11.8984 Y-1.7900 F1000.00
G01 X11.9896 Y-1.6534 F1000.00
G01 X12.1055 Y-1.5375 F1000.00
G01 X12.2419 Y-1.4463 F1000.00
G01 X12.3935 Y-1.3835 F1000.00
G01 X12.5542 Y-1.3515 F1000.00
G01 X13.8742 Y-1.3516 F1000.00
G01 X14.0593 Y-1.3885 F1000.00
G01 X14.2341 Y-1.4608 F1000.00
G01 X14.3910 Y-1.5657 F1000.00
G01 X14.5250 Y-1.6997 F1000.00
G01 X14.6299 Y-1.8566 F1000.00
G01 X14.7022 Y-2.0312 F1000.00
G01 X14.7392 Y-2.2165 F1000.00
G01 X14.7392 Y-4.4381 F1000.00
G01 X14.7024 Y-4.6233 F1000.00
G01 X14.6300 Y-4.7980 F1000.00
G01 X14.5252 Y-4.9550 F1000.00
G01 X14.3912 Y-5.0890 F1000.00
G01 X14.2339 Y-5.1941 F1000.00
G01 X14.0596 Y-5.2662 F1000.00
G01 X13.8738 Y-5.3032 F1000.00
G01 X12.7832 Y-5.3032 F1000.00
G01 X12.5735 Y-5.2615 F1000.00
G01 X12.3759 Y-5.1796 F1000.00
G01 X12.1979 Y-5.0607 F1000.00
G01 X12.0462 Y-4.9090 F1000.00
G01 X11.9274 Y-4.7313 F1000.00
G01 X11.8455 Y-4.5337 F1000.00
G01 X11.8036 Y-4.3236 F1000.00
G01 X11.8336 Y-4.3207 F1000.00
G01 X11.8337 Y-2.1051 F1000.00
G01 X11.8644 Y-1.9503 F1000.00
G01 X11.9250 Y-1.8042 F1000.00
G01 X12.0129 Y-1.6725 F1000.00
G01 X12.1246 Y-1.5608 F1000.00
G01 X12.2561 Y-1.4729 F1000.00
G01 X12.4022 Y-1.4124 F1000.00
G01 X12.5571 Y-1.3815 F1000.00
G01 X13.8712 Y-1.3816 F1000.00
G01 X14.0505 Y-1.4173 F1000.00
G01 X14.2199 Y-1.4874 F1000.00
G01 X14.3719 Y-1.5890 F1000.00
G01 X14.5017 Y-1.7188 F1000.00
G01 X14.6033 Y-1.8708 F1000.00
G01 X14.6734 Y-2.0400 F1000.00
G01 X14.7092 Y-2.2194 F1000.00
G01 X14.7092 Y-4.4351 F1000.00
G01 X14.6736 Y-4.6145 F1000.00
G01 X14.6034 Y-4.7838 F1000.00
G01 X14.5019 Y-4.9359 F1000.00
G01 X14.3721 Y-5.0657 F1000.00
