(G-CODE GENERATED BY FLATCAM v8.994 - www.flatcam.org - Version Date: 2020/11/7)

(Name: PCB2.GTO_mt_paint_cnc)
(Type: G-code from Geometry)
(Units: MM)

(Created on Friday, 27 January 2023 at 11:27)

(This preprocessor is used with a motion controller loaded with GRBL firmware. )
(It is for the case when it is used together with a LASER connected on the SPINDLE connector.)

(Feedrate: 1000.0 mm/min)
(Feedrate rapids: 1500.0 mm/min)

(Z Focus: 2.0 mm)
(Steps per circle: 64)
(Preprocessor Geometry: GRBL_laser)

(X range:  -15.2667 ...   18.9769  mm)
(Y range:  -17.6126 ...   15.9796  mm)

(Laser Power - Spindle Speed: 250.0)

G21
G90
G17
G94

G01 F1000.00

M5
G01 F1000.00
G00 X0.6442 Y-0.9171
G01 F60.00
M03 S250.0
G01 F1000.00
G01 X0.9068 Y-0.9171 F1000.00
G01 X0.8860 Y-0.9316 F1000.00
G01 X0.8661 Y-0.9478 F1000.00
G01 X0.8476 Y-0.9652 F1000.00
G01 X0.8384 Y-0.9748 F1000.00
G01 X0.8298 Y-0.9846 F1000.00
G01 X0.8215 Y-0.9949 F1000.00
G01 X0.8130 Y-1.0061 F1000.00
G01 X0.7989 Y-1.0274 F1000.00
G01 X0.7861 Y-1.0502 F1000.00
G01 X0.7755 Y-1.0729 F1000.00
G01 X0.7649 Y-1.0501 F1000.00
G01 X0.7521 Y-1.0274 F1000.00
G01 X0.7449 Y-1.0162 F1000.00
G01 X0.7369 Y-1.0046 F1000.00
G01 X0.7211 Y-0.9845 F1000.00
G01 X0.7035 Y-0.9653 F1000.00
G01 X0.6849 Y-0.9477 F1000.00
G01 X0.6651 Y-0.9316 F1000.00
G01 X0.6442 Y-0.9171 F1000.00
G01 X0.7278 Y-0.9471 F1000.00
G01 X0.8232 Y-0.9471 F1000.00
G01 X0.8101 Y-0.9615 F1000.00
G01 X0.7978 Y-0.9763 F1000.00
G01 X0.7862 Y-0.9921 F1000.00
G01 X0.7755 Y-1.0082 F1000.00
G01 X0.7648 Y-0.9921 F1000.00
G01 X0.7532 Y-0.9764 F1000.00
G01 X0.7409 Y-0.9615 F1000.00
G01 X0.7278 Y-0.9471 F1000.00
M5
G00 X2.2256 Y-0.8916
G01 F60.00
M03 S250.0
G01 F1000.00
G01 X2.2269 Y-0.8660 F1000.00
G01 X2.2304 Y-0.8425 F1000.00
G01 X2.2362 Y-0.8194 F1000.00
G01 X2.2442 Y-0.7969 F1000.00
G01 X2.2544 Y-0.7754 F1000.00
G01 X2.2666 Y-0.7550 F1000.00
G01 X2.2808 Y-0.7359 F1000.00
G01 X2.2968 Y-0.7182 F1000.00
G01 X2.3145 Y-0.7022 F1000.00
G01 X2.3336 Y-0.6881 F1000.00
G01 X2.3540 Y-0.6758 F1000.00
G01 X2.3756 Y-0.6657 F1000.00
G01 X2.3980 Y-0.6576 F1000.00
G01 X2.4211 Y-0.6519 F1000.00
G01 X2.4447 Y-0.6484 F1000.00
G01 X2.4685 Y-0.6472 F1000.00
G01 X2.4922 Y-0.6484 F1000.00
G01 X2.5158 Y-0.6519 F1000.00
G01 X2.5389 Y-0.6577 F1000.00
G01 X2.5613 Y-0.6658 F1000.00
G01 X2.5828 Y-0.6760 F1000.00
G01 X2.6032 Y-0.6882 F1000.00
G01 X2.6224 Y-0.7024 F1000.00
G01 X2.6400 Y-0.7184 F1000.00
G01 X2.6560 Y-0.7361 F1000.00
G01 X2.6712 Y-0.7567 F1000.00
G01 X3.7821 Y-2.4230 F1000.00
G01 X3.7878 Y-2.4302 F1000.00
G01 X3.7944 Y-2.4366 F1000.00
G01 X3.8033 Y-2.4432 F1000.00
G01 X3.8113 Y-2.4476 F1000.00
G01 X3.8199 Y-2.4510 F1000.00
G01 X3.8288 Y-2.4534 F1000.00
G01 X3.8379 Y-2.4546 F1000.00
G01 X3.8489 Y-2.4546 F1000.00
G01 X3.8544 Y-2.4540 F1000.00
G01 X3.8616 Y-2.4526 F1000.00
G01 X3.8687 Y-2.4505 F1000.00
G01 X3.8738 Y-2.4484 F1000.00
G01 X3.8804 Y-2.4451 F1000.00
G01 X3.8851 Y-2.4422 F1000.00
G01 X3.8910 Y-2.4378 F1000.00
G01 X3.8965 Y-2.4329 F1000.00
G01 X3.9014 Y-2.4274 F1000.00
G01 X3.9058 Y-2.4215 F1000.00
G01 X3.9087 Y-2.4168 F1000.00
G01 X3.9120 Y-2.4102 F1000.00
G01 X3.9141 Y-2.4051 F1000.00
G01 X3.9162 Y-2.3981 F1000.00
G01 X3.9176 Y-2.3909 F1000.00
G01 X3.9184 Y-2.3835 F1000.00
G01 X3.9184 Y-0.8916 F1000.00
G01 X3.9197 Y-0.8660 F1000.00
G01 X3.9232 Y-0.8425 F1000.00
G01 X3.9290 Y-0.8194 F1000.00
G01 X3.9370 Y-0.7970 F1000.00
G01 X3.9472 Y-0.7755 F1000.00
G01 X3.9594 Y-0.7550 F1000.00
G01 X3.9736 Y-0.7359 F1000.00
G01 X3.9896 Y-0.7183 F1000.00
G01 X4.0072 Y-0.7023 F1000.00
G01 X4.0263 Y-0.6881 F1000.00
G01 X4.0468 Y-0.6759 F1000.00
G01 X4.0683 Y-0.6657 F1000.00
G01 X4.0907 Y-0.6577 F1000.00
G01 X4.1138 Y-0.6519 F1000.00
G01 X4.1373 Y-0.6484 F1000.00
G01 X4.1611 Y-0.6472 F1000.00
G01 X4.1849 Y-0.6484 F1000.00
G01 X4.2084 Y-0.6519 F1000.00
G01 X4.2315 Y-0.6577 F1000.00
G01 X4.2539 Y-0.6657 F1000.00
G01 X4.2754 Y-0.6759 F1000.00
G01 X4.2959 Y-0.6881 F1000.00
G01 X4.3150 Y-0.7023 F1000.00
G01 X4.3326 Y-0.7183 F1000.00
G01 X4.3486 Y-0.7359 F1000.00
G01 X4.3628 Y-0.7550 F1000.00
G01 X4.3750 Y-0.7755 F1000.00
G01 X4.3852 Y-0.7970 F1000.00
G01 X4.3932 Y-0.8194 F1000.00
G01 X4.3990 Y-0.8425 F1000.00
G01 X4.4025 Y-0.8660 F1000.00
G01 X4.4038 Y-0.8916 F1000.00
G01 X4.4038 Y-3.4272 F1000.00
G01 X4.4025 Y-3.4528 F1000.00
G01 X4.3990 Y-3.4763 F1000.00
G01 X4.3932 Y-3.4994 F1000.00
G01 X4.3852 Y-3.5219 F1000.00
G01 X4.3750 Y-3.5434 F1000.00
G01 X4.3628 Y-3.5638 F1000.00
G01 X4.3486 Y-3.5829 F1000.00
G01 X4.3326 Y-3.6006 F1000.00
G01 X4.3149 Y-3.6166 F1000.00
G01 X4.2958 Y-3.6307 F1000.00
G01 X4.2754 Y-3.6430 F1000.00
G01 X4.2538 Y-3.6531 F1000.00
G01 X4.2314 Y-3.6612 F1000.00
G01 X4.2083 Y-3.6669 F1000.00
G01 X4.1847 Y-3.6704 F1000.00
G01 X4.1609 Y-3.6716 F1000.00
G01 X4.1372 Y-3.6704 F1000.00
G01 X4.1136 Y-3.6669 F1000.00
G01 X4.0905 Y-3.6611 F1000.00
G01 X4.0681 Y-3.6530 F1000.00
G01 X4.0466 Y-3.6428 F1000.00
G01 X4.0262 Y-3.6306 F1000.00
G01 X4.0070 Y-3.6164 F1000.00
G01 X3.9894 Y-3.6004 F1000.00
G01 X3.9734 Y-3.5827 F1000.00
G01 X3.9582 Y-3.5621 F1000.00
G01 X2.8473 Y-1.8958 F1000.00
G01 X2.8416 Y-1.8886 F1000.00
G01 X2.8364 Y-1.8834 F1000.00
G01 X2.8292 Y-1.8777 F1000.00
G01 X2.8230 Y-1.8737 F1000.00
G01 X2.8147 Y-1.8697 F1000.00
G01 X2.8078 Y-1.8672 F1000.00
G01 X2.8006 Y-1.8654 F1000.00
G01 X2.7915 Y-1.8642 F1000.00
G01 X2.7842 Y-1.8640 F1000.00
G01 X2.7768 Y-1.8645 F1000.00
G01 X2.7696 Y-1.8658 F1000.00
G01 X2.7625 Y-1.8677 F1000.00
G01 X2.7556 Y-1.8704 F1000.00
G01 X2.7474 Y-1.8746 F1000.00
G01 X2.7413 Y-1.8787 F1000.00
G01 X2.7356 Y-1.8834 F1000.00
G01 X2.7304 Y-1.8886 F1000.00
G01 X2.7257 Y-1.8943 F1000.00
G01 X2.7216 Y-1.9004 F1000.00
G01 X2.7182 Y-1.9069 F1000.00
G01 X2.7153 Y-1.9137 F1000.00
G01 X2.7132 Y-1.9207 F1000.00
G01 X2.7118 Y-1.9279 F1000.00
G01 X2.7110 Y-1.9353 F1000.00
G01 X2.7110 Y-3.4272 F1000.00
G01 X2.7097 Y-3.4528 F1000.00
G01 X2.7062 Y-3.4763 F1000.00
G01 X2.7004 Y-3.4994 F1000.00
G01 X2.6924 Y-3.5218 F1000.00
G01 X2.6822 Y-3.5433 F1000.00
G01 X2.6700 Y-3.5638 F1000.00
G01 X2.6558 Y-3.5829 F1000.00
G01 X2.6398 Y-3.6005 F1000.00
G01 X2.6222 Y-3.6165 F1000.00
G01 X2.6031 Y-3.6307 F1000.00
G01 X2.5826 Y-3.6429 F1000.00
G01 X2.5611 Y-3.6531 F1000.00
G01 X2.5387 Y-3.6611 F1000.00
G01 X2.5156 Y-3.6669 F1000.00
G01 X2.4921 Y-3.6704 F1000.00
G01 X2.4683 Y-3.6716 F1000.00
G01 X2.4445 Y-3.6704 F1000.00
G01 X2.4210 Y-3.6669 F1000.00
G01 X2.3979 Y-3.6611 F1000.00
G01 X2.3755 Y-3.6531 F1000.00
G01 X2.3540 Y-3.6429 F1000.00
G01 X2.3335 Y-3.6307 F1000.00
G01 X2.3144 Y-3.6165 F1000.00
G01 X2.2968 Y-3.6005 F1000.00
G01 X2.2808 Y-3.5829 F1000.00
G01 X2.2666 Y-3.5638 F1000.00
G01 X2.2544 Y-3.5433 F1000.00
G01 X2.2442 Y-3.5218 F1000.00
G01 X2.2362 Y-3.4994 F1000.00
G01 X2.2304 Y-3.4763 F1000.00
G01 X2.2269 Y-3.4528 F1000.00
G01 X2.2256 Y-3.4272 F1000.00
G01 X2.2256 Y-0.8916 F1000.00
G01 X2.2556 Y-0.8924 F1000.00
G01 X2.2568 Y-0.8690 F1000.00
G01 X2.2599 Y-0.8483 F1000.00
G01 X2.2649 Y-0.8281 F1000.00
G01 X2.2720 Y-0.8084 F1000.00
G01 X2.2809 Y-0.7896 F1000.00
G01 X2.2916 Y-0.7717 F1000.00
G01 X2.3040 Y-0.7549 F1000.00
G01 X2.3181 Y-0.7395 F1000.00
G01 X2.3335 Y-0.7255 F1000.00
G01 X2.3503 Y-0.7130 F1000.00
G01 X2.3682 Y-0.7023 F1000.00
G01 X2.3871 Y-0.6934 F1000.00
G01 X2.4067 Y-0.6864 F1000.00
G01 X2.4270 Y-0.6813 F1000.00
G01 X2.4476 Y-0.6783 F1000.00
G01 X2.4684 Y-0.6773 F1000.00
G01 X2.4893 Y-0.6783 F1000.00
G01 X2.5099 Y-0.6814 F1000.00
G01 X2.5302 Y-0.6865 F1000.00
G01 X2.5498 Y-0.6935 F1000.00
G01 X2.5686 Y-0.7024 F1000.00
G01 X2.5865 Y-0.7132 F1000.00
G01 X2.6033 Y-0.7256 F1000.00
G01 X2.6187 Y-0.7397 F1000.00
G01 X2.6327 Y-0.7551 F1000.00
G01 X2.6467 Y-0.7740 F1000.00
G01 X3.7573 Y-2.4399 F1000.00
G01 X3.7653 Y-2.4500 F1000.00
G01 X3.7731 Y-2.4578 F1000.00
G01 X3.7832 Y-2.4658 F1000.00
G01 X3.7942 Y-2.4726 F1000.00
G01 X3.8059 Y-2.4779 F1000.00
G01 X3.8182 Y-2.4818 F1000.00
G01 X3.8309 Y-2.4841 F1000.00
G01 X3.8437 Y-2.4848 F1000.00
G01 X3.8540 Y-2.4843 F1000.00
G01 X3.8635 Y-2.4829 F1000.00
G01 X3.8717 Y-2.4810 F1000.00
G01 X3.8815 Y-2.4777 F1000.00
G01 X3.8909 Y-2.4735 F1000.00
G01 X3.8993 Y-2.4688 F1000.00
G01 X3.9077 Y-2.4629 F1000.00
G01 X3.9155 Y-2.4562 F1000.00
G01 X3.9227 Y-2.4487 F1000.00
G01 X3.9291 Y-2.4406 F1000.00
G01 X3.9337 Y-2.4335 F1000.00
G01 X3.9385 Y-2.4244 F1000.00
G01 X3.9422 Y-2.4156 F1000.00
G01 X3.9452 Y-2.4057 F1000.00
G01 X3.9470 Y-2.3974 F1000.00
G01 X3.9482 Y-2.3872 F1000.00
G01 X3.9484 Y-2.3798 F1000.00
G01 X3.9484 Y-0.8924 F1000.00
G01 X3.9496 Y-0.8690 F1000.00
G01 X3.9527 Y-0.8483 F1000.00
G01 X3.9577 Y-0.8281 F1000.00
G01 X3.9647 Y-0.8085 F1000.00
G01 X3.9737 Y-0.7896 F1000.00
G01 X3.9844 Y-0.7717 F1000.00
G01 X3.9968 Y-0.7550 F1000.00
G01 X4.0108 Y-0.7395 F1000.00
G01 X4.0263 Y-0.7255 F1000.00
G01 X4.0430 Y-0.7131 F1000.00
G01 X4.0609 Y-0.7024 F1000.00
G01 X4.0798 Y-0.6934 F1000.00
G01 X4.0994 Y-0.6864 F1000.00
G01 X4.1196 Y-0.6814 F1000.00
G01 X4.1403 Y-0.6783 F1000.00
G01 X4.1611 Y-0.6773 F1000.00
G01 X4.1819 Y-0.6783 F1000.00
G01 X4.2026 Y-0.6814 F1000.00
G01 X4.2228 Y-0.6864 F1000.00
G01 X4.2424 Y-0.6934 F1000.00
G01 X4.2613 Y-0.7024 F1000.00
G01 X4.2792 Y-0.7131 F1000.00
G01 X4.2959 Y-0.7255 F1000.00
G01 X4.3114 Y-0.7395 F1000.00
G01 X4.3254 Y-0.7550 F1000.00
G01 X4.3378 Y-0.7717 F1000.00
G01 X4.3485 Y-0.7896 F1000.00
G01 X4.3575 Y-0.8085 F1000.00
G01 X4.3645 Y-0.8281 F1000.00
G01 X4.3695 Y-0.8483 F1000.00
G01 X4.3726 Y-0.8690 F1000.00
G01 X4.3738 Y-0.8924 F1000.00
G01 X4.3738 Y-3.4264 F1000.00
G01 X4.3726 Y-3.4498 F1000.00
G01 X4.3695 Y-3.4705 F1000.00
G01 X4.3645 Y-3.4907 F1000.00
G01 X4.3574 Y-3.5104 F1000.00
G01 X4.3485 Y-3.5292 F1000.00
G01 X4.3378 Y-3.5471 F1000.00
G01 X4.3254 Y-3.5639 F1000.00
G01 X4.3113 Y-3.5793 F1000.00
G01 X4.2959 Y-3.5933 F1000.00
G01 X4.2791 Y-3.6058 F1000.00
G01 X4.2612 Y-3.6165 F1000.00
G01 X4.2423 Y-3.6254 F1000.00
G01 X4.2227 Y-3.6324 F1000.00
G01 X4.2024 Y-3.6375 F1000.00
G01 X4.1818 Y-3.6405 F1000.00
G01 X4.1610 Y-3.6415 F1000.00
G01 X4.1401 Y-3.6405 F1000.00
G01 X4.1195 Y-3.6374 F1000.00
G01 X4.0992 Y-3.6323 F1000.00
G01 X4.0796 Y-3.6253 F1000.00
G01 X4.0608 Y-3.6164 F1000.00
G01 X4.0429 Y-3.6056 F1000.00
G01 X4.0261 Y-3.5932 F1000.00
G01 X4.0107 Y-3.5791 F1000.00
G01 X3.9967 Y-3.5637 F1000.00
G01 X3.9827 Y-3.5448 F1000.00
G01 X2.8721 Y-1.8789 F1000.00
G01 X2.8641 Y-1.8688 F1000.00
G01 X2.8563 Y-1.8610 F1000.00
G01 X2.8462 Y-1.8530 F1000.00
G01 X2.8359 Y-1.8466 F1000.00
G01 X2.8242 Y-1.8412 F1000.00
G01 X2.8137 Y-1.8377 F1000.00
G01 X2.8018 Y-1.8352 F1000.00
G01 X2.7890 Y-1.8340 F1000.00
G01 X2.7787 Y-1.8342 F1000.00
G01 X2.7684 Y-1.8354 F1000.00
G01 X2.7584 Y-1.8376 F1000.00
G01 X2.7503 Y-1.8402 F1000.00
G01 X2.7408 Y-1.8442 F1000.00
G01 X2.7317 Y-1.8491 F1000.00
G01 X2.7231 Y-1.8548 F1000.00
G01 X2.7152 Y-1.8614 F1000.00
G01 X2.7079 Y-1.8687 F1000.00
G01 X2.7014 Y-1.8767 F1000.00
G01 X2.6957 Y-1.8853 F1000.00
G01 X2.6912 Y-1.8937 F1000.00
G01 X2.6872 Y-1.9032 F1000.00
G01 X2.6842 Y-1.9131 F1000.00
G01 X2.6824 Y-1.9214 F1000.00
G01 X2.6812 Y-1.9316 F1000.00
G01 X2.6810 Y-1.9390 F1000.00
G01 X2.6810 Y-3.4264 F1000.00
G01 X2.6798 Y-3.4498 F1000.00
G01 X2.6767 Y-3.4705 F1000.00
G01 X2.6717 Y-3.4907 F1000.00
G01 X2.6647 Y-3.5103 F1000.00
G01 X2.6557 Y-3.5292 F1000.00
G01 X2.6450 Y-3.5471 F1000.00
G01 X2.6326 Y-3.5638 F1000.00
G01 X2.6186 Y-3.5793 F1000.00
G01 X2.6031 Y-3.5933 F1000.00
G01 X2.5864 Y-3.6057 F1000.00
G01 X2.5685 Y-3.6164 F1000.00
G01 X2.5496 Y-3.6254 F1000.00
G01 X2.5300 Y-3.6324 F1000.00
G01 X2.5098 Y-3.6374 F1000.00
G01 X2.4891 Y-3.6405 F1000.00
G01 X2.4683 Y-3.6415 F1000.00
G01 X2.4475 Y-3.6405 F1000.00
G01 X2.4268 Y-3.6374 F1000.00
G01 X2.4066 Y-3.6324 F1000.00
G01 X2.3870 Y-3.6254 F1000.00
G01 X2.3681 Y-3.6164 F1000.00
G01 X2.3502 Y-3.6057 F1000.00
G01 X2.3335 Y-3.5933 F1000.00
G01 X2.3180 Y-3.5793 F1000.00
G01 X2.3040 Y-3.5638 F1000.00
G01 X2.2916 Y-3.5471 F1000.00
G01 X2.2809 Y-3.5292 F1000.00
G01 X2.2719 Y-3.5103 F1000.00
G01 X2.2649 Y-3.4907 F1000.00
G01 X2.2599 Y-3.4705 F1000.00
G01 X2.2568 Y-3.4498 F1000.00
G01 X2.2556 Y-3.4264 F1000.00
G01 X2.2556 Y-0.8924 F1000.00
G01 X2.2856 Y-0.8931 F1000.00
G01 X2.2867 Y-0.8719 F1000.00
G01 X2.2893 Y-0.8542 F1000.00
G01 X2.2937 Y-0.8368 F1000.00
G01 X2.2997 Y-0.8199 F1000.00
G01 X2.3074 Y-0.8037 F1000.00
G01 X2.3166 Y-0.7884 F1000.00
G01 X2.3273 Y-0.7740 F1000.00
G01 X2.3393 Y-0.7607 F1000.00
G01 X2.3526 Y-0.7487 F1000.00
G01 X2.3670 Y-0.7380 F1000.00
G01 X2.3823 Y-0.7288 F1000.00
G01 X2.3985 Y-0.7212 F1000.00
G01 X2.4154 Y-0.7151 F1000.00
G01 X2.4328 Y-0.7108 F1000.00
G01 X2.4505 Y-0.7082 F1000.00
G01 X2.4684 Y-0.7073 F1000.00
G01 X2.4863 Y-0.7082 F1000.00
G01 X2.5040 Y-0.7108 F1000.00
G01 X2.5214 Y-0.7152 F1000.00
G01 X2.5383 Y-0.7213 F1000.00
G01 X2.5545 Y-0.7289 F1000.00
G01 X2.5698 Y-0.7382 F1000.00
G01 X2.5842 Y-0.7488 F1000.00
G01 X2.5975 Y-0.7609 F1000.00
G01 X2.6095 Y-0.7742 F1000.00
G01 X2.6221 Y-0.7912 F1000.00
G01 X3.7334 Y-2.4581 F1000.00
G01 X3.7392 Y-2.4657 F1000.00
G01 X3.7451 Y-2.4723 F1000.00
G01 X3.7508 Y-2.4780 F1000.00
G01 X3.7571 Y-2.4837 F1000.00
G01 X3.7635 Y-2.4886 F1000.00
G01 X3.7708 Y-2.4936 F1000.00
G01 X3.7774 Y-2.4976 F1000.00
G01 X3.7853 Y-2.5017 F1000.00
G01 X3.7941 Y-2.5055 F1000.00
G01 X3.8013 Y-2.5081 F1000.00
G01 X3.8098 Y-2.5106 F1000.00
G01 X3.8177 Y-2.5124 F1000.00
G01 X3.8261 Y-2.5137 F1000.00
G01 X3.8342 Y-2.5145 F1000.00
G01 X3.8437 Y-2.5148 F1000.00
G01 X3.8526 Y-2.5145 F1000.00
G01 X3.8639 Y-2.5133 F1000.00
G01 X3.8758 Y-2.5109 F1000.00
G01 X3.8882 Y-2.5072 F1000.00
G01 X3.8988 Y-2.5030 F1000.00
G01 X3.9103 Y-2.4972 F1000.00
G01 X3.9205 Y-2.4907 F1000.00
G01 X3.9296 Y-2.4838 F1000.00
G01 X3.9386 Y-2.4756 F1000.00
G01 X3.9461 Y-2.4675 F1000.00
G01 X3.9540 Y-2.4573 F1000.00
G01 X3.9605 Y-2.4470 F1000.00
G01 X3.9658 Y-2.4369 F1000.00
G01 X3.9704 Y-2.4257 F1000.00
G01 X3.9742 Y-2.4134 F1000.00
G01 X3.9766 Y-2.4022 F1000.00
G01 X3.9780 Y-2.3901 F1000.00
G01 X3.9784 Y-2.3798 F1000.00
G01 X3.9784 Y-0.8931 F1000.00
G01 X3.9795 Y-0.8719 F1000.00
G01 X3.9821 Y-0.8542 F1000.00
G01 X3.9865 Y-0.8368 F1000.00
G01 X3.9925 Y-0.8200 F1000.00
G01 X4.0002 Y-0.8038 F1000.00
G01 X4.0094 Y-0.7884 F1000.00
G01 X4.0200 Y-0.7740 F1000.00
G01 X4.0321 Y-0.7608 F1000.00
G01 X4.0453 Y-0.7487 F1000.00
G01 X4.0597 Y-0.7381 F1000.00
G01 X4.0751 Y-0.7289 F1000.00
G01 X4.0913 Y-0.7212 F1000.00
G01 X4.1081 Y-0.7152 F1000.00
G01 X4.1255 Y-0.7108 F1000.00
G01 X4.1432 Y-0.7082 F1000.00
G01 X4.1611 Y-0.7073 F1000.00
G01 X4.1790 Y-0.7082 F1000.00
G01 X4.1967 Y-0.7108 F1000.00
G01 X4.2141 Y-0.7152 F1000.00
G01 X4.2309 Y-0.7212 F1000.00
G01 X4.2471 Y-0.7289 F1000.00
G01 X4.2625 Y-0.7381 F1000.00
G01 X4.2769 Y-0.7487 F1000.00
G01 X4.2901 Y-0.7608 F1000.00
G01 X4.3022 Y-0.7740 F1000.00
G01 X4.3128 Y-0.7884 F1000.00
G01 X4.3220 Y-0.8038 F1000.00
G01 X4.3297 Y-0.8200 F1000.00
G01 X4.3357 Y-0.8368 F1000.00
G01 X4.3401 Y-0.8542 F1000.00
G01 X4.3427 Y-0.8719 F1000.00
G01 X4.3438 Y-0.8931 F1000.00
G01 X4.3438 Y-3.4257 F1000.00
G01 X4.3427 Y-3.4469 F1000.00
G01 X4.3401 Y-3.4646 F1000.00
G01 X4.3357 Y-3.4820 F1000.00
G01 X4.3297 Y-3.4989 F1000.00
G01 X4.3220 Y-3.5151 F1000.00
G01 X4.3128 Y-3.5304 F1000.00
G01 X4.3021 Y-3.5448 F1000.00
G01 X4.2901 Y-3.5581 F1000.00
G01 X4.2768 Y-3.5701 F1000.00
G01 X4.2624 Y-3.5808 F1000.00
G01 X4.2471 Y-3.5900 F1000.00
G01 X4.2309 Y-3.5976 F1000.00
G01 X4.2140 Y-3.6037 F1000.00
G01 X4.1966 Y-3.6080 F1000.00
G01 X4.1789 Y-3.6106 F1000.00
G01 X4.1610 Y-3.6115 F1000.00
G01 X4.1431 Y-3.6106 F1000.00
G01 X4.1254 Y-3.6080 F1000.00
G01 X4.1080 Y-3.6036 F1000.00
G01 X4.0911 Y-3.5975 F1000.00
G01 X4.0749 Y-3.5899 F1000.00
G01 X4.0596 Y-3.5806 F1000.00
G01 X4.0452 Y-3.5700 F1000.00
G01 X4.0319 Y-3.5579 F1000.00
G01 X4.0199 Y-3.5446 F1000.00
G01 X4.0073 Y-3.5276 F1000.00
G01 X2.8962 Y-1.8610 F1000.00
G01 X2.8866 Y-1.8489 F1000.00
G01 X2.8762 Y-1.8385 F1000.00
G01 X2.8635 Y-1.8284 F1000.00
G01 X2.8500 Y-1.8201 F1000.00
G01 X2.8353 Y-1.8133 F1000.00
G01 X2.8214 Y-1.8087 F1000.00
G01 X2.8055 Y-1.8054 F1000.00
G01 X2.7897 Y-1.8040 F1000.00
G01 X2.7765 Y-1.8043 F1000.00
G01 X2.7637 Y-1.8058 F1000.00
G01 X2.7507 Y-1.8086 F1000.00
G01 X2.7399 Y-1.8121 F1000.00
G01 X2.7280 Y-1.8170 F1000.00
G01 X2.7163 Y-1.8233 F1000.00
G01 X2.7059 Y-1.8303 F1000.00
G01 X2.6959 Y-1.8384 F1000.00
G01 X2.6877 Y-1.8464 F1000.00
G01 X2.6791 Y-1.8565 F1000.00
G01 X2.6717 Y-1.8670 F1000.00
G01 X2.6652 Y-1.8786 F1000.00
G01 X2.6601 Y-1.8900 F1000.00
G01 X2.6561 Y-1.9022 F1000.00
G01 X2.6534 Y-1.9133 F1000.00
G01 X2.6515 Y-1.9265 F1000.00
G01 X2.6510 Y-1.9390 F1000.00
G01 X2.6510 Y-3.4257 F1000.00
G01 X2.6499 Y-3.4469 F1000.00
G01 X2.6473 Y-3.4646 F1000.00
G01 X2.6429 Y-3.4820 F1000.00
G01 X2.6369 Y-3.4988 F1000.00
G01 X2.6292 Y-3.5150 F1000.00
G01 X2.6200 Y-3.5304 F1000.00
G01 X2.6094 Y-3.5448 F1000.00
G01 X2.5973 Y-3.5580 F1000.00
G01 X2.5841 Y-3.5701 F1000.00
G01 X2.5697 Y-3.5807 F1000.00
G01 X2.5543 Y-3.5899 F1000.00
G01 X2.5381 Y-3.5976 F1000.00
G01 X2.5213 Y-3.6036 F1000.00
G01 X2.5039 Y-3.6080 F1000.00
G01 X2.4862 Y-3.6106 F1000.00
G01 X2.4683 Y-3.6115 F1000.00
G01 X2.4504 Y-3.6106 F1000.00
G01 X2.4327 Y-3.6080 F1000.00
G01 X2.4153 Y-3.6036 F1000.00
G01 X2.3985 Y-3.5976 F1000.00
G01 X2.3823 Y-3.5899 F1000.00
G01 X2.3669 Y-3.5807 F1000.00
G01 X2.3525 Y-3.5701 F1000.00
G01 X2.3393 Y-3.5580 F1000.00
G01 X2.3272 Y-3.5448 F1000.00
G01 X2.3166 Y-3.5304 F1000.00
G01 X2.3074 Y-3.5150 F1000.00
G01 X2.2997 Y-3.4988 F1000.00
G01 X2.2937 Y-3.4820 F1000.00
G01 X2.2893 Y-3.4646 F1000.00
G01 X2.2867 Y-3.4469 F1000.00
G01 X2.2856 Y-3.4257 F1000.00
G01 X2.2856 Y-0.8931 F1000.00
G01 X2.3156 Y-0.8939 F1000.00
G01 X2.3166 Y-0.8749 F1000.00
G01 X2.3188 Y-0.8600 F1000.00
G01 X2.3224 Y-0.8455 F1000.00
G01 X2.3275 Y-0.8314 F1000.00
G01 X2.3339 Y-0.8179 F1000.00
G01 X2.3416 Y-0.8051 F1000.00
G01 X2.3505 Y-0.7930 F1000.00
G01 X2.3605 Y-0.7820 F1000.00
G01 X2.3716 Y-0.7719 F1000.00
G01 X2.3836 Y-0.7630 F1000.00
G01 X2.3965 Y-0.7553 F1000.00
G01 X2.4100 Y-0.7489 F1000.00
G01 X2.4241 Y-0.7439 F1000.00
G01 X2.4386 Y-0.7403 F1000.00
G01 X2.4534 Y-0.7381 F1000.00
G01 X2.4684 Y-0.7373 F1000.00
G01 X2.4833 Y-0.7381 F1000.00
G01 X2.4982 Y-0.7403 F1000.00
G01 X2.5127 Y-0.7439 F1000.00
G01 X2.5268 Y-0.7490 F1000.00
G01 X2.5403 Y-0.7554 F1000.00
G01 X2.5531 Y-0.7631 F1000.00
G01 X2.5651 Y-0.7720 F1000.00
G01 X2.5762 Y-0.7821 F1000.00
G01 X2.5863 Y-0.7932 F1000.00
G01 X2.5976 Y-0.8085 F1000.00
G01 X3.7102 Y-2.4771 F1000.00
G01 X3.7164 Y-2.4851 F1000.00
G01 X3.7235 Y-2.4931 F1000.00
G01 X3.7302 Y-2.4999 F1000.00
G01 X3.7382 Y-2.5069 F1000.00
G01 X3.7459 Y-2.5129 F1000.00
G01 X3.7547 Y-2.5190 F1000.00
G01 X3.7630 Y-2.5239 F1000.00
G01 X3.7724 Y-2.5288 F1000.00
G01 X3.7829 Y-2.5333 F1000.00
G01 X3.7919 Y-2.5366 F1000.00
G01 X3.8022 Y-2.5396 F1000.00
G01 X3.8115 Y-2.5417 F1000.00
G01 X3.8220 Y-2.5434 F1000.00
G01 X3.8317 Y-2.5444 F1000.00
G01 X3.8424 Y-2.5448 F1000.00
G01 X3.8524 Y-2.5446 F1000.00
G01 X3.8670 Y-2.5432 F1000.00
G01 X3.8806 Y-2.5406 F1000.00
G01 X3.8955 Y-2.5364 F1000.00
G01 X3.9094 Y-2.5311 F1000.00
G01 X3.9220 Y-2.5250 F1000.00
G01 X3.9347 Y-2.5173 F1000.00
G01 X3.9472 Y-2.5081 F1000.00
G01 X3.9576 Y-2.4990 F1000.00
G01 X3.9677 Y-2.4883 F1000.00
G01 X3.9766 Y-2.4773 F1000.00
G01 X3.9851 Y-2.4644 F1000.00
G01 X3.9922 Y-2.4512 F1000.00
G01 X3.9977 Y-2.4384 F1000.00
G01 X4.0024 Y-2.4242 F1000.00
G01 X4.0058 Y-2.4092 F1000.00
G01 X4.0077 Y-2.3955 F1000.00
G01 X4.0084 Y-2.3798 F1000.00
G01 X4.0084 Y-0.8939 F1000.00
G01 X4.0094 Y-0.8749 F1000.00
G01 X4.0116 Y-0.8601 F1000.00
G01 X4.0152 Y-0.8455 F1000.00
G01 X4.0202 Y-0.8315 F1000.00
G01 X4.0266 Y-0.8179 F1000.00
G01 X4.0343 Y-0.8051 F1000.00
G01 X4.0432 Y-0.7931 F1000.00
G01 X4.0533 Y-0.7820 F1000.00
G01 X4.0644 Y-0.7719 F1000.00
G01 X4.0764 Y-0.7630 F1000.00
G01 X4.0892 Y-0.7553 F1000.00
G01 X4.1028 Y-0.7489 F1000.00
G01 X4.1168 Y-0.7439 F1000.00
G01 X4.1314 Y-0.7403 F1000.00
G01 X4.1462 Y-0.7381 F1000.00
G01 X4.1611 Y-0.7373 F1000.00
G01 X4.1760 Y-0.7381 F1000.00
G01 X4.1908 Y-0.7403 F1000.00
G01 X4.2054 Y-0.7439 F1000.00
G01 X4.2194 Y-0.7489 F1000.00
G01 X4.2330 Y-0.7553 F1000.00
G01 X4.2458 Y-0.7630 F1000.00
G01 X4.2578 Y-0.7719 F1000.00
G01 X4.2689 Y-0.7820 F1000.00
G01 X4.2790 Y-0.7931 F1000.00
G01 X4.2879 Y-0.8051 F1000.00
G01 X4.2956 Y-0.8179 F1000.00
G01 X4.3020 Y-0.8315 F1000.00
G01 X4.3070 Y-0.8455 F1000.00
G01 X4.3106 Y-0.8601 F1000.00
G01 X4.3128 Y-0.8749 F1000.00
G01 X4.3138 Y-0.8939 F1000.00
G01 X4.3138 Y-3.4249 F1000.00
G01 X4.3128 Y-3.4439 F1000.00
G01 X4.3106 Y-3.4588 F1000.00
G01 X4.3070 Y-3.4733 F1000.00
G01 X4.3019 Y-3.4874 F1000.00
G01 X4.2955 Y-3.5009 F1000.00
G01 X4.2878 Y-3.5137 F1000.00
G01 X4.2789 Y-3.5258 F1000.00
G01 X4.2689 Y-3.5368 F1000.00
G01 X4.2578 Y-3.5469 F1000.00
G01 X4.2458 Y-3.5558 F1000.00
G01 X4.2329 Y-3.5635 F1000.00
G01 X4.2194 Y-3.5699 F1000.00
G01 X4.2053 Y-3.5749 F1000.00
G01 X4.1908 Y-3.5785 F1000.00
G01 X4.1760 Y-3.5807 F1000.00
G01 X4.1610 Y-3.5815 F1000.00
G01 X4.1461 Y-3.5807 F1000.00
G01 X4.1312 Y-3.5785 F1000.00
G01 X4.1167 Y-3.5749 F1000.00
G01 X4.1026 Y-3.5698 F1000.00
G01 X4.0891 Y-3.5634 F1000.00
G01 X4.0763 Y-3.5557 F1000.00
G01 X4.0643 Y-3.5468 F1000.00
G01 X4.0532 Y-3.5367 F1000.00
G01 X4.0431 Y-3.5256 F1000.00
G01 X4.0318 Y-3.5103 F1000.00
G01 X2.9204 Y-1.8433 F1000.00
G01 X2.9142 Y-1.8351 F1000.00
G01 X2.9081 Y-1.8280 F1000.00
G01 X2.9020 Y-1.8216 F1000.00
G01 X2.8945 Y-1.8147 F1000.00
G01 X2.8873 Y-1.8087 F1000.00
G01 X2.8802 Y-1.8035 F1000.00
G01 X2.8717 Y-1.7980 F1000.00
G01 X2.8635 Y-1.7933 F1000.00
G01 X2.8556 Y-1.7894 F1000.00
G01 X2.8463 Y-1.7854 F1000.00
G01 X2.8375 Y-1.7822 F1000.00
G01 X2.8290 Y-1.7797 F1000.00
G01 X2.8192 Y-1.7773 F1000.00
G01 X2.8099 Y-1.7757 F1000.00
G01 X2.7993 Y-1.7745 F1000.00
G01 X2.7905 Y-1.7740 F1000.00
G01 X2.7745 Y-1.7744 F1000.00
G01 X2.7589 Y-1.7762 F1000.00
G01 X2.7449 Y-1.7792 F1000.00
G01 X2.7301 Y-1.7837 F1000.00
G01 X2.7158 Y-1.7896 F1000.00
G01 X2.7020 Y-1.7969 F1000.00
G01 X2.6886 Y-1.8057 F1000.00
G01 X2.6774 Y-1.8147 F1000.00
G01 X2.6661 Y-1.8255 F1000.00
G01 X2.6557 Y-1.8377 F1000.00
G01 X2.6468 Y-1.8503 F1000.00
G01 X2.6391 Y-1.8638 F1000.00
G01 X2.6331 Y-1.8768 F1000.00
G01 X2.6278 Y-1.8919 F1000.00
G01 X2.6241 Y-1.9071 F1000.00
G01 X2.6218 Y-1.9222 F1000.00
G01 X2.6210 Y-1.9390 F1000.00
G01 X2.6210 Y-3.4249 F1000.00
G01 X2.6200 Y-3.4439 F1000.00
G01 X2.6178 Y-3.4587 F1000.00
G01 X2.6142 Y-3.4733 F1000.00
G01 X2.6092 Y-3.4873 F1000.00
G01 X2.6028 Y-3.5009 F1000.00
G01 X2.5951 Y-3.5137 F1000.00
G01 X2.5862 Y-3.5257 F1000.00
G01 X2.5761 Y-3.5368 F1000.00
G01 X2.5650 Y-3.5469 F1000.00
G01 X2.5530 Y-3.5558 F1000.00
G01 X2.5402 Y-3.5635 F1000.00
G01 X2.5266 Y-3.5699 F1000.00
G01 X2.5126 Y-3.5749 F1000.00
G01 X2.4980 Y-3.5785 F1000.00
G01 X2.4832 Y-3.5807 F1000.00
G01 X2.4683 Y-3.5815 F1000.00
G01 X2.4534 Y-3.5807 F1000.00
G01 X2.4386 Y-3.5785 F1000.00
G01 X2.4240 Y-3.5749 F1000.00
G01 X2.4100 Y-3.5699 F1000.00
G01 X2.3964 Y-3.5635 F1000.00
G01 X2.3836 Y-3.5558 F1000.00
G01 X2.3716 Y-3.5469 F1000.00
G01 X2.3605 Y-3.5368 F1000.00
G01 X2.3504 Y-3.5257 F1000.00
G01 X2.3415 Y-3.5137 F1000.00
G01 X2.3338 Y-3.5009 F1000.00
G01 X2.3274 Y-3.4873 F1000.00
G01 X2.3224 Y-3.4733 F1000.00
G01 X2.3188 Y-3.4587 F1000.00
G01 X2.3166 Y-3.4439 F1000.00
G01 X2.3156 Y-3.4249 F1000.00
G01 X2.3156 Y-0.8939 F1000.00
G01 X2.3456 Y-0.8946 F1000.00
G01 X2.3465 Y-0.8778 F1000.00
G01 X2.3482 Y-0.8659 F1000.00
G01 X2.3512 Y-0.8542 F1000.00
G01 X2.3552 Y-0.8429 F1000.00
G01 X2.3603 Y-0.8321 F1000.00
G01 X2.3665 Y-0.8218 F1000.00
G01 X2.3737 Y-0.8121 F1000.00
G01 X2.3818 Y-0.8032 F1000.00
G01 X2.3907 Y-0.7951 F1000.00
G01 X2.4003 Y-0.7880 F1000.00
G01 X2.4106 Y-0.7818 F1000.00
G01 X2.4215 Y-0.7767 F1000.00
G01 X2.4328 Y-0.7726 F1000.00
G01 X2.4445 Y-0.7697 F1000.00
G01 X2.4564 Y-0.7680 F1000.00
G01 X2.4684 Y-0.7674 F1000.00
G01 X2.4804 Y-0.7680 F1000.00
G01 X2.4923 Y-0.7697 F1000.00
G01 X2.5039 Y-0.7727 F1000.00
G01 X2.5152 Y-0.7767 F1000.00
G01 X2.5261 Y-0.7819 F1000.00
G01 X2.5364 Y-0.7881 F1000.00
G01 X2.5461 Y-0.7952 F1000.00
G01 X2.5549 Y-0.8033 F1000.00
G01 X2.5630 Y-0.8122 F1000.00
G01 X2.5730 Y-0.8257 F1000.00
G01 X3.6863 Y-2.4953 F1000.00
G01 X3.6933 Y-2.5043 F1000.00
G01 X3.7016 Y-2.5137 F1000.00
G01 X3.7097 Y-2.5218 F1000.00
G01 X3.7191 Y-2.5301 F1000.00
G01 X3.7281 Y-2.5371 F1000.00
G01 X3.7384 Y-2.5442 F1000.00
G01 X3.7482 Y-2.5500 F1000.00
G01 X3.7593 Y-2.5558 F1000.00
G01 X3.7700 Y-2.5605 F1000.00
G01 X3.7817 Y-2.5648 F1000.00
G01 X3.7926 Y-2.5681 F1000.00
G01 X3.8048 Y-2.5710 F1000.00
G01 X3.8161 Y-2.5729 F1000.00
G01 X3.8285 Y-2.5743 F1000.00
G01 X3.8399 Y-2.5748 F1000.00
G01 X3.8524 Y-2.5746 F1000.00
G01 X3.8687 Y-2.5732 F1000.00
G01 X3.8865 Y-2.5700 F1000.00
G01 X3.9035 Y-2.5654 F1000.00
G01 X3.9193 Y-2.5595 F1000.00
G01 X3.9356 Y-2.5517 F1000.00
G01 X3.9506 Y-2.5428 F1000.00
G01 X3.9642 Y-2.5329 F1000.00
G01 X3.9773 Y-2.5216 F1000.00
G01 X3.9889 Y-2.5097 F1000.00
G01 X4.0003 Y-2.4957 F1000.00
G01 X4.0101 Y-2.4812 F1000.00
G01 X4.0181 Y-2.4666 F1000.00
G01 X4.0251 Y-2.4507 F1000.00
G01 X4.0305 Y-2.4351 F1000.00
G01 X4.0346 Y-2.4183 F1000.00
G01 X4.0373 Y-2.4004 F1000.00
G01 X4.0382 Y-2.3901 F1000.00
G01 X4.0384 Y-2.3798 F1000.00
G01 X4.0384 Y-0.8946 F1000.00
G01 X4.0393 Y-0.8778 F1000.00
G01 X4.0410 Y-0.8659 F1000.00
G01 X4.0439 Y-0.8543 F1000.00
G01 X4.0480 Y-0.8430 F1000.00
G01 X4.0531 Y-0.8321 F1000.00
G01 X4.0593 Y-0.8218 F1000.00
G01 X4.0665 Y-0.8121 F1000.00
G01 X4.0745 Y-0.8032 F1000.00
G01 X4.0834 Y-0.7952 F1000.00
G01 X4.0931 Y-0.7880 F1000.00
G01 X4.1034 Y-0.7818 F1000.00
G01 X4.1143 Y-0.7767 F1000.00
G01 X4.1256 Y-0.7726 F1000.00
G01 X4.1372 Y-0.7697 F1000.00
G01 X4.1491 Y-0.7680 F1000.00
G01 X4.1611 Y-0.7674 F1000.00
G01 X4.1731 Y-0.7680 F1000.00
G01 X4.1850 Y-0.7697 F1000.00
G01 X4.1966 Y-0.7726 F1000.00
G01 X4.2079 Y-0.7767 F1000.00
G01 X4.2188 Y-0.7818 F1000.00
G01 X4.2291 Y-0.7880 F1000.00
G01 X4.2388 Y-0.7952 F1000.00
G01 X4.2477 Y-0.8032 F1000.00
G01 X4.2557 Y-0.8121 F1000.00
G01 X4.2629 Y-0.8218 F1000.00
G01 X4.2691 Y-0.8321 F1000.00
G01 X4.2742 Y-0.8430 F1000.00
G01 X4.2783 Y-0.8543 F1000.00
G01 X4.2812 Y-0.8659 F1000.00
G01 X4.2829 Y-0.8778 F1000.00
G01 X4.2838 Y-0.8946 F1000.00
G01 X4.2838 Y-3.4242 F1000.00
G01 X4.2829 Y-3.4410 F1000.00
G01 X4.2812 Y-3.4529 F1000.00
G01 X4.2782 Y-3.4646 F1000.00
G01 X4.2742 Y-3.4759 F1000.00
G01 X4.2691 Y-3.4867 F1000.00
G01 X4.2629 Y-3.4970 F1000.00
G01 X4.2557 Y-3.5067 F1000.00
G01 X4.2476 Y-3.5156 F1000.00
G01 X4.2387 Y-3.5237 F1000.00
G01 X4.2291 Y-3.5308 F1000.00
G01 X4.2188 Y-3.5370 F1000.00
G01 X4.2079 Y-3.5421 F1000.00
G01 X4.1966 Y-3.5462 F1000.00
G01 X4.1849 Y-3.5491 F1000.00
G01 X4.1730 Y-3.5508 F1000.00
G01 X4.1610 Y-3.5514 F1000.00
G01 X4.1490 Y-3.5508 F1000.00
G01 X4.1371 Y-3.5491 F1000.00
G01 X4.1255 Y-3.5461 F1000.00
G01 X4.1142 Y-3.5421 F1000.00
G01 X4.1033 Y-3.5369 F1000.00
G01 X4.0930 Y-3.5307 F1000.00
G01 X4.0833 Y-3.5236 F1000.00
G01 X4.0745 Y-3.5155 F1000.00
G01 X4.0664 Y-3.5066 F1000.00
G01 X4.0564 Y-3.4931 F1000.00
G01 X2.9435 Y-1.8241 F1000.00
G01 X2.9371 Y-1.8157 F1000.00
G01 X2.9298 Y-1.8073 F1000.00
G01 X2.9215 Y-1.7988 F1000.00
G01 X2.9137 Y-1.7917 F1000.00
G01 X2.9051 Y-1.7846 F1000.00
G01 X2.8956 Y-1.7777 F1000.00
G01 X2.8867 Y-1.7720 F1000.00
G01 X2.8768 Y-1.7664 F1000.00
G01 X2.8662 Y-1.7612 F1000.00
G01 X2.8559 Y-1.7569 F1000.00
G01 X2.8460 Y-1.7534 F1000.00
G01 X2.8346 Y-1.7501 F1000.00
G01 X2.8238 Y-1.7477 F1000.00
G01 X2.8132 Y-1.7459 F1000.00
G01 X2.8015 Y-1.7446 F1000.00
G01 X2.7902 Y-1.7440 F1000.00
G01 X2.7721 Y-1.7445 F1000.00
G01 X2.7539 Y-1.7466 F1000.00
G01 X2.7373 Y-1.7501 F1000.00
G01 X2.7198 Y-1.7555 F1000.00
G01 X2.7030 Y-1.7625 F1000.00
G01 X2.6868 Y-1.7710 F1000.00
G01 X2.6725 Y-1.7803 F1000.00
G01 X2.6582 Y-1.7917 F1000.00
G01 X2.6450 Y-1.8042 F1000.00
G01 X2.6330 Y-1.8180 F1000.00
G01 X2.6230 Y-1.8318 F1000.00
G01 X2.6137 Y-1.8476 F1000.00
G01 X2.6060 Y-1.8640 F1000.00
G01 X2.5997 Y-1.8812 F1000.00
G01 X2.5954 Y-1.8977 F1000.00
G01 X2.5923 Y-1.9158 F1000.00
G01 X2.5913 Y-1.9280 F1000.00
G01 X2.5910 Y-1.9389 F1000.00
G01 X2.5910 Y-3.4242 F1000.00
G01 X2.5901 Y-3.4410 F1000.00
G01 X2.5884 Y-3.4529 F1000.00
G01 X2.5855 Y-3.4645 F1000.00
G01 X2.5814 Y-3.4758 F1000.00
G01 X2.5763 Y-3.4867 F1000.00
G01 X2.5701 Y-3.4970 F1000.00
G01 X2.5629 Y-3.5067 F1000.00
G01 X2.5549 Y-3.5156 F1000.00
G01 X2.5460 Y-3.5236 F1000.00
G01 X2.5363 Y-3.5308 F1000.00
G01 X2.5260 Y-3.5370 F1000.00
G01 X2.5151 Y-3.5421 F1000.00
G01 X2.5038 Y-3.5462 F1000.00
G01 X2.4922 Y-3.5491 F1000.00
G01 X2.4803 Y-3.5508 F1000.00
G01 X2.4683 Y-3.5514 F1000.00
G01 X2.4563 Y-3.5508 F1000.00
G01 X2.4444 Y-3.5491 F1000.00
G01 X2.4328 Y-3.5462 F1000.00
G01 X2.4215 Y-3.5421 F1000.00
G01 X2.4106 Y-3.5370 F1000.00
G01 X2.4003 Y-3.5308 F1000.00
G01 X2.3906 Y-3.5236 F1000.00
G01 X2.3817 Y-3.5156 F1000.00
G01 X2.3737 Y-3.5067 F1000.00
G01 X2.3665 Y-3.4970 F1000.00
G01 X2.3603 Y-3.4867 F1000.00
G01 X2.3552 Y-3.4758 F1000.00
G01 X2.3511 Y-3.4645 F1000.00
G01 X2.3482 Y-3.4529 F1000.00
G01 X2.3465 Y-3.4410 F1000.00
G01 X2.3456 Y-3.4242 F1000.00
G01 X2.3456 Y-0.8946 F1000.00
G01 X2.3756 Y-0.8953 F1000.00
G01 X2.3764 Y-0.8807 F1000.00
G01 X2.3777 Y-0.8718 F1000.00
G01 X2.3799 Y-0.8630 F1000.00
G01 X2.3830 Y-0.8544 F1000.00
G01 X2.3868 Y-0.8462 F1000.00
G01 X2.3915 Y-0.8385 F1000.00
G01 X2.3969 Y-0.8312 F1000.00
G01 X2.4030 Y-0.8245 F1000.00
G01 X2.4097 Y-0.8184 F1000.00
G01 X2.4170 Y-0.8130 F1000.00
G01 X2.4248 Y-0.8083 F1000.00
G01 X2.4330 Y-0.8044 F1000.00
G01 X2.4415 Y-0.8014 F1000.00
G01 X2.4503 Y-0.7992 F1000.00
G01 X2.4593 Y-0.7979 F1000.00
G01 X2.4684 Y-0.7974 F1000.00
G01 X2.4774 Y-0.7979 F1000.00
G01 X2.4864 Y-0.7992 F1000.00
G01 X2.4952 Y-0.8014 F1000.00
G01 X2.5037 Y-0.8045 F1000.00
G01 X2.5119 Y-0.8084 F1000.00
G01 X2.5197 Y-0.8130 F1000.00
G01 X2.5270 Y-0.8184 F1000.00
G01 X2.5337 Y-0.8245 F1000.00
G01 X2.5398 Y-0.8313 F1000.00
G01 X2.5485 Y-0.8430 F1000.00
G01 X3.6562 Y-2.5047 F1000.00
G01 X3.6628 Y-2.5140 F1000.00
G01 X3.6717 Y-2.5252 F1000.00
G01 X3.6801 Y-2.5346 F1000.00
G01 X3.6894 Y-2.5438 F1000.00
G01 X3.7002 Y-2.5534 F1000.00
G01 X3.7106 Y-2.5615 F1000.00
G01 X3.7224 Y-2.5695 F1000.00
G01 X3.7338 Y-2.5763 F1000.00
G01 X3.7464 Y-2.5828 F1000.00
G01 X3.7585 Y-2.5882 F1000.00
G01 X3.7720 Y-2.5932 F1000.00
G01 X3.7847 Y-2.5970 F1000.00
G01 X3.7985 Y-2.6003 F1000.00
G01 X3.8117 Y-2.6026 F1000.00
G01 X3.8258 Y-2.6042 F1000.00
G01 X3.8391 Y-2.6048 F1000.00
G01 X3.8525 Y-2.6047 F1000.00
G01 X3.8705 Y-2.6032 F1000.00
G01 X3.8889 Y-2.6002 F1000.00
G01 X3.9074 Y-2.5956 F1000.00
G01 X3.9251 Y-2.5895 F1000.00
G01 X3.9429 Y-2.5817 F1000.00
G01 X3.9587 Y-2.5731 F1000.00
G01 X3.9741 Y-2.5630 F1000.00
G01 X3.9893 Y-2.5512 F1000.00
G01 X4.0028 Y-2.5387 F1000.00
G01 X4.0149 Y-2.5255 F1000.00
G01 X4.0266 Y-2.5105 F1000.00
G01 X4.0369 Y-2.4948 F1000.00
G01 X4.0460 Y-2.4777 F1000.00
G01 X4.0532 Y-2.4613 F1000.00
G01 X4.0591 Y-2.4439 F1000.00
G01 X4.0638 Y-2.4254 F1000.00
G01 X4.0659 Y-2.4138 F1000.00
G01 X4.0673 Y-2.4028 F1000.00
G01 X4.0681 Y-2.3916 F1000.00
G01 X4.0684 Y-2.3803 F1000.00
G01 X4.0684 Y-0.8953 F1000.00
G01 X4.0692 Y-0.8807 F1000.00
G01 X4.0705 Y-0.8718 F1000.00
G01 X4.0727 Y-0.8630 F1000.00
G01 X4.0757 Y-0.8544 F1000.00
G01 X4.0796 Y-0.8462 F1000.00
G01 X4.0843 Y-0.8385 F1000.00
G01 X4.0897 Y-0.8312 F1000.00
G01 X4.0958 Y-0.8245 F1000.00
G01 X4.1025 Y-0.8184 F1000.00
G01 X4.1098 Y-0.8130 F1000.00
G01 X4.1175 Y-0.8083 F1000.00
G01 X4.1257 Y-0.8044 F1000.00
G01 X4.1343 Y-0.8014 F1000.00
G01 X4.1431 Y-0.7992 F1000.00
G01 X4.1520 Y-0.7979 F1000.00
G01 X4.1611 Y-0.7974 F1000.00
G01 X4.1702 Y-0.7979 F1000.00
G01 X4.1791 Y-0.7992 F1000.00
G01 X4.1879 Y-0.8014 F1000.00
G01 X4.1965 Y-0.8044 F1000.00
G01 X4.2047 Y-0.8083 F1000.00
G01 X4.2124 Y-0.8130 F1000.00
G01 X4.2197 Y-0.8184 F1000.00
G01 X4.2264 Y-0.8245 F1000.00
G01 X4.2325 Y-0.8312 F1000.00
G01 X4.2379 Y-0.8385 F1000.00
G01 X4.2426 Y-0.8462 F1000.00
G01 X4.2465 Y-0.8544 F1000.00
G01 X4.2495 Y-0.8630 F1000.00
G01 X4.2517 Y-0.8718 F1000.00
G01 X4.2530 Y-0.8807 F1000.00
G01 X4.2538 Y-0.8953 F1000.00
G01 X4.2538 Y-3.4235 F1000.00
G01 X4.2530 Y-3.4381 F1000.00
G01 X4.2517 Y-3.4470 F1000.00
G01 X4.2495 Y-3.4558 F1000.00
G01 X4.2464 Y-3.4644 F1000.00
G01 X4.2426 Y-3.4726 F1000.00
G01 X4.2379 Y-3.4803 F1000.00
G01 X4.2325 Y-3.4876 F1000.00
G01 X4.2264 Y-3.4943 F1000.00
G01 X4.2197 Y-3.5004 F1000.00
G01 X4.2124 Y-3.5058 F1000.00
G01 X4.2046 Y-3.5105 F1000.00
G01 X4.1964 Y-3.5144 F1000.00
G01 X4.1879 Y-3.5174 F1000.00
G01 X4.1791 Y-3.5196 F1000.00
G01 X4.1701 Y-3.5209 F1000.00
G01 X4.1610 Y-3.5214 F1000.00
G01 X4.1520 Y-3.5209 F1000.00
G01 X4.1430 Y-3.5196 F1000.00
G01 X4.1342 Y-3.5174 F1000.00
G01 X4.1257 Y-3.5143 F1000.00
G01 X4.1175 Y-3.5104 F1000.00
G01 X4.1097 Y-3.5058 F1000.00
G01 X4.1024 Y-3.5004 F1000.00
G01 X4.0957 Y-3.4943 F1000.00
G01 X4.0896 Y-3.4875 F1000.00
G01 X4.0809 Y-3.4758 F1000.00
G01 X2.9732 Y-1.8141 F1000.00
G01 X2.9629 Y-1.8000 F1000.00
G01 X2.9553 Y-1.7908 F1000.00
G01 X2.9462 Y-1.7811 F1000.00
G01 X2.9376 Y-1.7727 F1000.00
G01 X2.9283 Y-1.7647 F1000.00
G01 X2.9187 Y-1.7573 F1000.00
G01 X2.9077 Y-1.7498 F1000.00
G01 X2.8974 Y-1.7435 F1000.00
G01 X2.8865 Y-1.7377 F1000.00
G01 X2.8757 Y-1.7326 F1000.00
G01 X2.8633 Y-1.7277 F1000.00
G01 X2.8518 Y-1.7238 F1000.00
G01 X2.8399 Y-1.7205 F1000.00
G01 X2.8283 Y-1.7180 F1000.00
G01 X2.8150 Y-1.7158 F1000.00
G01 X2.8023 Y-1.7146 F1000.00
G01 X2.7902 Y-1.7140 F1000.00
G01 X2.7709 Y-1.7145 F1000.00
G01 X2.7522 Y-1.7165 F1000.00
G01 X2.7328 Y-1.7203 F1000.00
G01 X2.7147 Y-1.7255 F1000.00
G01 X2.6964 Y-1.7326 F1000.00
G01 X2.6795 Y-1.7407 F1000.00
G01 X2.6624 Y-1.7509 F1000.00
G01 X2.6472 Y-1.7619 F1000.00
G01 X2.6321 Y-1.7748 F1000.00
G01 X2.6190 Y-1.7882 F1000.00
G01 X2.6063 Y-1.8035 F1000.00
G01 X2.5957 Y-1.8188 F1000.00
G01 X2.5858 Y-1.8361 F1000.00
G01 X2.5782 Y-1.8525 F1000.00
G01 X2.5718 Y-1.8700 F1000.00
G01 X2.5665 Y-1.8892 F1000.00
G01 X2.5642 Y-1.9010 F1000.00
G01 X2.5625 Y-1.9131 F1000.00
G01 X2.5613 Y-1.9263 F1000.00
G01 X2.5610 Y-1.9384 F1000.00
G01 X2.5610 Y-3.4235 F1000.00
G01 X2.5602 Y-3.4381 F1000.00
G01 X2.5589 Y-3.4470 F1000.00
G01 X2.5567 Y-3.4558 F1000.00
G01 X2.5537 Y-3.4644 F1000.00
G01 X2.5498 Y-3.4726 F1000.00
G01 X2.5451 Y-3.4803 F1000.00
G01 X2.5397 Y-3.4876 F1000.00
G01 X2.5336 Y-3.4943 F1000.00
G01 X2.5269 Y-3.5004 F1000.00
G01 X2.5196 Y-3.5058 F1000.00
G01 X2.5119 Y-3.5105 F1000.00
G01 X2.5037 Y-3.5144 F1000.00
G01 X2.4951 Y-3.5174 F1000.00
G01 X2.4863 Y-3.5196 F1000.00
G01 X2.4774 Y-3.5209 F1000.00
G01 X2.4683 Y-3.5214 F1000.00
G01 X2.4592 Y-3.5209 F1000.00
G01 X2.4503 Y-3.5196 F1000.00
G01 X2.4415 Y-3.5174 F1000.00
G01 X2.4329 Y-3.5144 F1000.00
G01 X2.4247 Y-3.5105 F1000.00
G01 X2.4170 Y-3.5058 F1000.00
G01 X2.4097 Y-3.5004 F1000.00
G01 X2.4030 Y-3.4943 F1000.00
G01 X2.3969 Y-3.4876 F1000.00
G01 X2.3915 Y-3.4803 F1000.00
G01 X2.3868 Y-3.4726 F1000.00
G01 X2.3829 Y-3.4644 F1000.00
G01 X2.3799 Y-3.4558 F1000.00
G01 X2.3777 Y-3.4470 F1000.00
G01 X2.3764 Y-3.4381 F1000.00
G01 X2.3756 Y-3.4235 F1000.00
G01 X2.3756 Y-0.8953 F1000.00
G01 X2.4056 Y-0.8961 F1000.00
G01 X2.4062 Y-0.8837 F1000.00
G01 X2.4071 Y-0.8776 F1000.00
G01 X2.4086 Y-0.8717 F1000.00
G01 X2.4107 Y-0.8659 F1000.00
G01 X2.4133 Y-0.8604 F1000.00
G01 X2.4165 Y-0.8551 F1000.00
G01 X2.4201 Y-0.8502 F1000.00
G01 X2.4242 Y-0.8457 F1000.00
G01 X2.4288 Y-0.8416 F1000.00
G01 X2.4337 Y-0.8379 F1000.00
G01 X2.4389 Y-0.8348 F1000.00
G01 X2.4445 Y-0.8322 F1000.00
G01 X2.4502 Y-0.8301 F1000.00
G01 X2.4562 Y-0.8286 F1000.00
G01 X2.4622 Y-0.8277 F1000.00
G01 X2.4683 Y-0.8274 F1000.00
G01 X2.4745 Y-0.8278 F1000.00
G01 X2.4805 Y-0.8287 F1000.00
G01 X2.4864 Y-0.8301 F1000.00
G01 X2.4922 Y-0.8322 F1000.00
G01 X2.4977 Y-0.8348 F1000.00
G01 X2.5030 Y-0.8380 F1000.00
G01 X2.5079 Y-0.8416 F1000.00
G01 X2.5124 Y-0.8458 F1000.00
G01 X2.5165 Y-0.8503 F1000.00
G01 X2.5239 Y-0.8603 F1000.00
G01 X3.6313 Y-2.5213 F1000.00
G01 X3.6391 Y-2.5323 F1000.00
G01 X3.6489 Y-2.5447 F1000.00
G01 X3.6589 Y-2.5558 F1000.00
G01 X3.6690 Y-2.5659 F1000.00
G01 X3.6811 Y-2.5765 F1000.00
G01 X3.6929 Y-2.5857 F1000.00
G01 X3.7061 Y-2.5947 F1000.00
G01 X3.7189 Y-2.6024 F1000.00
G01 X3.7326 Y-2.6095 F1000.00
G01 X3.7466 Y-2.6157 F1000.00
G01 X3.7612 Y-2.6212 F1000.00
G01 X3.7749 Y-2.6254 F1000.00
G01 X3.7893 Y-2.6290 F1000.00
G01 X3.8044 Y-2.6318 F1000.00
G01 X3.8194 Y-2.6337 F1000.00
G01 X3.8353 Y-2.6347 F1000.00
G01 X3.8504 Y-2.6347 F1000.00
G01 X3.8726 Y-2.6332 F1000.00
G01 X3.8934 Y-2.6299 F1000.00
G01 X3.9134 Y-2.6250 F1000.00
G01 X3.9346 Y-2.6180 F1000.00
G01 X3.9539 Y-2.6097 F1000.00
G01 X3.9736 Y-2.5991 F1000.00
G01 X3.9914 Y-2.5875 F1000.00
G01 X4.0084 Y-2.5743 F1000.00
G01 X4.0240 Y-2.5600 F1000.00
G01 X4.0379 Y-2.5448 F1000.00
G01 X4.0514 Y-2.5275 F1000.00
G01 X4.0630 Y-2.5095 F1000.00
G01 X4.0733 Y-2.4903 F1000.00
G01 X4.0817 Y-2.4708 F1000.00
G01 X4.0887 Y-2.4498 F1000.00
G01 X4.0936 Y-2.4293 F1000.00
G01 X4.0956 Y-2.4177 F1000.00
G01 X4.0972 Y-2.4052 F1000.00
G01 X4.0981 Y-2.3929 F1000.00
G01 X4.0984 Y-2.3804 F1000.00
G01 X4.0984 Y-0.8961 F1000.00
G01 X4.0990 Y-0.8837 F1000.00
G01 X4.0999 Y-0.8776 F1000.00
G01 X4.1014 Y-0.8717 F1000.00
G01 X4.1035 Y-0.8659 F1000.00
G01 X4.1061 Y-0.8604 F1000.00
G01 X4.1093 Y-0.8552 F1000.00
G01 X4.1129 Y-0.8502 F1000.00
G01 X4.1170 Y-0.8457 F1000.00
G01 X4.1215 Y-0.8416 F1000.00
G01 X4.1265 Y-0.8380 F1000.00
G01 X4.1317 Y-0.8348 F1000.00
G01 X4.1372 Y-0.8322 F1000.00
G01 X4.1430 Y-0.8301 F1000.00
G01 X4.1489 Y-0.8286 F1000.00
G01 X4.1550 Y-0.8277 F1000.00
G01 X4.1611 Y-0.8274 F1000.00
G01 X4.1672 Y-0.8277 F1000.00
G01 X4.1733 Y-0.8286 F1000.00
G01 X4.1792 Y-0.8301 F1000.00
G01 X4.1850 Y-0.8322 F1000.00
G01 X4.1905 Y-0.8348 F1000.00
G01 X4.1957 Y-0.8380 F1000.00
G01 X4.2007 Y-0.8416 F1000.00
G01 X4.2052 Y-0.8457 F1000.00
G01 X4.2093 Y-0.8502 F1000.00
G01 X4.2129 Y-0.8552 F1000.00
G01 X4.2161 Y-0.8604 F1000.00
G01 X4.2187 Y-0.8659 F1000.00
G01 X4.2208 Y-0.8717 F1000.00
G01 X4.2223 Y-0.8776 F1000.00
G01 X4.2232 Y-0.8837 F1000.00
G01 X4.2238 Y-0.8961 F1000.00
G01 X4.2238 Y-3.4227 F1000.00
G01 X4.2232 Y-3.4351 F1000.00
G01 X4.2223 Y-3.4412 F1000.00
G01 X4.2208 Y-3.4471 F1000.00
G01 X4.2187 Y-3.4529 F1000.00
G01 X4.2161 Y-3.4584 F1000.00
G01 X4.2129 Y-3.4637 F1000.00
G01 X4.2093 Y-3.4686 F1000.00
G01 X4.2052 Y-3.4731 F1000.00
G01 X4.2006 Y-3.4772 F1000.00
G01 X4.1957 Y-3.4809 F1000.00
G01 X4.1905 Y-3.4840 F1000.00
G01 X4.1849 Y-3.4866 F1000.00
G01 X4.1792 Y-3.4887 F1000.00
G01 X4.1732 Y-3.4902 F1000.00
G01 X4.1672 Y-3.4911 F1000.00
G01 X4.1611 Y-3.4914 F1000.00
G01 X4.1549 Y-3.4910 F1000.00
G01 X4.1489 Y-3.4901 F1000.00
G01 X4.1430 Y-3.4887 F1000.00
G01 X4.1372 Y-3.4866 F1000.00
G01 X4.1317 Y-3.4840 F1000.00
G01 X4.1264 Y-3.4808 F1000.00
G01 X4.1215 Y-3.4772 F1000.00
G01 X4.1170 Y-3.4730 F1000.00
G01 X4.1129 Y-3.4685 F1000.00
G01 X4.1055 Y-3.4585 F1000.00
G01 X2.9981 Y-1.7975 F1000.00
G01 X2.9875 Y-1.7827 F1000.00
G01 X2.9788 Y-1.7721 F1000.00
G01 X2.9694 Y-1.7619 F1000.00
G01 X2.9588 Y-1.7515 F1000.00
G01 X2.9484 Y-1.7424 F1000.00
G01 X2.9375 Y-1.7339 F1000.00
G01 X2.9262 Y-1.7260 F1000.00
G01 X2.9136 Y-1.7182 F1000.00
G01 X2.9016 Y-1.7117 F1000.00
G01 X2.8890 Y-1.7057 F1000.00
G01 X2.8763 Y-1.7005 F1000.00
G01 X2.8622 Y-1.6956 F1000.00
G01 X2.8491 Y-1.6919 F1000.00
G01 X2.8355 Y-1.6888 F1000.00
G01 X2.8220 Y-1.6865 F1000.00
G01 X2.8089 Y-1.6850 F1000.00
G01 X2.7941 Y-1.6841 F1000.00
G01 X2.7721 Y-1.6843 F1000.00
G01 X2.7497 Y-1.6865 F1000.00
G01 X2.7286 Y-1.6905 F1000.00
G01 X2.7071 Y-1.6965 F1000.00
G01 X2.6869 Y-1.7040 F1000.00
G01 X2.6666 Y-1.7136 F1000.00
G01 X2.6480 Y-1.7245 F1000.00
G01 X2.6297 Y-1.7375 F1000.00
G01 X2.6133 Y-1.7513 F1000.00
G01 X2.5975 Y-1.7672 F1000.00
G01 X2.5837 Y-1.7836 F1000.00
G01 X2.5770 Y-1.7928 F1000.00
G01 X2.5708 Y-1.8022 F1000.00
G01 X2.5601 Y-1.8206 F1000.00
G01 X2.5550 Y-1.8308 F1000.00
G01 X2.5502 Y-1.8417 F1000.00
G01 X2.5462 Y-1.8522 F1000.00
G01 X2.5425 Y-1.8630 F1000.00
G01 X2.5371 Y-1.8835 F1000.00
G01 X2.5345 Y-1.8963 F1000.00
G01 X2.5326 Y-1.9099 F1000.00
G01 X2.5314 Y-1.9245 F1000.00
G01 X2.5310 Y-1.9383 F1000.00
G01 X2.5310 Y-3.4227 F1000.00
G01 X2.5304 Y-3.4351 F1000.00
G01 X2.5295 Y-3.4412 F1000.00
G01 X2.5280 Y-3.4471 F1000.00
G01 X2.5259 Y-3.4529 F1000.00
G01 X2.5233 Y-3.4584 F1000.00
G01 X2.5201 Y-3.4636 F1000.00
G01 X2.5165 Y-3.4686 F1000.00
G01 X2.5124 Y-3.4731 F1000.00
G01 X2.5079 Y-3.4772 F1000.00
G01 X2.5029 Y-3.4808 F1000.00
G01 X2.4977 Y-3.4840 F1000.00
G01 X2.4922 Y-3.4866 F1000.00
G01 X2.4864 Y-3.4887 F1000.00
G01 X2.4805 Y-3.4902 F1000.00
G01 X2.4744 Y-3.4911 F1000.00
G01 X2.4683 Y-3.4914 F1000.00
G01 X2.4622 Y-3.4911 F1000.00
G01 X2.4561 Y-3.4902 F1000.00
G01 X2.4502 Y-3.4887 F1000.00
G01 X2.4444 Y-3.4866 F1000.00
G01 X2.4389 Y-3.4840 F1000.00
G01 X2.4337 Y-3.4808 F1000.00
G01 X2.4287 Y-3.4772 F1000.00
G01 X2.4242 Y-3.4731 F1000.00
G01 X2.4201 Y-3.4686 F1000.00
G01 X2.4165 Y-3.4636 F1000.00
G01 X2.4133 Y-3.4584 F1000.00
G01 X2.4107 Y-3.4529 F1000.00
G01 X2.4086 Y-3.4471 F1000.00
G01 X2.4071 Y-3.4412 F1000.00
G01 X2.4062 Y-3.4351 F1000.00
G01 X2.4056 Y-3.4227 F1000.00
G01 X2.4056 Y-0.8961 F1000.00
G01 X2.4356 Y-0.8968 F1000.00
G01 X2.4366 Y-0.8835 F1000.00
G01 X2.4384 Y-0.8774 F1000.00
G01 X2.4414 Y-0.8718 F1000.00
G01 X2.4455 Y-0.8669 F1000.00
G01 X2.4504 Y-0.8629 F1000.00
G01 X2.4559 Y-0.8599 F1000.00
G01 X2.4620 Y-0.8581 F1000.00
G01 X2.4683 Y-0.8575 F1000.00
G01 X2.4746 Y-0.8581 F1000.00
G01 X2.4807 Y-0.8600 F1000.00
G01 X2.4836 Y-0.8613 F1000.00
G01 X2.4888 Y-0.8648 F1000.00
G01 X2.4912 Y-0.8670 F1000.00
G01 X2.4994 Y-0.8775 F1000.00
G01 X3.6064 Y-2.5380 F1000.00
G01 X3.6141 Y-2.5490 F1000.00
G01 X3.6225 Y-2.5599 F1000.00
G01 X3.6332 Y-2.5723 F1000.00
G01 X3.6449 Y-2.5843 F1000.00
G01 X3.6564 Y-2.5948 F1000.00
G01 X3.6684 Y-2.6048 F1000.00
G01 X3.6810 Y-2.6140 F1000.00
G01 X3.6952 Y-2.6232 F1000.00
G01 X3.7092 Y-2.6312 F1000.00
G01 X3.7231 Y-2.6382 F1000.00
G01 X3.7386 Y-2.6448 F1000.00
G01 X3.7534 Y-2.6502 F1000.00
G01 X3.7689 Y-2.6549 F1000.00
G01 X3.7851 Y-2.6588 F1000.00
G01 X3.8007 Y-2.6616 F1000.00
G01 X3.8165 Y-2.6636 F1000.00
G01 X3.8317 Y-2.6646 F1000.00
G01 X3.8485 Y-2.6648 F1000.00
G01 X3.8598 Y-2.6644 F1000.00
G01 X3.8729 Y-2.6633 F1000.00
G01 X3.8847 Y-2.6618 F1000.00
G01 X3.8972 Y-2.6597 F1000.00
G01 X3.9082 Y-2.6574 F1000.00
G01 X3.9209 Y-2.6541 F1000.00
G01 X3.9323 Y-2.6506 F1000.00
G01 X3.9442 Y-2.6464 F1000.00
G01 X3.9546 Y-2.6423 F1000.00
G01 X3.9663 Y-2.6370 F1000.00
G01 X3.9773 Y-2.6314 F1000.00
G01 X3.9883 Y-2.6253 F1000.00
G01 X4.0084 Y-2.6123 F1000.00
G01 X4.0182 Y-2.6050 F1000.00
G01 X4.0276 Y-2.5973 F1000.00
G01 X4.0364 Y-2.5896 F1000.00
G01 X4.0456 Y-2.5807 F1000.00
G01 X4.0541 Y-2.5718 F1000.00
G01 X4.0624 Y-2.5623 F1000.00
G01 X4.0695 Y-2.5534 F1000.00
G01 X4.0770 Y-2.5432 F1000.00
G01 X4.0838 Y-2.5330 F1000.00
G01 X4.0901 Y-2.5226 F1000.00
G01 X4.1009 Y-2.5021 F1000.00
G01 X4.1060 Y-2.4907 F1000.00
G01 X4.1102 Y-2.4801 F1000.00
G01 X4.1143 Y-2.4686 F1000.00
G01 X4.1178 Y-2.4568 F1000.00
G01 X4.1210 Y-2.4445 F1000.00
G01 X4.1234 Y-2.4330 F1000.00
G01 X4.1255 Y-2.4205 F1000.00
G01 X4.1272 Y-2.4069 F1000.00
G01 X4.1281 Y-2.3935 F1000.00
G01 X4.1284 Y-2.3806 F1000.00
G01 X4.1284 Y-0.8968 F1000.00
G01 X4.1294 Y-0.8835 F1000.00
G01 X4.1312 Y-0.8774 F1000.00
G01 X4.1326 Y-0.8746 F1000.00
G01 X4.1342 Y-0.8718 F1000.00
G01 X4.1382 Y-0.8669 F1000.00
G01 X4.1431 Y-0.8629 F1000.00
G01 X4.1459 Y-0.8613 F1000.00
G01 X4.1517 Y-0.8589 F1000.00
G01 X4.1548 Y-0.8581 F1000.00
G01 X4.1611 Y-0.8575 F1000.00
G01 X4.1643 Y-0.8576 F1000.00
G01 X4.1705 Y-0.8589 F1000.00
G01 X4.1735 Y-0.8599 F1000.00
G01 X4.1791 Y-0.8629 F1000.00
G01 X4.1840 Y-0.8669 F1000.00
G01 X4.1861 Y-0.8693 F1000.00
G01 X4.1896 Y-0.8746 F1000.00
G01 X4.1920 Y-0.8804 F1000.00
G01 X4.1933 Y-0.8866 F1000.00
G01 X4.1938 Y-0.8968 F1000.00
G01 X4.1938 Y-3.4220 F1000.00
G01 X4.1928 Y-3.4353 F1000.00
G01 X4.1920 Y-3.4384 F1000.00
G01 X4.1896 Y-3.4442 F1000.00
G01 X4.1861 Y-3.4495 F1000.00
G01 X4.1839 Y-3.4519 F1000.00
G01 X4.1816 Y-3.4540 F1000.00
G01 X4.1763 Y-3.4575 F1000.00
G01 X4.1705 Y-3.4599 F1000.00
G01 X4.1642 Y-3.4612 F1000.00
G01 X4.1579 Y-3.4612 F1000.00
G01 X4.1517 Y-3.4599 F1000.00
G01 X4.1458 Y-3.4575 F1000.00
G01 X4.1406 Y-3.4540 F1000.00
G01 X4.1361 Y-3.4495 F1000.00
G01 X4.1300 Y-3.4413 F1000.00
G01 X3.0231 Y-1.7809 F1000.00
G01 X3.0119 Y-1.7652 F1000.00
G01 X3.0017 Y-1.7527 F1000.00
G01 X2.9913 Y-1.7413 F1000.00
G01 X2.9793 Y-1.7296 F1000.00
G01 X2.9677 Y-1.7194 F1000.00
G01 X2.9554 Y-1.7098 F1000.00
G01 X2.9427 Y-1.7009 F1000.00
G01 X2.9286 Y-1.6922 F1000.00
G01 X2.9148 Y-1.6847 F1000.00
G01 X2.9008 Y-1.6781 F1000.00
G01 X2.8864 Y-1.6722 F1000.00
G01 X2.8705 Y-1.6668 F1000.00
G01 X2.8550 Y-1.6624 F1000.00
G01 X2.8396 Y-1.6591 F1000.00
G01 X2.8233 Y-1.6564 F1000.00
G01 X2.8078 Y-1.6548 F1000.00
G01 X2.7920 Y-1.6540 F1000.00
G01 X2.7797 Y-1.6540 F1000.00
G01 X2.7671 Y-1.6546 F1000.00
G01 X2.7558 Y-1.6556 F1000.00
G01 X2.7431 Y-1.6572 F1000.00
G01 X2.7309 Y-1.6593 F1000.00
G01 X2.7181 Y-1.6622 F1000.00
G01 X2.7056 Y-1.6655 F1000.00
G01 X2.6945 Y-1.6690 F1000.00
G01 X2.6829 Y-1.6733 F1000.00
G01 X2.6715 Y-1.6780 F1000.00
G01 X2.6600 Y-1.6833 F1000.00
G01 X2.6495 Y-1.6888 F1000.00
G01 X2.6386 Y-1.6950 F1000.00
G01 X2.6274 Y-1.7021 F1000.00
G01 X2.6171 Y-1.7094 F1000.00
G01 X2.6072 Y-1.7170 F1000.00
G01 X2.5981 Y-1.7246 F1000.00
G01 X2.5887 Y-1.7333 F1000.00
G01 X2.5799 Y-1.7421 F1000.00
G01 X2.5713 Y-1.7515 F1000.00
G01 X2.5629 Y-1.7615 F1000.00
G01 X2.5561 Y-1.7705 F1000.00
G01 X2.5488 Y-1.7809 F1000.00
G01 X2.5422 Y-1.7914 F1000.00
G01 X2.5358 Y-1.8025 F1000.00
G01 X2.5305 Y-1.8125 F1000.00
G01 X2.5252 Y-1.8240 F1000.00
G01 X2.5204 Y-1.8354 F1000.00
G01 X2.5161 Y-1.8474 F1000.00
G01 X2.5126 Y-1.8583 F1000.00
G01 X2.5093 Y-1.8703 F1000.00
G01 X2.5066 Y-1.8827 F1000.00
G01 X2.5041 Y-1.8965 F1000.00
G01 X2.5024 Y-1.9103 F1000.00
G01 X2.5013 Y-1.9242 F1000.00
G01 X2.5010 Y-1.9381 F1000.00
G01 X2.5010 Y-3.4220 F1000.00
G01 X2.5000 Y-3.4353 F1000.00
G01 X2.4982 Y-3.4414 F1000.00
G01 X2.4952 Y-3.4470 F1000.00
G01 X2.4912 Y-3.4519 F1000.00
G01 X2.4863 Y-3.4559 F1000.00
G01 X2.4807 Y-3.4589 F1000.00
G01 X2.4746 Y-3.4607 F1000.00
G01 X2.4683 Y-3.4613 F1000.00
G01 X2.4620 Y-3.4607 F1000.00
G01 X2.4559 Y-3.4589 F1000.00
G01 X2.4503 Y-3.4559 F1000.00
G01 X2.4454 Y-3.4519 F1000.00
G01 X2.4414 Y-3.4470 F1000.00
G01 X2.4384 Y-3.4414 F1000.00
G01 X2.4366 Y-3.4353 F1000.00
G01 X2.4356 Y-3.4220 F1000.00
G01 X2.4356 Y-0.8968 F1000.00
G01 X2.4656 Y-0.8975 F1000.00
G01 X2.4661 Y-0.8894 F1000.00
G01 X2.4669 Y-0.8880 F1000.00
G01 X2.4681 Y-0.8875 F1000.00
G01 X2.4699 Y-0.8882 F1000.00
G01 X2.4748 Y-0.8948 F1000.00
G01 X3.5813 Y-2.5546 F1000.00
G01 X3.5955 Y-2.5742 F1000.00
G01 X3.6065 Y-2.5874 F1000.00
G01 X3.6191 Y-2.6010 F1000.00
G01 X3.6320 Y-2.6134 F1000.00
G01 X3.6454 Y-2.6248 F1000.00
G01 X3.6602 Y-2.6360 F1000.00
G01 X3.6751 Y-2.6461 F1000.00
G01 X3.6901 Y-2.6550 F1000.00
G01 X3.7065 Y-2.6635 F1000.00
G01 X3.7222 Y-2.6706 F1000.00
G01 X3.7391 Y-2.6771 F1000.00
G01 X3.7567 Y-2.6827 F1000.00
G01 X3.7737 Y-2.6870 F1000.00
G01 X3.7913 Y-2.6905 F1000.00
G01 X3.8097 Y-2.6930 F1000.00
G01 X3.8271 Y-2.6944 F1000.00
G01 X3.8446 Y-2.6948 F1000.00
G01 X3.8583 Y-2.6945 F1000.00
G01 X3.8722 Y-2.6935 F1000.00
G01 X3.8847 Y-2.6921 F1000.00
G01 X3.8989 Y-2.6899 F1000.00
G01 X3.9127 Y-2.6871 F1000.00
G01 X3.9260 Y-2.6838 F1000.00
G01 X3.9396 Y-2.6798 F1000.00
G01 X3.9518 Y-2.6756 F1000.00
G01 X3.9645 Y-2.6706 F1000.00
G01 X3.9770 Y-2.6651 F1000.00
G01 X3.9895 Y-2.6589 F1000.00
G01 X4.0011 Y-2.6526 F1000.00
G01 X4.0129 Y-2.6454 F1000.00
G01 X4.0250 Y-2.6372 F1000.00
G01 X4.0363 Y-2.6289 F1000.00
G01 X4.0469 Y-2.6203 F1000.00
G01 X4.0568 Y-2.6116 F1000.00
G01 X4.0670 Y-2.6017 F1000.00
G01 X4.0765 Y-2.5918 F1000.00
G01 X4.0857 Y-2.5812 F1000.00
G01 X4.0946 Y-2.5699 F1000.00
G01 X4.1020 Y-2.5597 F1000.00
G01 X4.1098 Y-2.5480 F1000.00
G01 X4.1168 Y-2.5364 F1000.00
G01 X4.1235 Y-2.5241 F1000.00
G01 X4.1291 Y-2.5126 F1000.00
G01 X4.1347 Y-2.4998 F1000.00
G01 X4.1396 Y-2.4870 F1000.00
G01 X4.1441 Y-2.4738 F1000.00
G01 X4.1477 Y-2.4615 F1000.00
G01 X4.1509 Y-2.4482 F1000.00
G01 X4.1537 Y-2.4344 F1000.00
G01 X4.1557 Y-2.4210 F1000.00
G01 X4.1571 Y-2.4085 F1000.00
G01 X4.1581 Y-2.3947 F1000.00
G01 X4.1584 Y-2.3811 F1000.00
G01 X4.1584 Y-0.8975 F1000.00
G01 X4.1590 Y-0.8889 F1000.00
G01 X4.1597 Y-0.8880 F1000.00
G01 X4.1607 Y-0.8876 F1000.00
G01 X4.1618 Y-0.8876 F1000.00
G01 X4.1627 Y-0.8882 F1000.00
G01 X4.1634 Y-0.8896 F1000.00
G01 X4.1638 Y-0.8975 F1000.00
G01 X4.1638 Y-3.4213 F1000.00
G01 X4.1633 Y-3.4294 F1000.00
G01 X4.1622 Y-3.4310 F1000.00
G01 X4.1607 Y-3.4312 F1000.00
G01 X4.1595 Y-3.4306 F1000.00
G01 X4.1546 Y-3.4240 F1000.00
G01 X3.0481 Y-1.7642 F1000.00
G01 X3.0361 Y-1.7475 F1000.00
G01 X3.0250 Y-1.7339 F1000.00
G01 X3.0130 Y-1.7206 F1000.00
G01 X2.9996 Y-1.7075 F1000.00
G01 X2.9864 Y-1.6959 F1000.00
G01 X2.9721 Y-1.6849 F1000.00
G01 X2.9569 Y-1.6744 F1000.00
G01 X2.9418 Y-1.6652 F1000.00
G01 X2.9258 Y-1.6567 F1000.00
G01 X2.9088 Y-1.6489 F1000.00
G01 X2.8920 Y-1.6423 F1000.00
G01 X2.8753 Y-1.6369 F1000.00
G01 X2.8573 Y-1.6322 F1000.00
G01 X2.8397 Y-1.6286 F1000.00
G01 X2.8223 Y-1.6261 F1000.00
G01 X2.8037 Y-1.6245 F1000.00
G01 X2.7858 Y-1.6240 F1000.00
G01 X2.7718 Y-1.6243 F1000.00
G01 X2.7579 Y-1.6252 F1000.00
G01 X2.7451 Y-1.6266 F1000.00
G01 X2.7315 Y-1.6287 F1000.00
G01 X2.7178 Y-1.6314 F1000.00
G01 X2.7043 Y-1.6347 F1000.00
G01 X2.6920 Y-1.6383 F1000.00
G01 X2.6787 Y-1.6428 F1000.00
G01 X2.6660 Y-1.6477 F1000.00
G01 X2.6532 Y-1.6533 F1000.00
G01 X2.6402 Y-1.6597 F1000.00
G01 X2.6291 Y-1.6658 F1000.00
G01 X2.6171 Y-1.6730 F1000.00
G01 X2.6057 Y-1.6807 F1000.00
G01 X2.5943 Y-1.6890 F1000.00
G01 X2.5840 Y-1.6972 F1000.00
G01 X2.5736 Y-1.7063 F1000.00
G01 X2.5630 Y-1.7164 F1000.00
G01 X2.5534 Y-1.7265 F1000.00
G01 X2.5443 Y-1.7369 F1000.00
G01 X2.5362 Y-1.7471 F1000.00
G01 X2.5278 Y-1.7584 F1000.00
G01 X2.5203 Y-1.7698 F1000.00
G01 X2.5131 Y-1.7816 F1000.00
G01 X2.5068 Y-1.7929 F1000.00
G01 X2.5004 Y-1.8059 F1000.00
G01 X2.4948 Y-1.8188 F1000.00
G01 X2.4899 Y-1.8315 F1000.00
G01 X2.4853 Y-1.8449 F1000.00
G01 X2.4818 Y-1.8571 F1000.00
G01 X2.4785 Y-1.8706 F1000.00
G01 X2.4757 Y-1.8843 F1000.00
G01 X2.4737 Y-1.8978 F1000.00
G01 X2.4723 Y-1.9103 F1000.00
G01 X2.4713 Y-1.9241 F1000.00
G01 X2.4710 Y-1.9377 F1000.00
G01 X2.4710 Y-3.4213 F1000.00
G01 X2.4704 Y-3.4299 F1000.00
G01 X2.4697 Y-3.4308 F1000.00
G01 X2.4687 Y-3.4312 F1000.00
G01 X2.4676 Y-3.4312 F1000.00
G01 X2.4667 Y-3.4306 F1000.00
G01 X2.4660 Y-3.4292 F1000.00
G01 X2.4656 Y-3.4213 F1000.00
G01 X2.4656 Y-0.8975 F1000.00
G01 X2.6156 Y-1.5063 F1000.00
G01 X2.6156 Y-1.3764 F1000.00
G01 X2.6877 Y-1.4845 F1000.00
G01 X2.6695 Y-1.4888 F1000.00
G01 X2.6509 Y-1.4940 F1000.00
G01 X2.6328 Y-1.4999 F1000.00
G01 X2.6156 Y-1.5063 F1000.00
G01 X2.5856 Y-1.5528 F1000.00
G01 X2.5856 Y-1.2774 F1000.00
G01 X2.7384 Y-1.5066 F1000.00
G01 X2.7192 Y-1.5091 F1000.00
G01 X2.6988 Y-1.5128 F1000.00
G01 X2.6792 Y-1.5173 F1000.00
G01 X2.6596 Y-1.5227 F1000.00
G01 X2.6406 Y-1.5290 F1000.00
G01 X2.6216 Y-1.5362 F1000.00
G01 X2.6031 Y-1.5443 F1000.00
G01 X2.5856 Y-1.5528 F1000.00
G01 X2.5556 Y-1.6058 F1000.00
G01 X2.5556 Y-1.1783 F1000.00
G01 X2.7928 Y-1.5340 F1000.00
G01 X2.7682 Y-1.5343 F1000.00
G01 X2.7441 Y-1.5361 F1000.00
G01 X2.7195 Y-1.5395 F1000.00
G01 X2.6956 Y-1.5442 F1000.00
G01 X2.6715 Y-1.5505 F1000.00
G01 X2.6485 Y-1.5580 F1000.00
G01 X2.6252 Y-1.5672 F1000.00
G01 X2.6032 Y-1.5775 F1000.00
G01 X2.5789 Y-1.5909 F1000.00
G01 X2.5556 Y-1.6058 F1000.00
G01 X2.5256 Y-1.6690 F1000.00
G01 X2.5256 Y-1.0792 F1000.00
G01 X2.8528 Y-1.5700 F1000.00
G01 X2.8382 Y-1.5676 F1000.00
G01 X2.8226 Y-1.5658 F1000.00
G01 X2.8073 Y-1.5646 F1000.00
G01 X2.7927 Y-1.5640 F1000.00
G01 X2.7775 Y-1.5641 F1000.00
G01 X2.7615 Y-1.5648 F1000.00
G01 X2.7469 Y-1.5660 F1000.00
G01 X2.7316 Y-1.5679 F1000.00
G01 X2.7161 Y-1.5705 F1000.00
G01 X2.7015 Y-1.5736 F1000.00
G01 X2.6866 Y-1.5774 F1000.00
G01 X2.6715 Y-1.5818 F1000.00
G01 X2.6576 Y-1.5866 F1000.00
G01 X2.6431 Y-1.5922 F1000.00
G01 X2.6287 Y-1.5985 F1000.00
G01 X2.6154 Y-1.6050 F1000.00
G01 X2.6029 Y-1.6117 F1000.00
G01 X2.5914 Y-1.6184 F1000.00
G01 X2.5797 Y-1.6258 F1000.00
G01 X2.5684 Y-1.6336 F1000.00
G01 X2.5572 Y-1.6418 F1000.00
G01 X2.5465 Y-1.6504 F1000.00
G01 X2.5356 Y-1.6598 F1000.00
G01 X2.5256 Y-1.6690 F1000.00
G01 X2.4956 Y-1.7526 F1000.00
G01 X2.4956 Y-0.9801 F1000.00
G01 X2.9241 Y-1.6228 F1000.00
G01 X2.9099 Y-1.6170 F1000.00
G01 X2.8957 Y-1.6119 F1000.00
G01 X2.8810 Y-1.6073 F1000.00
G01 X2.8669 Y-1.6036 F1000.00
G01 X2.8520 Y-1.6003 F1000.00
G01 X2.8363 Y-1.5977 F1000.00
G01 X2.8209 Y-1.5957 F1000.00
G01 X2.8056 Y-1.5945 F1000.00
G01 X2.7914 Y-1.5940 F1000.00
G01 X2.7756 Y-1.5941 F1000.00
G01 X2.7601 Y-1.5949 F1000.00
G01 X2.7449 Y-1.5964 F1000.00
G01 X2.7297 Y-1.5986 F1000.00
G01 X2.7157 Y-1.6012 F1000.00
G01 X2.7008 Y-1.6046 F1000.00
G01 X2.6856 Y-1.6089 F1000.00
G01 X2.6710 Y-1.6137 F1000.00
G01 X2.6567 Y-1.6191 F1000.00
G01 X2.6437 Y-1.6247 F1000.00
G01 X2.6297 Y-1.6314 F1000.00
G01 X2.6164 Y-1.6385 F1000.00
G01 X2.6029 Y-1.6465 F1000.00
G01 X2.5899 Y-1.6551 F1000.00
G01 X2.5782 Y-1.6635 F1000.00
G01 X2.5663 Y-1.6729 F1000.00
G01 X2.5547 Y-1.6829 F1000.00
G01 X2.5432 Y-1.6938 F1000.00
G01 X2.5326 Y-1.7048 F1000.00
G01 X2.5230 Y-1.7156 F1000.00
G01 X2.5132 Y-1.7277 F1000.00
G01 X2.5042 Y-1.7398 F1000.00
G01 X2.4956 Y-1.7526 F1000.00
M5
G00 X3.7053 Y-2.6960
G01 F60.00
M03 S250.0
G01 F1000.00
G01 X3.7195 Y-2.7018 F1000.00
G01 X3.7337 Y-2.7069 F1000.00
G01 X3.7484 Y-2.7115 F1000.00
G01 X3.7625 Y-2.7152 F1000.00
G01 X3.7774 Y-2.7185 F1000.00
G01 X3.7931 Y-2.7211 F1000.00
G01 X3.8085 Y-2.7231 F1000.00
G01 X3.8238 Y-2.7243 F1000.00
G01 X3.8380 Y-2.7248 F1000.00
G01 X3.8538 Y-2.7247 F1000.00
G01 X3.8693 Y-2.7239 F1000.00
G01 X3.8845 Y-2.7224 F1000.00
G01 X3.8997 Y-2.7202 F1000.00
G01 X3.9137 Y-2.7176 F1000.00
G01 X3.9286 Y-2.7142 F1000.00
G01 X3.9438 Y-2.7099 F1000.00
G01 X3.9584 Y-2.7051 F1000.00
G01 X3.9727 Y-2.6997 F1000.00
G01 X3.9857 Y-2.6941 F1000.00
G01 X3.9997 Y-2.6874 F1000.00
G01 X4.0130 Y-2.6803 F1000.00
G01 X4.0265 Y-2.6723 F1000.00
G01 X4.0395 Y-2.6637 F1000.00
G01 X4.0512 Y-2.6553 F1000.00
G01 X4.0631 Y-2.6459 F1000.00
G01 X4.0747 Y-2.6359 F1000.00
G01 X4.0862 Y-2.6250 F1000.00
G01 X4.0968 Y-2.6140 F1000.00
G01 X4.1064 Y-2.6032 F1000.00
G01 X4.1162 Y-2.5911 F1000.00
G01 X4.1252 Y-2.5790 F1000.00
G01 X4.1338 Y-2.5662 F1000.00
G01 X4.1338 Y-3.3387 F1000.00
G01 X3.7053 Y-2.6960 F1000.00
G01 X3.7766 Y-2.7488 F1000.00
G01 X3.7898 Y-2.7510 F1000.00
G01 X3.8041 Y-2.7528 F1000.00
G01 X3.8178 Y-2.7540 F1000.00
G01 X3.8316 Y-2.7547 F1000.00
G01 X3.8454 Y-2.7548 F1000.00
G01 X3.8593 Y-2.7545 F1000.00
G01 X3.8725 Y-2.7537 F1000.00
G01 X3.8866 Y-2.7523 F1000.00
G01 X3.9012 Y-2.7504 F1000.00
G01 X3.9168 Y-2.7476 F1000.00
G01 X3.9317 Y-2.7443 F1000.00
G01 X3.9459 Y-2.7406 F1000.00
G01 X3.9604 Y-2.7361 F1000.00
G01 X3.9755 Y-2.7308 F1000.00
G01 X3.9891 Y-2.7254 F1000.00
G01 X4.0032 Y-2.7191 F1000.00
G01 X4.0173 Y-2.7121 F1000.00
G01 X4.0302 Y-2.7050 F1000.00
G01 X4.0434 Y-2.6971 F1000.00
G01 X4.0565 Y-2.6884 F1000.00
G01 X4.0686 Y-2.6797 F1000.00
G01 X4.0806 Y-2.6704 F1000.00
G01 X4.0925 Y-2.6602 F1000.00
G01 X4.1032 Y-2.6503 F1000.00
G01 X4.1037 Y-3.2395 F1000.00
G01 X3.7766 Y-2.7488 F1000.00
G01 X3.8366 Y-2.7848 F1000.00
G01 X3.8640 Y-2.7843 F1000.00
G01 X3.8913 Y-2.7820 F1000.00
G01 X3.9154 Y-2.7784 F1000.00
G01 X3.9398 Y-2.7732 F1000.00
G01 X3.9632 Y-2.7667 F1000.00
G01 X3.9866 Y-2.7587 F1000.00
G01 X4.0091 Y-2.7494 F1000.00
G01 X4.0316 Y-2.7385 F1000.00
G01 X4.0526 Y-2.7267 F1000.00
G01 X4.0729 Y-2.7136 F1000.00
G01 X4.0735 Y-3.1402 F1000.00
G01 X3.8366 Y-2.7848 F1000.00
G01 X3.8910 Y-2.8122 F1000.00
G01 X3.9102 Y-2.8097 F1000.00
G01 X3.9300 Y-2.8061 F1000.00
G01 X3.9497 Y-2.8017 F1000.00
G01 X3.9689 Y-2.7963 F1000.00
G01 X3.9883 Y-2.7900 F1000.00
G01 X4.0069 Y-2.7829 F1000.00
G01 X4.0258 Y-2.7748 F1000.00
G01 X4.0430 Y-2.7664 F1000.00
G01 X4.0434 Y-3.0409 F1000.00
G01 X3.8910 Y-2.8122 F1000.00
G01 X3.9417 Y-2.8343 F1000.00
G01 X3.9593 Y-2.8302 F1000.00
G01 X3.9776 Y-2.8251 F1000.00
G01 X3.9960 Y-2.8191 F1000.00
G01 X4.0130 Y-2.8128 F1000.00
G01 X4.0132 Y-2.9416 F1000.00
G01 X3.9417 Y-2.8343 F1000.00
M5
G00 X5.0348 Y-3.4017
G01 F60.00
M03 S250.0
G01 F1000.00
G01 X5.0348 Y-3.2977 F1000.00
G01 X5.0450 Y-3.3126 F1000.00
G01 X5.0569 Y-3.3283 F1000.00
G01 X5.0689 Y-3.3423 F1000.00
G01 X5.0815 Y-3.3556 F1000.00
G01 X5.0945 Y-3.3679 F1000.00
G01 X5.1085 Y-3.3798 F1000.00
G01 X5.1239 Y-3.3916 F1000.00
G01 X5.1388 Y-3.4017 F1000.00
G01 X5.0348 Y-3.4017 F1000.00
M5
G00 X7.3041 Y-3.4290
G01 F60.00
M03 S250.0
G01 F1000.00
G01 X7.3053 Y-3.4528 F1000.00
G01 X7.3088 Y-3.4763 F1000.00
G01 X7.3146 Y-3.4994 F1000.00
G01 X7.3226 Y-3.5218 F1000.00
G01 X7.3328 Y-3.5433 F1000.00
G01 X7.3450 Y-3.5638 F1000.00
G01 X7.3592 Y-3.5829 F1000.00
G01 X7.3752 Y-3.6005 F1000.00
G01 X7.3928 Y-3.6165 F1000.00
G01 X7.4119 Y-3.6307 F1000.00
G01 X7.4324 Y-3.6429 F1000.00
G01 X7.4539 Y-3.6531 F1000.00
G01 X7.4763 Y-3.6611 F1000.00
G01 X7.4994 Y-3.6669 F1000.00
G01 X7.5229 Y-3.6704 F1000.00
G01 X7.5485 Y-3.6717 F1000.00
G01 X8.3913 Y-3.6717 F1000.00
G01 X8.4169 Y-3.6704 F1000.00
G01 X8.4404 Y-3.6669 F1000.00
G01 X8.4635 Y-3.6611 F1000.00
G01 X8.4859 Y-3.6531 F1000.00
G01 X8.5074 Y-3.6429 F1000.00
G01 X8.5279 Y-3.6307 F1000.00
G01 X8.5470 Y-3.6165 F1000.00
G01 X8.5646 Y-3.6005 F1000.00
G01 X8.5806 Y-3.5829 F1000.00
G01 X8.5948 Y-3.5638 F1000.00
G01 X8.6070 Y-3.5433 F1000.00
G01 X8.6172 Y-3.5218 F1000.00
G01 X8.6252 Y-3.4994 F1000.00
G01 X8.6310 Y-3.4763 F1000.00
G01 X8.6345 Y-3.4528 F1000.00
G01 X8.6357 Y-3.4290 F1000.00
G01 X8.6345 Y-3.4052 F1000.00
G01 X8.6310 Y-3.3817 F1000.00
G01 X8.6252 Y-3.3586 F1000.00
G01 X8.6172 Y-3.3362 F1000.00
G01 X8.6070 Y-3.3147 F1000.00
G01 X8.5948 Y-3.2942 F1000.00
G01 X8.5806 Y-3.2751 F1000.00
G01 X8.5646 Y-3.2575 F1000.00
G01 X8.5470 Y-3.2415 F1000.00
G01 X8.5279 Y-3.2273 F1000.00
G01 X8.5074 Y-3.2151 F1000.00
G01 X8.4859 Y-3.2049 F1000.00
G01 X8.4635 Y-3.1969 F1000.00
G01 X8.4404 Y-3.1911 F1000.00
G01 X8.4169 Y-3.1876 F1000.00
G01 X8.3913 Y-3.1863 F1000.00
G01 X8.2839 Y-3.1863 F1000.00
G01 X8.2729 Y-3.1849 F1000.00
G01 X8.2676 Y-3.1836 F1000.00
G01 X8.2606 Y-3.1813 F1000.00
G01 X8.2506 Y-3.1766 F1000.00
G01 X8.2414 Y-3.1705 F1000.00
G01 X8.2345 Y-3.1644 F1000.00
G01 X8.2273 Y-3.1560 F1000.00
G01 X8.2223 Y-3.1483 F1000.00
G01 X8.2176 Y-3.1383 F1000.00
G01 X8.2144 Y-3.1278 F1000.00
G01 X8.2128 Y-3.1169 F1000.00
G01 X8.2126 Y-1.2075 F1000.00
G01 X8.2129 Y-1.2001 F1000.00
G01 X8.2140 Y-1.1928 F1000.00
G01 X8.2163 Y-1.1839 F1000.00
G01 X8.2206 Y-1.1737 F1000.00
G01 X8.2252 Y-1.1658 F1000.00
G01 X8.2308 Y-1.1585 F1000.00
G01 X8.2386 Y-1.1507 F1000.00
G01 X8.2459 Y-1.1451 F1000.00
G01 X8.2538 Y-1.1405 F1000.00
G01 X8.2640 Y-1.1362 F1000.00
G01 X8.2747 Y-1.1336 F1000.00
G01 X8.2839 Y-1.1325 F1000.00
G01 X8.3913 Y-1.1325 F1000.00
G01 X8.4169 Y-1.1312 F1000.00
G01 X8.4404 Y-1.1277 F1000.00
G01 X8.4635 Y-1.1219 F1000.00
G01 X8.4859 Y-1.1139 F1000.00
G01 X8.5074 Y-1.1037 F1000.00
G01 X8.5279 Y-1.0915 F1000.00
G01 X8.5470 Y-1.0773 F1000.00
G01 X8.5646 Y-1.0613 F1000.00
G01 X8.5806 Y-1.0437 F1000.00
G01 X8.5948 Y-1.0246 F1000.00
G01 X8.6070 Y-1.0041 F1000.00
G01 X8.6172 Y-0.9826 F1000.00
G01 X8.6252 Y-0.9602 F1000.00
G01 X8.6310 Y-0.9371 F1000.00
G01 X8.6345 Y-0.9136 F1000.00
G01 X8.6357 Y-0.8898 F1000.00
G01 X8.6345 Y-0.8660 F1000.00
G01 X8.6310 Y-0.8425 F1000.00
G01 X8.6252 Y-0.8194 F1000.00
G01 X8.6172 Y-0.7970 F1000.00
G01 X8.6070 Y-0.7755 F1000.00
G01 X8.5948 Y-0.7550 F1000.00
G01 X8.5806 Y-0.7359 F1000.00
G01 X8.5646 Y-0.7183 F1000.00
G01 X8.5470 Y-0.7023 F1000.00
G01 X8.5279 Y-0.6881 F1000.00
G01 X8.5074 Y-0.6759 F1000.00
G01 X8.4859 Y-0.6657 F1000.00
G01 X8.4635 Y-0.6577 F1000.00
G01 X8.4404 Y-0.6519 F1000.00
G01 X8.4169 Y-0.6484 F1000.00
G01 X8.3913 Y-0.6471 F1000.00
G01 X7.5485 Y-0.6471 F1000.00
G01 X7.5229 Y-0.6484 F1000.00
G01 X7.4994 Y-0.6519 F1000.00
G01 X7.4763 Y-0.6577 F1000.00
G01 X7.4539 Y-0.6657 F1000.00
G01 X7.4324 Y-0.6759 F1000.00
G01 X7.4119 Y-0.6881 F1000.00
G01 X7.3928 Y-0.7023 F1000.00
G01 X7.3752 Y-0.7183 F1000.00
G01 X7.3592 Y-0.7359 F1000.00
G01 X7.3450 Y-0.7550 F1000.00
G01 X7.3328 Y-0.7755 F1000.00
G01 X7.3226 Y-0.7970 F1000.00
G01 X7.3146 Y-0.8194 F1000.00
G01 X7.3088 Y-0.8425 F1000.00
G01 X7.3053 Y-0.8660 F1000.00
G01 X7.3041 Y-0.8898 F1000.00
G01 X7.3053 Y-0.9136 F1000.00
G01 X7.3088 Y-0.9371 F1000.00
G01 X7.3146 Y-0.9602 F1000.00
G01 X7.3226 Y-0.9826 F1000.00
G01 X7.3328 Y-1.0041 F1000.00
G01 X7.3450 Y-1.0246 F1000.00
G01 X7.3592 Y-1.0437 F1000.00
G01 X7.3752 Y-1.0613 F1000.00
G01 X7.3928 Y-1.0773 F1000.00
G01 X7.4119 Y-1.0915 F1000.00
G01 X7.4324 Y-1.1037 F1000.00
G01 X7.4539 Y-1.1139 F1000.00
G01 X7.4763 Y-1.1219 F1000.00
G01 X7.4994 Y-1.1277 F1000.00
G01 X7.5229 Y-1.1312 F1000.00
G01 X7.5485 Y-1.1325 F1000.00
G01 X7.6559 Y-1.1325 F1000.00
G01 X7.6669 Y-1.1339 F1000.00
G01 X7.6775 Y-1.1368 F1000.00
G01 X7.6876 Y-1.1413 F1000.00
G01 X7.6954 Y-1.1461 F1000.00
G01 X7.7040 Y-1.1531 F1000.00
G01 X7.7102 Y-1.1599 F1000.00
G01 X7.7156 Y-1.1673 F1000.00
G01 X7.7200 Y-1.1754 F1000.00
G01 X7.7235 Y-1.1839 F1000.00
G01 X7.7261 Y-1.1946 F1000.00
G01 X7.7269 Y-1.2001 F1000.00
G01 X7.7272 Y-1.2075 F1000.00
G01 X7.7272 Y-3.1113 F1000.00
G01 X7.7264 Y-3.1223 F1000.00
G01 X7.7240 Y-3.1331 F1000.00
G01 X7.7200 Y-3.1434 F1000.00
G01 X7.7146 Y-3.1530 F1000.00
G01 X7.7114 Y-3.1575 F1000.00
G01 X7.7066 Y-3.1631 F1000.00
G01 X7.6984 Y-3.1705 F1000.00
G01 X7.6892 Y-3.1766 F1000.00
G01 X7.6792 Y-3.1813 F1000.00
G01 X7.6687 Y-3.1845 F1000.00
G01 X7.6614 Y-3.1858 F1000.00
G01 X7.6559 Y-3.1863 F1000.00
G01 X7.5485 Y-3.1863 F1000.00
G01 X7.5229 Y-3.1876 F1000.00
G01 X7.4994 Y-3.1911 F1000.00
G01 X7.4763 Y-3.1969 F1000.00
G01 X7.4539 Y-3.2049 F1000.00
G01 X7.4324 Y-3.2151 F1000.00
G01 X7.4119 Y-3.2273 F1000.00
G01 X7.3928 Y-3.2415 F1000.00
G01 X7.3752 Y-3.2575 F1000.00
G01 X7.3592 Y-3.2751 F1000.00
G01 X7.3450 Y-3.2942 F1000.00
G01 X7.3328 Y-3.3147 F1000.00
G01 X7.3226 Y-3.3362 F1000.00
G01 X7.3146 Y-3.3586 F1000.00
G01 X7.3088 Y-3.3817 F1000.00
G01 X7.3053 Y-3.4052 F1000.00
G01 X7.3041 Y-3.4290 F1000.00
G01 X7.3342 Y-3.4290 F1000.00
G01 X7.3352 Y-3.4498 F1000.00
G01 X7.3383 Y-3.4705 F1000.00
G01 X7.3433 Y-3.4907 F1000.00
G01 X7.3503 Y-3.5103 F1000.00
G01 X7.3593 Y-3.5292 F1000.00
G01 X7.3700 Y-3.5471 F1000.00
G01 X7.3824 Y-3.5638 F1000.00
G01 X7.3964 Y-3.5793 F1000.00
G01 X7.4119 Y-3.5933 F1000.00
G01 X7.4286 Y-3.6057 F1000.00
G01 X7.4465 Y-3.6164 F1000.00
G01 X7.4654 Y-3.6254 F1000.00
G01 X7.4850 Y-3.6324 F1000.00
G01 X7.5052 Y-3.6374 F1000.00
G01 X7.5259 Y-3.6405 F1000.00
G01 X7.5493 Y-3.6417 F1000.00
G01 X8.3905 Y-3.6417 F1000.00
G01 X8.4139 Y-3.6405 F1000.00
G01 X8.4346 Y-3.6374 F1000.00
G01 X8.4548 Y-3.6324 F1000.00
G01 X8.4744 Y-3.6254 F1000.00
G01 X8.4933 Y-3.6164 F1000.00
G01 X8.5112 Y-3.6057 F1000.00
G01 X8.5279 Y-3.5933 F1000.00
G01 X8.5434 Y-3.5793 F1000.00
G01 X8.5574 Y-3.5638 F1000.00
G01 X8.5698 Y-3.5471 F1000.00
G01 X8.5805 Y-3.5292 F1000.00
G01 X8.5895 Y-3.5103 F1000.00
G01 X8.5965 Y-3.4907 F1000.00
G01 X8.6015 Y-3.4705 F1000.00
G01 X8.6046 Y-3.4498 F1000.00
G01 X8.6056 Y-3.4290 F1000.00
G01 X8.6046 Y-3.4082 F1000.00
G01 X8.6015 Y-3.3875 F1000.00
G01 X8.5965 Y-3.3673 F1000.00
G01 X8.5895 Y-3.3477 F1000.00
G01 X8.5805 Y-3.3288 F1000.00
G01 X8.5698 Y-3.3109 F1000.00
G01 X8.5574 Y-3.2942 F1000.00
G01 X8.5434 Y-3.2787 F1000.00
G01 X8.5279 Y-3.2647 F1000.00
G01 X8.5112 Y-3.2523 F1000.00
G01 X8.4933 Y-3.2416 F1000.00
G01 X8.4744 Y-3.2326 F1000.00
G01 X8.4548 Y-3.2256 F1000.00
G01 X8.4346 Y-3.2206 F1000.00
G01 X8.4139 Y-3.2175 F1000.00
G01 X8.3905 Y-3.2163 F1000.00
G01 X8.2820 Y-3.2162 F1000.00
G01 X8.2743 Y-3.2155 F1000.00
G01 X8.2667 Y-3.2142 F1000.00
G01 X8.2592 Y-3.2124 F1000.00
G01 X8.2518 Y-3.2101 F1000.00
G01 X8.2400 Y-3.2050 F1000.00
G01 X8.2339 Y-3.2016 F1000.00
G01 X8.2274 Y-3.1974 F1000.00
G01 X8.2173 Y-3.1894 F1000.00
G01 X8.2078 Y-3.1796 F1000.00
G01 X8.2001 Y-3.1694 F1000.00
G01 X8.1964 Y-3.1634 F1000.00
G01 X8.1928 Y-3.1566 F1000.00
G01 X8.1877 Y-3.1439 F1000.00
G01 X8.1845 Y-3.1315 F1000.00
G01 X8.1830 Y-3.1213 F1000.00
G01 X8.1826 Y-3.1113 F1000.00
G01 X8.1826 Y-1.2075 F1000.00
G01 X8.1828 Y-1.2001 F1000.00
G01 X8.1836 Y-1.1924 F1000.00
G01 X8.1850 Y-1.1848 F1000.00
G01 X8.1888 Y-1.1717 F1000.00
G01 X8.1914 Y-1.1652 F1000.00
G01 X8.1948 Y-1.1583 F1000.00
G01 X8.2019 Y-1.1467 F1000.00
G01 X8.2062 Y-1.1411 F1000.00
G01 X8.2113 Y-1.1353 F1000.00
G01 X8.2212 Y-1.1261 F1000.00
G01 X8.2274 Y-1.1214 F1000.00
G01 X8.2339 Y-1.1172 F1000.00
G01 X8.2400 Y-1.1138 F1000.00
G01 X8.2470 Y-1.1106 F1000.00
G01 X8.2550 Y-1.1076 F1000.00
G01 X8.2642 Y-1.1051 F1000.00
G01 X8.2718 Y-1.1037 F1000.00
G01 X8.2802 Y-1.1027 F1000.00
G01 X8.3905 Y-1.1025 F1000.00
G01 X8.4139 Y-1.1013 F1000.00
G01 X8.4346 Y-1.0982 F1000.00
G01 X8.4548 Y-1.0932 F1000.00
G01 X8.4744 Y-1.0862 F1000.00
G01 X8.4933 Y-1.0772 F1000.00
G01 X8.5112 Y-1.0665 F1000.00
G01 X8.5279 Y-1.0541 F1000.00
G01 X8.5434 Y-1.0401 F1000.00
G01 X8.5574 Y-1.0246 F1000.00
G01 X8.5698 Y-1.0079 F1000.00
G01 X8.5805 Y-0.9900 F1000.00
G01 X8.5895 Y-0.9711 F1000.00
G01 X8.5965 Y-0.9515 F1000.00
G01 X8.6015 Y-0.9313 F1000.00
G01 X8.6046 Y-0.9106 F1000.00
G01 X8.6056 Y-0.8898 F1000.00
G01 X8.6046 Y-0.8690 F1000.00
G01 X8.6015 Y-0.8483 F1000.00
G01 X8.5965 Y-0.8281 F1000.00
G01 X8.5895 Y-0.8085 F1000.00
G01 X8.5805 Y-0.7896 F1000.00
G01 X8.5698 Y-0.7717 F1000.00
G01 X8.5574 Y-0.7550 F1000.00
G01 X8.5434 Y-0.7395 F1000.00
G01 X8.5279 Y-0.7255 F1000.00
G01 X8.5112 Y-0.7131 F1000.00
G01 X8.4933 Y-0.7024 F1000.00
G01 X8.4744 Y-0.6934 F1000.00
G01 X8.4548 Y-0.6864 F1000.00
G01 X8.4346 Y-0.6814 F1000.00
G01 X8.4139 Y-0.6783 F1000.00
G01 X8.3905 Y-0.6771 F1000.00
G01 X7.5493 Y-0.6771 F1000.00
G01 X7.5259 Y-0.6783 F1000.00
G01 X7.5052 Y-0.6814 F1000.00
G01 X7.4850 Y-0.6864 F1000.00
G01 X7.4654 Y-0.6934 F1000.00
G01 X7.4465 Y-0.7024 F1000.00
G01 X7.4286 Y-0.7131 F1000.00
G01 X7.4119 Y-0.7255 F1000.00
G01 X7.3964 Y-0.7395 F1000.00
G01 X7.3824 Y-0.7550 F1000.00
G01 X7.3700 Y-0.7717 F1000.00
G01 X7.3593 Y-0.7896 F1000.00
G01 X7.3503 Y-0.8085 F1000.00
G01 X7.3433 Y-0.8281 F1000.00
G01 X7.3383 Y-0.8483 F1000.00
G01 X7.3352 Y-0.8690 F1000.00
G01 X7.3342 Y-0.8898 F1000.00
G01 X7.3352 Y-0.9106 F1000.00
G01 X7.3383 Y-0.9313 F1000.00
G01 X7.3433 Y-0.9515 F1000.00
G01 X7.3503 Y-0.9711 F1000.00
G01 X7.3593 Y-0.9900 F1000.00
G01 X7.3700 Y-1.0079 F1000.00
G01 X7.3824 Y-1.0246 F1000.00
G01 X7.3964 Y-1.0401 F1000.00
G01 X7.4119 Y-1.0541 F1000.00
G01 X7.4286 Y-1.0665 F1000.00
G01 X7.4465 Y-1.0772 F1000.00
G01 X7.4654 Y-1.0862 F1000.00
G01 X7.4850 Y-1.0932 F1000.00
G01 X7.5052 Y-1.0982 F1000.00
G01 X7.5259 Y-1.1013 F1000.00
G01 X7.5493 Y-1.1025 F1000.00
G01 X7.6596 Y-1.1027 F1000.00
G01 X7.6673 Y-1.1035 F1000.00
G01 X7.6756 Y-1.1051 F1000.00
G01 X7.6848 Y-1.1076 F1000.00
G01 X7.6928 Y-1.1106 F1000.00
G01 X7.6991 Y-1.1135 F1000.00
G01 X7.7059 Y-1.1172 F1000.00
G01 X7.7171 Y-1.1249 F1000.00
G01 X7.7230 Y-1.1299 F1000.00
G01 X7.7280 Y-1.1348 F1000.00
G01 X7.7332 Y-1.1406 F1000.00
G01 X7.7379 Y-1.1467 F1000.00
G01 X7.7450 Y-1.1583 F1000.00
G01 X7.7484 Y-1.1652 F1000.00
G01 X7.7510 Y-1.1717 F1000.00
G01 X7.7548 Y-1.1848 F1000.00
G01 X7.7560 Y-1.1917 F1000.00
G01 X7.7569 Y-1.1994 F1000.00
G01 X7.7572 Y-1.2075 F1000.00
G01 X7.7572 Y-3.1113 F1000.00
G01 X7.7568 Y-3.1213 F1000.00
G01 X7.7553 Y-3.1315 F1000.00
G01 X7.7518 Y-3.1446 F1000.00
G01 X7.7470 Y-3.1566 F1000.00
G01 X7.7408 Y-3.1678 F1000.00
G01 X7.7368 Y-3.1736 F1000.00
G01 X7.7320 Y-3.1796 F1000.00
G01 X7.7230 Y-3.1889 F1000.00
G01 X7.7124 Y-3.1974 F1000.00
G01 X7.7014 Y-3.2041 F1000.00
G01 X7.6945 Y-3.2075 F1000.00
G01 X7.6880 Y-3.2101 F1000.00
G01 X7.6806 Y-3.2124 F1000.00
G01 X7.6731 Y-3.2142 F1000.00
G01 X7.6655 Y-3.2155 F1000.00
G01 X7.6578 Y-3.2162 F1000.00
G01 X7.5493 Y-3.2163 F1000.00
G01 X7.5259 Y-3.2175 F1000.00
G01 X7.5052 Y-3.2206 F1000.00
G01 X7.4850 Y-3.2256 F1000.00
G01 X7.4654 Y-3.2326 F1000.00
G01 X7.4465 Y-3.2416 F1000.00
G01 X7.4286 Y-3.2523 F1000.00
G01 X7.4119 Y-3.2647 F1000.00
G01 X7.3964 Y-3.2787 F1000.00
G01 X7.3824 Y-3.2942 F1000.00
G01 X7.3700 Y-3.3109 F1000.00
G01 X7.3593 Y-3.3288 F1000.00
G01 X7.3503 Y-3.3477 F1000.00
G01 X7.3433 Y-3.3673 F1000.00
G01 X7.3383 Y-3.3875 F1000.00
G01 X7.3352 Y-3.4082 F1000.00
G01 X7.3342 Y-3.4290 F1000.00
G01 X7.3642 Y-3.4290 F1000.00
G01 X7.3651 Y-3.4469 F1000.00
G01 X7.3677 Y-3.4646 F1000.00
G01 X7.3721 Y-3.4820 F1000.00
G01 X7.3781 Y-3.4988 F1000.00
G01 X7.3858 Y-3.5150 F1000.00
G01 X7.3950 Y-3.5304 F1000.00
G01 X7.4056 Y-3.5448 F1000.00
G01 X7.4177 Y-3.5580 F1000.00
G01 X7.4309 Y-3.5701 F1000.00
G01 X7.4453 Y-3.5807 F1000.00
G01 X7.4607 Y-3.5899 F1000.00
G01 X7.4769 Y-3.5976 F1000.00
G01 X7.4937 Y-3.6036 F1000.00
G01 X7.5111 Y-3.6080 F1000.00
G01 X7.5288 Y-3.6106 F1000.00
G01 X7.5500 Y-3.6117 F1000.00
G01 X8.3898 Y-3.6117 F1000.00
G01 X8.4110 Y-3.6106 F1000.00
G01 X8.4287 Y-3.6080 F1000.00
G01 X8.4461 Y-3.6036 F1000.00
G01 X8.4629 Y-3.5976 F1000.00
G01 X8.4791 Y-3.5899 F1000.00
G01 X8.4945 Y-3.5807 F1000.00
G01 X8.5089 Y-3.5701 F1000.00
G01 X8.5221 Y-3.5580 F1000.00
G01 X8.5342 Y-3.5448 F1000.00
G01 X8.5448 Y-3.5304 F1000.00
G01 X8.5540 Y-3.5150 F1000.00
G01 X8.5617 Y-3.4988 F1000.00
G01 X8.5677 Y-3.4820 F1000.00
G01 X8.5721 Y-3.4646 F1000.00
G01 X8.5747 Y-3.4469 F1000.00
G01 X8.5756 Y-3.4290 F1000.00
G01 X8.5747 Y-3.4111 F1000.00
G01 X8.5721 Y-3.3934 F1000.00
G01 X8.5677 Y-3.3760 F1000.00
G01 X8.5617 Y-3.3592 F1000.00
G01 X8.5540 Y-3.3430 F1000.00
G01 X8.5448 Y-3.3276 F1000.00
G01 X8.5342 Y-3.3132 F1000.00
G01 X8.5221 Y-3.3000 F1000.00
G01 X8.5089 Y-3.2879 F1000.00
G01 X8.4945 Y-3.2773 F1000.00
G01 X8.4791 Y-3.2681 F1000.00
G01 X8.4629 Y-3.2604 F1000.00
G01 X8.4461 Y-3.2544 F1000.00
G01 X8.4287 Y-3.2500 F1000.00
G01 X8.4110 Y-3.2474 F1000.00
G01 X8.3898 Y-3.2463 F1000.00
G01 X8.2874 Y-3.2463 F1000.00
G01 X8.2773 Y-3.2459 F1000.00
G01 X8.2652 Y-3.2445 F1000.00
G01 X8.2551 Y-3.2424 F1000.00
G01 X8.2445 Y-3.2393 F1000.00
G01 X8.2335 Y-3.2351 F1000.00
G01 X8.2262 Y-3.2316 F1000.00
G01 X8.2185 Y-3.2273 F1000.00
G01 X8.2119 Y-3.2232 F1000.00
G01 X8.2048 Y-3.2180 F1000.00
G01 X8.1988 Y-3.2131 F1000.00
G01 X8.1924 Y-3.2071 F1000.00
G01 X8.1870 Y-3.2015 F1000.00
G01 X8.1814 Y-3.1947 F1000.00
G01 X8.1768 Y-3.1885 F1000.00
G01 X8.1720 Y-3.1811 F1000.00
G01 X8.1682 Y-3.1743 F1000.00
G01 X8.1643 Y-3.1664 F1000.00
G01 X8.1613 Y-3.1592 F1000.00
G01 X8.1585 Y-3.1509 F1000.00
G01 X8.1564 Y-3.1434 F1000.00
G01 X8.1546 Y-3.1348 F1000.00
G01 X8.1531 Y-3.1238 F1000.00
G01 X8.1526 Y-3.1113 F1000.00
G01 X8.1526 Y-1.2075 F1000.00
G01 X8.1529 Y-1.1979 F1000.00
G01 X8.1539 Y-1.1884 F1000.00
G01 X8.1557 Y-1.1786 F1000.00
G01 X8.1576 Y-1.1707 F1000.00
G01 X8.1606 Y-1.1616 F1000.00
G01 X8.1640 Y-1.1531 F1000.00
G01 X8.1683 Y-1.1441 F1000.00
G01 X8.1731 Y-1.1359 F1000.00
G01 X8.1776 Y-1.1291 F1000.00
G01 X8.1837 Y-1.1212 F1000.00
G01 X8.1900 Y-1.1141 F1000.00
G01 X8.1972 Y-1.1072 F1000.00
G01 X8.2042 Y-1.1013 F1000.00
G01 X8.2119 Y-1.0956 F1000.00
G01 X8.2204 Y-1.0904 F1000.00
G01 X8.2275 Y-1.0865 F1000.00
G01 X8.2386 Y-1.0816 F1000.00
G01 X8.2508 Y-1.0775 F1000.00
G01 X8.2638 Y-1.0746 F1000.00
G01 X8.2751 Y-1.0730 F1000.00
G01 X8.2874 Y-1.0725 F1000.00
G01 X8.3898 Y-1.0725 F1000.00
G01 X8.4110 Y-1.0714 F1000.00
G01 X8.4287 Y-1.0688 F1000.00
G01 X8.4461 Y-1.0644 F1000.00
G01 X8.4629 Y-1.0584 F1000.00
G01 X8.4791 Y-1.0507 F1000.00
G01 X8.4945 Y-1.0415 F1000.00
G01 X8.5089 Y-1.0309 F1000.00
G01 X8.5221 Y-1.0188 F1000.00
G01 X8.5342 Y-1.0056 F1000.00
G01 X8.5448 Y-0.9912 F1000.00
G01 X8.5540 Y-0.9758 F1000.00
G01 X8.5617 Y-0.9596 F1000.00
G01 X8.5677 Y-0.9428 F1000.00
G01 X8.5721 Y-0.9254 F1000.00
G01 X8.5747 Y-0.9077 F1000.00
G01 X8.5756 Y-0.8898 F1000.00
G01 X8.5747 Y-0.8719 F1000.00
G01 X8.5721 Y-0.8542 F1000.00
G01 X8.5677 Y-0.8368 F1000.00
G01 X8.5617 Y-0.8200 F1000.00
G01 X8.5540 Y-0.8038 F1000.00
G01 X8.5448 Y-0.7884 F1000.00
G01 X8.5342 Y-0.7740 F1000.00
G01 X8.5221 Y-0.7608 F1000.00
G01 X8.5089 Y-0.7487 F1000.00
G01 X8.4945 Y-0.7381 F1000.00
G01 X8.4791 Y-0.7289 F1000.00
G01 X8.4629 Y-0.7212 F1000.00
G01 X8.4461 Y-0.7152 F1000.00
G01 X8.4287 Y-0.7108 F1000.00
G01 X8.4110 Y-0.7082 F1000.00
G01 X8.3898 Y-0.7071 F1000.00
G01 X7.5500 Y-0.7071 F1000.00
G01 X7.5288 Y-0.7082 F1000.00
G01 X7.5111 Y-0.7108 F1000.00
G01 X7.4937 Y-0.7152 F1000.00
G01 X7.4769 Y-0.7212 F1000.00
G01 X7.4607 Y-0.7289 F1000.00
G01 X7.4453 Y-0.7381 F1000.00
G01 X7.4309 Y-0.7487 F1000.00
G01 X7.4177 Y-0.7608 F1000.00
G01 X7.4056 Y-0.7740 F1000.00
G01 X7.3950 Y-0.7884 F1000.00
G01 X7.3858 Y-0.8038 F1000.00
G01 X7.3781 Y-0.8200 F1000.00
G01 X7.3721 Y-0.8368 F1000.00
G01 X7.3677 Y-0.8542 F1000.00
G01 X7.3651 Y-0.8719 F1000.00
G01 X7.3642 Y-0.8898 F1000.00
G01 X7.3651 Y-0.9077 F1000.00
G01 X7.3677 Y-0.9254 F1000.00
G01 X7.3721 Y-0.9428 F1000.00
G01 X7.3781 Y-0.9596 F1000.00
G01 X7.3858 Y-0.9758 F1000.00
G01 X7.3950 Y-0.9912 F1000.00
G01 X7.4056 Y-1.0056 F1000.00
G01 X7.4177 Y-1.0188 F1000.00
G01 X7.4309 Y-1.0309 F1000.00
G01 X7.4453 Y-1.0415 F1000.00
G01 X7.4607 Y-1.0507 F1000.00
G01 X7.4769 Y-1.0584 F1000.00
G01 X7.4937 Y-1.0644 F1000.00
G01 X7.5111 Y-1.0688 F1000.00
G01 X7.5288 Y-1.0714 F1000.00
G01 X7.5500 Y-1.0725 F1000.00
G01 X7.6524 Y-1.0725 F1000.00
G01 X7.6625 Y-1.0729 F1000.00
G01 X7.6728 Y-1.0740 F1000.00
G01 X7.6847 Y-1.0764 F1000.00
G01 X7.6953 Y-1.0795 F1000.00
G01 X7.7063 Y-1.0837 F1000.00
G01 X7.7136 Y-1.0872 F1000.00
G01 X7.7213 Y-1.0915 F1000.00
G01 X7.7279 Y-1.0956 F1000.00
G01 X7.7350 Y-1.1008 F1000.00
G01 X7.7410 Y-1.1057 F1000.00
G01 X7.7474 Y-1.1117 F1000.00
G01 X7.7528 Y-1.1173 F1000.00
G01 X7.7584 Y-1.1241 F1000.00
G01 X7.7630 Y-1.1303 F1000.00
G01 X7.7678 Y-1.1377 F1000.00
G01 X7.7716 Y-1.1445 F1000.00
G01 X7.7755 Y-1.1524 F1000.00
G01 X7.7785 Y-1.1596 F1000.00
G01 X7.7813 Y-1.1679 F1000.00
G01 X7.7851 Y-1.1837 F1000.00
G01 X7.7867 Y-1.1950 F1000.00
G01 X7.7872 Y-1.2075 F1000.00
G01 X7.7872 Y-3.1113 F1000.00
G01 X7.7869 Y-3.1209 F1000.00
G01 X7.7859 Y-3.1304 F1000.00
G01 X7.7845 Y-3.1384 F1000.00
G01 X7.7822 Y-3.1481 F1000.00
G01 X7.7792 Y-3.1572 F1000.00
G01 X7.7755 Y-3.1664 F1000.00
G01 X7.7715 Y-3.1747 F1000.00
G01 X7.7667 Y-3.1829 F1000.00
G01 X7.7622 Y-3.1897 F1000.00
G01 X7.7561 Y-3.1976 F1000.00
G01 X7.7498 Y-3.2047 F1000.00
G01 X7.7432 Y-3.2111 F1000.00
G01 X7.7356 Y-3.2175 F1000.00
G01 X7.7279 Y-3.2232 F1000.00
G01 X7.7210 Y-3.2275 F1000.00
G01 X7.7123 Y-3.2323 F1000.00
G01 X7.7005 Y-3.2374 F1000.00
G01 X7.6890 Y-3.2413 F1000.00
G01 X7.6760 Y-3.2442 F1000.00
G01 X7.6647 Y-3.2458 F1000.00
G01 X7.6524 Y-3.2463 F1000.00
G01 X7.5500 Y-3.2463 F1000.00
G01 X7.5288 Y-3.2474 F1000.00
G01 X7.5111 Y-3.2500 F1000.00
G01 X7.4937 Y-3.2544 F1000.00
G01 X7.4769 Y-3.2604 F1000.00
G01 X7.4607 Y-3.2681 F1000.00
G01 X7.4453 Y-3.2773 F1000.00
G01 X7.4309 Y-3.2879 F1000.00
G01 X7.4177 Y-3.3000 F1000.00
G01 X7.4056 Y-3.3132 F1000.00
G01 X7.3950 Y-3.3276 F1000.00
G01 X7.3858 Y-3.3430 F1000.00
G01 X7.3781 Y-3.3592 F1000.00
G01 X7.3721 Y-3.3760 F1000.00
G01 X7.3677 Y-3.3934 F1000.00
G01 X7.3651 Y-3.4111 F1000.00
G01 X7.3642 Y-3.4290 F1000.00
G01 X7.3942 Y-3.4290 F1000.00
G01 X7.3950 Y-3.4439 F1000.00
G01 X7.3972 Y-3.4587 F1000.00
G01 X7.4008 Y-3.4733 F1000.00
G01 X7.4058 Y-3.4873 F1000.00
G01 X7.4122 Y-3.5009 F1000.00
G01 X7.4199 Y-3.5137 F1000.00
G01 X7.4288 Y-3.5257 F1000.00
G01 X7.4389 Y-3.5368 F1000.00
G01 X7.4500 Y-3.5469 F1000.00
G01 X7.4620 Y-3.5558 F1000.00
G01 X7.4748 Y-3.5635 F1000.00
G01 X7.4884 Y-3.5699 F1000.00
G01 X7.5024 Y-3.5749 F1000.00
G01 X7.5170 Y-3.5785 F1000.00
G01 X7.5318 Y-3.5807 F1000.00
G01 X7.5508 Y-3.5817 F1000.00
G01 X8.3890 Y-3.5817 F1000.00
G01 X8.4080 Y-3.5807 F1000.00
G01 X8.4228 Y-3.5785 F1000.00
G01 X8.4374 Y-3.5749 F1000.00
G01 X8.4514 Y-3.5699 F1000.00
G01 X8.4650 Y-3.5635 F1000.00
G01 X8.4778 Y-3.5558 F1000.00
G01 X8.4898 Y-3.5469 F1000.00
G01 X8.5009 Y-3.5368 F1000.00
G01 X8.5110 Y-3.5257 F1000.00
G01 X8.5199 Y-3.5137 F1000.00
G01 X8.5276 Y-3.5009 F1000.00
G01 X8.5340 Y-3.4873 F1000.00
G01 X8.5390 Y-3.4733 F1000.00
G01 X8.5426 Y-3.4587 F1000.00
G01 X8.5448 Y-3.4439 F1000.00
G01 X8.5456 Y-3.4290 F1000.00
G01 X8.5448 Y-3.4141 F1000.00
G01 X8.5426 Y-3.3993 F1000.00
G01 X8.5390 Y-3.3847 F1000.00
G01 X8.5340 Y-3.3707 F1000.00
G01 X8.5276 Y-3.3571 F1000.00
G01 X8.5199 Y-3.3443 F1000.00
G01 X8.5110 Y-3.3323 F1000.00
G01 X8.5009 Y-3.3212 F1000.00
G01 X8.4898 Y-3.3111 F1000.00
G01 X8.4778 Y-3.3022 F1000.00
G01 X8.4650 Y-3.2945 F1000.00
G01 X8.4514 Y-3.2881 F1000.00
G01 X8.4374 Y-3.2831 F1000.00
G01 X8.4228 Y-3.2795 F1000.00
G01 X8.4080 Y-3.2773 F1000.00
G01 X8.3890 Y-3.2763 F1000.00
G01 X8.2865 Y-3.2763 F1000.00
G01 X8.2765 Y-3.2760 F1000.00
G01 X8.2677 Y-3.2751 F1000.00
G01 X8.2518 Y-3.2724 F1000.00
G01 X8.2362 Y-3.2681 F1000.00
G01 X8.2210 Y-3.2623 F1000.00
G01 X8.2067 Y-3.2552 F1000.00
G01 X8.1985 Y-3.2502 F1000.00
G01 X8.1902 Y-3.2445 F1000.00
G01 X8.1826 Y-3.2387 F1000.00
G01 X8.1759 Y-3.2329 F1000.00
G01 X8.1687 Y-3.2258 F1000.00
G01 X8.1623 Y-3.2187 F1000.00
G01 X8.1557 Y-3.2105 F1000.00
G01 X8.1502 Y-3.2027 F1000.00
G01 X8.1455 Y-3.1952 F1000.00
G01 X8.1403 Y-3.1859 F1000.00
G01 X8.1363 Y-3.1774 F1000.00
G01 X8.1325 Y-3.1678 F1000.00
G01 X8.1294 Y-3.1584 F1000.00
G01 X8.1268 Y-3.1486 F1000.00
G01 X8.1249 Y-3.1392 F1000.00
G01 X8.1237 Y-3.1304 F1000.00
G01 X8.1228 Y-3.1204 F1000.00
G01 X8.1226 Y-3.1113 F1000.00
G01 X8.1228 Y-1.1988 F1000.00
G01 X8.1237 Y-1.1882 F1000.00
G01 X8.1252 Y-1.1782 F1000.00
G01 X8.1276 Y-1.1670 F1000.00
G01 X8.1306 Y-1.1566 F1000.00
G01 X8.1340 Y-1.1472 F1000.00
G01 X8.1382 Y-1.1372 F1000.00
G01 X8.1435 Y-1.1271 F1000.00
G01 X8.1485 Y-1.1187 F1000.00
G01 X8.1545 Y-1.1099 F1000.00
G01 X8.1607 Y-1.1019 F1000.00
G01 X8.1683 Y-1.0934 F1000.00
G01 X8.1761 Y-1.0858 F1000.00
G01 X8.1837 Y-1.0792 F1000.00
G01 X8.1929 Y-1.0723 F1000.00
G01 X8.2019 Y-1.0664 F1000.00
G01 X8.2108 Y-1.0614 F1000.00
G01 X8.2249 Y-1.0548 F1000.00
G01 X8.2400 Y-1.0495 F1000.00
G01 X8.2550 Y-1.0457 F1000.00
G01 X8.2708 Y-1.0433 F1000.00
G01 X8.2868 Y-1.0425 F1000.00
G01 X8.3890 Y-1.0425 F1000.00
G01 X8.4080 Y-1.0415 F1000.00
G01 X8.4228 Y-1.0393 F1000.00
G01 X8.4374 Y-1.0357 F1000.00
G01 X8.4514 Y-1.0307 F1000.00
G01 X8.4650 Y-1.0243 F1000.00
G01 X8.4778 Y-1.0166 F1000.00
G01 X8.4898 Y-1.0077 F1000.00
G01 X8.5009 Y-0.9976 F1000.00
G01 X8.5110 Y-0.9865 F1000.00
G01 X8.5199 Y-0.9745 F1000.00
G01 X8.5276 Y-0.9617 F1000.00
G01 X8.5340 Y-0.9481 F1000.00
G01 X8.5390 Y-0.9341 F1000.00
G01 X8.5426 Y-0.9195 F1000.00
G01 X8.5448 Y-0.9047 F1000.00
G01 X8.5456 Y-0.8898 F1000.00
G01 X8.5448 Y-0.8749 F1000.00
G01 X8.5426 Y-0.8601 F1000.00
G01 X8.5390 Y-0.8455 F1000.00
G01 X8.5340 Y-0.8315 F1000.00
G01 X8.5276 Y-0.8179 F1000.00
G01 X8.5199 Y-0.8051 F1000.00
G01 X8.5110 Y-0.7931 F1000.00
G01 X8.5009 Y-0.7820 F1000.00
G01 X8.4898 Y-0.7719 F1000.00
G01 X8.4778 Y-0.7630 F1000.00
G01 X8.4650 Y-0.7553 F1000.00
G01 X8.4514 Y-0.7489 F1000.00
G01 X8.4374 Y-0.7439 F1000.00
G01 X8.4228 Y-0.7403 F1000.00
G01 X8.4080 Y-0.7381 F1000.00
G01 X8.3890 Y-0.7371 F1000.00
G01 X7.5508 Y-0.7371 F1000.00
G01 X7.5318 Y-0.7381 F1000.00
G01 X7.5170 Y-0.7403 F1000.00
G01 X7.5024 Y-0.7439 F1000.00
G01 X7.4884 Y-0.7489 F1000.00
G01 X7.4748 Y-0.7553 F1000.00
G01 X7.4620 Y-0.7630 F1000.00
G01 X7.4500 Y-0.7719 F1000.00
G01 X7.4389 Y-0.7820 F1000.00
G01 X7.4288 Y-0.7931 F1000.00
G01 X7.4199 Y-0.8051 F1000.00
G01 X7.4122 Y-0.8179 F1000.00
G01 X7.4058 Y-0.8315 F1000.00
G01 X7.4008 Y-0.8455 F1000.00
G01 X7.3972 Y-0.8601 F1000.00
G01 X7.3950 Y-0.8749 F1000.00
G01 X7.3942 Y-0.8898 F1000.00
G01 X7.3950 Y-0.9047 F1000.00
G01 X7.3972 Y-0.9195 F1000.00
G01 X7.4008 Y-0.9341 F1000.00
G01 X7.4058 Y-0.9481 F1000.00
G01 X7.4122 Y-0.9617 F1000.00
G01 X7.4199 Y-0.9745 F1000.00
G01 X7.4288 Y-0.9865 F1000.00
G01 X7.4389 Y-0.9976 F1000.00
G01 X7.4500 Y-1.0077 F1000.00
G01 X7.4620 Y-1.0166 F1000.00
G01 X7.4748 Y-1.0243 F1000.00
G01 X7.4884 Y-1.0307 F1000.00
G01 X7.5024 Y-1.0357 F1000.00
G01 X7.5170 Y-1.0393 F1000.00
G01 X7.5318 Y-1.0415 F1000.00
G01 X7.5508 Y-1.0425 F1000.00
G01 X7.6530 Y-1.0425 F1000.00
G01 X7.6690 Y-1.0433 F1000.00
G01 X7.6848 Y-1.0457 F1000.00
G01 X7.6998 Y-1.0495 F1000.00
G01 X7.7149 Y-1.0548 F1000.00
G01 X7.7290 Y-1.0614 F1000.00
G01 X7.7379 Y-1.0664 F1000.00
G01 X7.7469 Y-1.0723 F1000.00
G01 X7.7561 Y-1.0792 F1000.00
G01 X7.7635 Y-1.0856 F1000.00
G01 X7.7711 Y-1.0930 F1000.00
G01 X7.7779 Y-1.1005 F1000.00
G01 X7.7850 Y-1.1095 F1000.00
G01 X7.7911 Y-1.1184 F1000.00
G01 X7.7963 Y-1.1269 F1000.00
G01 X7.8012 Y-1.1366 F1000.00
G01 X7.8058 Y-1.1470 F1000.00
G01 X7.8092 Y-1.1566 F1000.00
G01 X7.8122 Y-1.1670 F1000.00
G01 X7.8146 Y-1.1782 F1000.00
G01 X7.8161 Y-1.1878 F1000.00
G01 X7.8170 Y-1.1984 F1000.00
G01 X7.8172 Y-3.1113 F1000.00
G01 X7.8170 Y-3.1204 F1000.00
G01 X7.8161 Y-3.1304 F1000.00
G01 X7.8147 Y-3.1399 F1000.00
G01 X7.8130 Y-3.1486 F1000.00
G01 X7.8103 Y-3.1587 F1000.00
G01 X7.8072 Y-3.1680 F1000.00
G01 X7.8035 Y-3.1774 F1000.00
G01 X7.7994 Y-3.1860 F1000.00
G01 X7.7942 Y-3.1954 F1000.00
G01 X7.7889 Y-3.2038 F1000.00
G01 X7.7829 Y-3.2121 F1000.00
G01 X7.7768 Y-3.2195 F1000.00
G01 X7.7697 Y-3.2272 F1000.00
G01 X7.7628 Y-3.2338 F1000.00
G01 X7.7546 Y-3.2407 F1000.00
G01 X7.7475 Y-3.2460 F1000.00
G01 X7.7396 Y-3.2513 F1000.00
G01 X7.7305 Y-3.2566 F1000.00
G01 X7.7159 Y-3.2636 F1000.00
G01 X7.7012 Y-3.2689 F1000.00
G01 X7.6873 Y-3.2726 F1000.00
G01 X7.6715 Y-3.2752 F1000.00
G01 X7.6633 Y-3.2760 F1000.00
G01 X7.6533 Y-3.2763 F1000.00
G01 X7.5508 Y-3.2763 F1000.00
G01 X7.5318 Y-3.2773 F1000.00
G01 X7.5170 Y-3.2795 F1000.00
G01 X7.5024 Y-3.2831 F1000.00
G01 X7.4884 Y-3.2881 F1000.00
G01 X7.4748 Y-3.2945 F1000.00
G01 X7.4620 Y-3.3022 F1000.00
G01 X7.4500 Y-3.3111 F1000.00
G01 X7.4389 Y-3.3212 F1000.00
G01 X7.4288 Y-3.3323 F1000.00
G01 X7.4199 Y-3.3443 F1000.00
G01 X7.4122 Y-3.3571 F1000.00
G01 X7.4058 Y-3.3707 F1000.00
G01 X7.4008 Y-3.3847 F1000.00
G01 X7.3972 Y-3.3993 F1000.00
G01 X7.3950 Y-3.4141 F1000.00
G01 X7.3942 Y-3.4290 F1000.00
G01 X7.4243 Y-3.4290 F1000.00
G01 X7.4249 Y-3.4410 F1000.00
G01 X7.4266 Y-3.4529 F1000.00
G01 X7.4295 Y-3.4645 F1000.00
G01 X7.4336 Y-3.4758 F1000.00
G01 X7.4387 Y-3.4867 F1000.00
G01 X7.4449 Y-3.4970 F1000.00
G01 X7.4521 Y-3.5067 F1000.00
G01 X7.4601 Y-3.5156 F1000.00
G01 X7.4690 Y-3.5236 F1000.00
G01 X7.4787 Y-3.5308 F1000.00
G01 X7.4890 Y-3.5370 F1000.00
G01 X7.4999 Y-3.5421 F1000.00
G01 X7.5112 Y-3.5462 F1000.00
G01 X7.5228 Y-3.5491 F1000.00
G01 X7.5347 Y-3.5508 F1000.00
G01 X7.5515 Y-3.5517 F1000.00
G01 X8.3883 Y-3.5517 F1000.00
G01 X8.4051 Y-3.5508 F1000.00
G01 X8.4170 Y-3.5491 F1000.00
G01 X8.4286 Y-3.5462 F1000.00
G01 X8.4399 Y-3.5421 F1000.00
G01 X8.4508 Y-3.5370 F1000.00
G01 X8.4611 Y-3.5308 F1000.00
G01 X8.4708 Y-3.5236 F1000.00
G01 X8.4797 Y-3.5156 F1000.00
G01 X8.4877 Y-3.5067 F1000.00
G01 X8.4949 Y-3.4970 F1000.00
G01 X8.5011 Y-3.4867 F1000.00
G01 X8.5062 Y-3.4758 F1000.00
G01 X8.5103 Y-3.4645 F1000.00
G01 X8.5132 Y-3.4529 F1000.00
G01 X8.5149 Y-3.4410 F1000.00
G01 X8.5155 Y-3.4290 F1000.00
G01 X8.5149 Y-3.4170 F1000.00
G01 X8.5132 Y-3.4051 F1000.00
G01 X8.5103 Y-3.3935 F1000.00
G01 X8.5062 Y-3.3822 F1000.00
G01 X8.5011 Y-3.3713 F1000.00
G01 X8.4949 Y-3.3610 F1000.00
G01 X8.4877 Y-3.3513 F1000.00
G01 X8.4797 Y-3.3424 F1000.00
G01 X8.4708 Y-3.3344 F1000.00
G01 X8.4611 Y-3.3272 F1000.00
G01 X8.4508 Y-3.3210 F1000.00
G01 X8.4399 Y-3.3159 F1000.00
G01 X8.4286 Y-3.3118 F1000.00
G01 X8.4170 Y-3.3089 F1000.00
G01 X8.4051 Y-3.3072 F1000.00
G01 X8.3883 Y-3.3063 F1000.00
G01 X8.2865 Y-3.3063 F1000.00
G01 X8.2673 Y-3.3053 F1000.00
G01 X8.2499 Y-3.3027 F1000.00
G01 X8.2323 Y-3.2983 F1000.00
G01 X8.2163 Y-3.2928 F1000.00
G01 X8.2002 Y-3.2857 F1000.00
G01 X8.1904 Y-3.2804 F1000.00
G01 X8.1804 Y-3.2742 F1000.00
G01 X8.1711 Y-3.2677 F1000.00
G01 X8.1628 Y-3.2612 F1000.00
G01 X8.1539 Y-3.2533 F1000.00
G01 X8.1460 Y-3.2455 F1000.00
G01 X8.1389 Y-3.2376 F1000.00
G01 X8.1313 Y-3.2280 F1000.00
G01 X8.1248 Y-3.2188 F1000.00
G01 X8.1186 Y-3.2087 F1000.00
G01 X8.1135 Y-3.1993 F1000.00
G01 X8.1088 Y-3.1894 F1000.00
G01 X8.1044 Y-3.1783 F1000.00
G01 X8.1011 Y-3.1683 F1000.00
G01 X8.0981 Y-3.1576 F1000.00
G01 X8.0956 Y-3.1459 F1000.00
G01 X8.0934 Y-3.1293 F1000.00
G01 X8.0926 Y-3.1115 F1000.00
G01 X8.0926 Y-1.2073 F1000.00
G01 X8.0929 Y-1.1965 F1000.00
G01 X8.0939 Y-1.1850 F1000.00
G01 X8.0954 Y-1.1746 F1000.00
G01 X8.0974 Y-1.1643 F1000.00
G01 X8.1000 Y-1.1541 F1000.00
G01 X8.1035 Y-1.1431 F1000.00
G01 X8.1072 Y-1.1333 F1000.00
G01 X8.1115 Y-1.1237 F1000.00
G01 X8.1162 Y-1.1143 F1000.00
G01 X8.1221 Y-1.1043 F1000.00
G01 X8.1279 Y-1.0956 F1000.00
G01 X8.1342 Y-1.0870 F1000.00
G01 X8.1409 Y-1.0790 F1000.00
G01 X8.1488 Y-1.0704 F1000.00
G01 X8.1563 Y-1.0632 F1000.00
G01 X8.1644 Y-1.0563 F1000.00
G01 X8.1742 Y-1.0488 F1000.00
G01 X8.1835 Y-1.0425 F1000.00
G01 X8.1943 Y-1.0362 F1000.00
G01 X8.2039 Y-1.0313 F1000.00
G01 X8.2142 Y-1.0268 F1000.00
G01 X8.2260 Y-1.0224 F1000.00
G01 X8.2369 Y-1.0192 F1000.00
G01 X8.2488 Y-1.0164 F1000.00
G01 X8.2649 Y-1.0138 F1000.00
G01 X8.2820 Y-1.0125 F1000.00
G01 X8.3883 Y-1.0125 F1000.00
G01 X8.4051 Y-1.0116 F1000.00
G01 X8.4170 Y-1.0099 F1000.00
G01 X8.4286 Y-1.0070 F1000.00
G01 X8.4399 Y-1.0029 F1000.00
G01 X8.4508 Y-0.9978 F1000.00
G01 X8.4611 Y-0.9916 F1000.00
G01 X8.4708 Y-0.9844 F1000.00
G01 X8.4797 Y-0.9764 F1000.00
G01 X8.4877 Y-0.9675 F1000.00
G01 X8.4949 Y-0.9578 F1000.00
G01 X8.5011 Y-0.9475 F1000.00
G01 X8.5062 Y-0.9366 F1000.00
G01 X8.5103 Y-0.9253 F1000.00
G01 X8.5132 Y-0.9137 F1000.00
G01 X8.5149 Y-0.9018 F1000.00
G01 X8.5155 Y-0.8898 F1000.00
G01 X8.5149 Y-0.8778 F1000.00
G01 X8.5132 Y-0.8659 F1000.00
G01 X8.5103 Y-0.8543 F1000.00
G01 X8.5062 Y-0.8430 F1000.00
G01 X8.5011 Y-0.8321 F1000.00
G01 X8.4949 Y-0.8218 F1000.00
G01 X8.4877 Y-0.8121 F1000.00
G01 X8.4797 Y-0.8032 F1000.00
G01 X8.4708 Y-0.7952 F1000.00
G01 X8.4611 Y-0.7880 F1000.00
G01 X8.4508 Y-0.7818 F1000.00
G01 X8.4399 Y-0.7767 F1000.00
G01 X8.4286 Y-0.7726 F1000.00
G01 X8.4170 Y-0.7697 F1000.00
G01 X8.4051 Y-0.7680 F1000.00
G01 X8.3883 Y-0.7671 F1000.00
G01 X7.5515 Y-0.7671 F1000.00
G01 X7.5347 Y-0.7680 F1000.00
G01 X7.5228 Y-0.7697 F1000.00
G01 X7.5112 Y-0.7726 F1000.00
G01 X7.4999 Y-0.7767 F1000.00
G01 X7.4890 Y-0.7818 F1000.00
G01 X7.4787 Y-0.7880 F1000.00
G01 X7.4690 Y-0.7952 F1000.00
G01 X7.4601 Y-0.8032 F1000.00
G01 X7.4521 Y-0.8121 F1000.00
G01 X7.4449 Y-0.8218 F1000.00
G01 X7.4387 Y-0.8321 F1000.00
G01 X7.4336 Y-0.8430 F1000.00
G01 X7.4295 Y-0.8543 F1000.00
G01 X7.4266 Y-0.8659 F1000.00
G01 X7.4249 Y-0.8778 F1000.00
G01 X7.4243 Y-0.8898 F1000.00
G01 X7.4249 Y-0.9018 F1000.00
G01 X7.4266 Y-0.9137 F1000.00
G01 X7.4295 Y-0.9253 F1000.00
G01 X7.4336 Y-0.9366 F1000.00
G01 X7.4387 Y-0.9475 F1000.00
G01 X7.4449 Y-0.9578 F1000.00
G01 X7.4521 Y-0.9675 F1000.00
G01 X7.4601 Y-0.9764 F1000.00
G01 X7.4690 Y-0.9844 F1000.00
G01 X7.4787 Y-0.9916 F1000.00
G01 X7.4890 Y-0.9978 F1000.00
G01 X7.4999 Y-1.0029 F1000.00
G01 X7.5112 Y-1.0070 F1000.00
G01 X7.5228 Y-1.0099 F1000.00
G01 X7.5347 Y-1.0116 F1000.00
G01 X7.5515 Y-1.0125 F1000.00
G01 X7.6578 Y-1.0125 F1000.00
G01 X7.6747 Y-1.0138 F1000.00
G01 X7.6906 Y-1.0163 F1000.00
G01 X7.7010 Y-1.0187 F1000.00
G01 X7.7130 Y-1.0222 F1000.00
G01 X7.7235 Y-1.0260 F1000.00
G01 X7.7345 Y-1.0307 F1000.00
G01 X7.7445 Y-1.0357 F1000.00
G01 X7.7537 Y-1.0410 F1000.00
G01 X7.7639 Y-1.0476 F1000.00
G01 X7.7731 Y-1.0544 F1000.00
G01 X7.7807 Y-1.0608 F1000.00
G01 X7.7891 Y-1.0686 F1000.00
G01 X7.7963 Y-1.0760 F1000.00
G01 X7.8027 Y-1.0835 F1000.00
G01 X7.8091 Y-1.0917 F1000.00
G01 X7.8150 Y-1.1001 F1000.00
G01 X7.8202 Y-1.1085 F1000.00
G01 X7.8259 Y-1.1187 F1000.00
G01 X7.8303 Y-1.1280 F1000.00
G01 X7.8343 Y-1.1376 F1000.00
G01 X7.8376 Y-1.1469 F1000.00
G01 X7.8405 Y-1.1568 F1000.00
G01 X7.8432 Y-1.1680 F1000.00
G01 X7.8450 Y-1.1778 F1000.00
G01 X7.8463 Y-1.1879 F1000.00
G01 X7.8470 Y-1.1984 F1000.00
G01 X7.8472 Y-3.1113 F1000.00
G01 X7.8468 Y-3.1243 F1000.00
G01 X7.8457 Y-3.1359 F1000.00
G01 X7.8438 Y-3.1479 F1000.00
G01 X7.8415 Y-3.1584 F1000.00
G01 X7.8385 Y-3.1691 F1000.00
G01 X7.8346 Y-3.1805 F1000.00
G01 X7.8302 Y-3.1910 F1000.00
G01 X7.8249 Y-3.2020 F1000.00
G01 X7.8197 Y-3.2113 F1000.00
G01 X7.8136 Y-3.2208 F1000.00
G01 X7.8066 Y-3.2304 F1000.00
G01 X7.7996 Y-3.2391 F1000.00
G01 X7.7912 Y-3.2482 F1000.00
G01 X7.7835 Y-3.2556 F1000.00
G01 X7.7749 Y-3.2629 F1000.00
G01 X7.7650 Y-3.2704 F1000.00
G01 X7.7556 Y-3.2767 F1000.00
G01 X7.7454 Y-3.2827 F1000.00
G01 X7.7282 Y-3.2909 F1000.00
G01 X7.7121 Y-3.2969 F1000.00
G01 X7.6942 Y-3.3018 F1000.00
G01 X7.6754 Y-3.3050 F1000.00
G01 X7.6652 Y-3.3059 F1000.00
G01 X7.6537 Y-3.3063 F1000.00
G01 X7.5515 Y-3.3063 F1000.00
G01 X7.5347 Y-3.3072 F1000.00
G01 X7.5228 Y-3.3089 F1000.00
G01 X7.5112 Y-3.3118 F1000.00
G01 X7.4999 Y-3.3159 F1000.00
G01 X7.4890 Y-3.3210 F1000.00
G01 X7.4787 Y-3.3272 F1000.00
G01 X7.4690 Y-3.3344 F1000.00
G01 X7.4601 Y-3.3424 F1000.00
G01 X7.4521 Y-3.3513 F1000.00
G01 X7.4449 Y-3.3610 F1000.00
G01 X7.4387 Y-3.3713 F1000.00
G01 X7.4336 Y-3.3822 F1000.00
G01 X7.4295 Y-3.3935 F1000.00
G01 X7.4266 Y-3.4051 F1000.00
G01 X7.4249 Y-3.4170 F1000.00
G01 X7.4243 Y-3.4290 F1000.00
G01 X7.4543 Y-3.4290 F1000.00
G01 X7.4548 Y-3.4381 F1000.00
G01 X7.4561 Y-3.4470 F1000.00
G01 X7.4583 Y-3.4558 F1000.00
G01 X7.4613 Y-3.4644 F1000.00
G01 X7.4652 Y-3.4726 F1000.00
G01 X7.4699 Y-3.4803 F1000.00
G01 X7.4753 Y-3.4876 F1000.00
G01 X7.4814 Y-3.4943 F1000.00
G01 X7.4881 Y-3.5004 F1000.00
G01 X7.4954 Y-3.5058 F1000.00
G01 X7.5031 Y-3.5105 F1000.00
G01 X7.5113 Y-3.5144 F1000.00
G01 X7.5199 Y-3.5174 F1000.00
G01 X7.5287 Y-3.5196 F1000.00
G01 X7.5376 Y-3.5209 F1000.00
G01 X7.5522 Y-3.5217 F1000.00
G01 X8.3876 Y-3.5217 F1000.00
G01 X8.4022 Y-3.5209 F1000.00
G01 X8.4111 Y-3.5196 F1000.00
G01 X8.4199 Y-3.5174 F1000.00
G01 X8.4285 Y-3.5144 F1000.00
G01 X8.4367 Y-3.5105 F1000.00
G01 X8.4444 Y-3.5058 F1000.00
G01 X8.4517 Y-3.5004 F1000.00
G01 X8.4584 Y-3.4943 F1000.00
G01 X8.4645 Y-3.4876 F1000.00
G01 X8.4699 Y-3.4803 F1000.00
G01 X8.4746 Y-3.4726 F1000.00
G01 X8.4785 Y-3.4644 F1000.00
G01 X8.4815 Y-3.4558 F1000.00
G01 X8.4837 Y-3.4470 F1000.00
G01 X8.4850 Y-3.4381 F1000.00
G01 X8.4855 Y-3.4290 F1000.00
G01 X8.4850 Y-3.4199 F1000.00
G01 X8.4837 Y-3.4110 F1000.00
G01 X8.4815 Y-3.4022 F1000.00
G01 X8.4785 Y-3.3936 F1000.00
G01 X8.4746 Y-3.3854 F1000.00
G01 X8.4699 Y-3.3777 F1000.00
G01 X8.4645 Y-3.3704 F1000.00
G01 X8.4584 Y-3.3637 F1000.00
G01 X8.4517 Y-3.3576 F1000.00
G01 X8.4444 Y-3.3522 F1000.00
G01 X8.4367 Y-3.3475 F1000.00
G01 X8.4285 Y-3.3436 F1000.00
G01 X8.4199 Y-3.3406 F1000.00
G01 X8.4111 Y-3.3384 F1000.00
G01 X8.4022 Y-3.3371 F1000.00
G01 X8.3876 Y-3.3363 F1000.00
G01 X8.2825 Y-3.3363 F1000.00
G01 X8.2672 Y-3.3354 F1000.00
G01 X8.2528 Y-3.3336 F1000.00
G01 X8.2342 Y-3.3299 F1000.00
G01 X8.2166 Y-3.3249 F1000.00
G01 X8.1999 Y-3.3186 F1000.00
G01 X8.1826 Y-3.3104 F1000.00
G01 X8.1716 Y-3.3041 F1000.00
G01 X8.1614 Y-3.2976 F1000.00
G01 X8.1505 Y-3.2898 F1000.00
G01 X8.1410 Y-3.2820 F1000.00
G01 X8.1320 Y-3.2739 F1000.00
G01 X8.1233 Y-3.2651 F1000.00
G01 X8.1145 Y-3.2551 F1000.00
G01 X8.1066 Y-3.2450 F1000.00
G01 X8.0996 Y-3.2350 F1000.00
G01 X8.0926 Y-3.2237 F1000.00
G01 X8.0868 Y-3.2130 F1000.00
G01 X8.0815 Y-3.2017 F1000.00
G01 X8.0770 Y-3.1906 F1000.00
G01 X8.0726 Y-3.1779 F1000.00
G01 X8.0692 Y-3.1656 F1000.00
G01 X8.0665 Y-3.1534 F1000.00
G01 X8.0636 Y-3.1327 F1000.00
G01 X8.0626 Y-3.1115 F1000.00
G01 X8.0626 Y-1.2074 F1000.00
G01 X8.0629 Y-1.1949 F1000.00
G01 X8.0641 Y-1.1816 F1000.00
G01 X8.0658 Y-1.1695 F1000.00
G01 X8.0682 Y-1.1574 F1000.00
G01 X8.0712 Y-1.1457 F1000.00
G01 X8.0753 Y-1.1329 F1000.00
G01 X8.0798 Y-1.1210 F1000.00
G01 X8.0848 Y-1.1099 F1000.00
G01 X8.0909 Y-1.0981 F1000.00
G01 X8.0970 Y-1.0878 F1000.00
G01 X8.1039 Y-1.0775 F1000.00
G01 X8.1113 Y-1.0676 F1000.00
G01 X8.1200 Y-1.0574 F1000.00
G01 X8.1287 Y-1.0481 F1000.00
G01 X8.1377 Y-1.0396 F1000.00
G01 X8.1478 Y-1.0311 F1000.00
G01 X8.1577 Y-1.0237 F1000.00
G01 X8.1686 Y-1.0165 F1000.00
G01 X8.1804 Y-1.0096 F1000.00
G01 X8.1922 Y-1.0037 F1000.00
G01 X8.2049 Y-0.9982 F1000.00
G01 X8.2166 Y-0.9939 F1000.00
G01 X8.2289 Y-0.9902 F1000.00
G01 X8.2423 Y-0.9871 F1000.00
G01 X8.2609 Y-0.9840 F1000.00
G01 X8.2806 Y-0.9826 F1000.00
G01 X8.3876 Y-0.9825 F1000.00
G01 X8.4022 Y-0.9817 F1000.00
G01 X8.4111 Y-0.9804 F1000.00
G01 X8.4199 Y-0.9782 F1000.00
G01 X8.4285 Y-0.9752 F1000.00
G01 X8.4367 Y-0.9713 F1000.00
G01 X8.4444 Y-0.9666 F1000.00
G01 X8.4517 Y-0.9612 F1000.00
G01 X8.4584 Y-0.9551 F1000.00
G01 X8.4645 Y-0.9484 F1000.00
G01 X8.4699 Y-0.9411 F1000.00
G01 X8.4746 Y-0.9334 F1000.00
G01 X8.4785 Y-0.9252 F1000.00
G01 X8.4815 Y-0.9166 F1000.00
G01 X8.4837 Y-0.9078 F1000.00
G01 X8.4850 Y-0.8989 F1000.00
G01 X8.4855 Y-0.8898 F1000.00
G01 X8.4850 Y-0.8807 F1000.00
G01 X8.4837 Y-0.8718 F1000.00
G01 X8.4815 Y-0.8630 F1000.00
G01 X8.4785 Y-0.8544 F1000.00
G01 X8.4746 Y-0.8462 F1000.00
G01 X8.4699 Y-0.8385 F1000.00
G01 X8.4645 Y-0.8312 F1000.00
G01 X8.4584 Y-0.8245 F1000.00
G01 X8.4517 Y-0.8184 F1000.00
G01 X8.4444 Y-0.8130 F1000.00
G01 X8.4367 Y-0.8083 F1000.00
G01 X8.4285 Y-0.8044 F1000.00
G01 X8.4199 Y-0.8014 F1000.00
G01 X8.4111 Y-0.7992 F1000.00
G01 X8.4022 Y-0.7979 F1000.00
G01 X8.3876 Y-0.7971 F1000.00
G01 X7.5522 Y-0.7971 F1000.00
G01 X7.5376 Y-0.7979 F1000.00
G01 X7.5287 Y-0.7992 F1000.00
G01 X7.5199 Y-0.8014 F1000.00
G01 X7.5113 Y-0.8044 F1000.00
G01 X7.5031 Y-0.8083 F1000.00
G01 X7.4954 Y-0.8130 F1000.00
G01 X7.4881 Y-0.8184 F1000.00
G01 X7.4814 Y-0.8245 F1000.00
G01 X7.4753 Y-0.8312 F1000.00
G01 X7.4699 Y-0.8385 F1000.00
G01 X7.4652 Y-0.8462 F1000.00
G01 X7.4613 Y-0.8544 F1000.00
G01 X7.4583 Y-0.8630 F1000.00
G01 X7.4561 Y-0.8718 F1000.00
G01 X7.4548 Y-0.8807 F1000.00
G01 X7.4543 Y-0.8898 F1000.00
G01 X7.4548 Y-0.8989 F1000.00
G01 X7.4561 Y-0.9078 F1000.00
G01 X7.4583 Y-0.9166 F1000.00
G01 X7.4613 Y-0.9252 F1000.00
G01 X7.4652 Y-0.9334 F1000.00
G01 X7.4699 Y-0.9411 F1000.00
G01 X7.4753 Y-0.9484 F1000.00
G01 X7.4814 Y-0.9551 F1000.00
G01 X7.4881 Y-0.9612 F1000.00
G01 X7.4954 Y-0.9666 F1000.00
G01 X7.5031 Y-0.9713 F1000.00
G01 X7.5113 Y-0.9752 F1000.00
G01 X7.5199 Y-0.9782 F1000.00
G01 X7.5287 Y-0.9804 F1000.00
G01 X7.5376 Y-0.9817 F1000.00
G01 X7.5522 Y-0.9825 F1000.00
G01 X7.6591 Y-0.9826 F1000.00
G01 X7.6781 Y-0.9840 F1000.00
G01 X7.6956 Y-0.9867 F1000.00
G01 X7.7082 Y-0.9895 F1000.00
G01 X7.7212 Y-0.9933 F1000.00
G01 X7.7329 Y-0.9974 F1000.00
G01 X7.7449 Y-1.0024 F1000.00
G01 X7.7571 Y-1.0084 F1000.00
G01 X7.7684 Y-1.0148 F1000.00
G01 X7.7788 Y-1.0214 F1000.00
G01 X7.7902 Y-1.0297 F1000.00
G01 X7.7996 Y-1.0374 F1000.00
G01 X7.8084 Y-1.0455 F1000.00
G01 X7.8177 Y-1.0550 F1000.00
G01 X7.8256 Y-1.0640 F1000.00
G01 X7.8332 Y-1.0738 F1000.00
G01 X7.8400 Y-1.0835 F1000.00
G01 X7.8461 Y-1.0933 F1000.00
G01 X7.8525 Y-1.1048 F1000.00
G01 X7.8577 Y-1.1158 F1000.00
G01 X7.8624 Y-1.1272 F1000.00
G01 X7.8664 Y-1.1385 F1000.00
G01 X7.8700 Y-1.1510 F1000.00
G01 X7.8727 Y-1.1627 F1000.00
G01 X7.8747 Y-1.1741 F1000.00
G01 X7.8762 Y-1.1861 F1000.00
G01 X7.8770 Y-1.1983 F1000.00
G01 X7.8772 Y-3.1114 F1000.00
G01 X7.8767 Y-3.1273 F1000.00
G01 X7.8750 Y-3.1431 F1000.00
G01 X7.8728 Y-3.1556 F1000.00
G01 X7.8701 Y-3.1677 F1000.00
G01 X7.8663 Y-3.1807 F1000.00
G01 X7.8620 Y-3.1927 F1000.00
G01 X7.8572 Y-3.2041 F1000.00
G01 X7.8513 Y-3.2162 F1000.00
G01 X7.8450 Y-3.2274 F1000.00
G01 X7.8383 Y-3.2378 F1000.00
G01 X7.8304 Y-3.2487 F1000.00
G01 X7.8223 Y-3.2586 F1000.00
G01 X7.8140 Y-3.2677 F1000.00
G01 X7.8043 Y-3.2772 F1000.00
G01 X7.7947 Y-3.2855 F1000.00
G01 X7.7848 Y-3.2931 F1000.00
G01 X7.7737 Y-3.3007 F1000.00
G01 X7.7624 Y-3.3075 F1000.00
G01 X7.7529 Y-3.3126 F1000.00
G01 X7.7430 Y-3.3172 F1000.00
G01 X7.7329 Y-3.3214 F1000.00
G01 X7.7232 Y-3.3249 F1000.00
G01 X7.7128 Y-3.3280 F1000.00
G01 X7.7023 Y-3.3307 F1000.00
G01 X7.6916 Y-3.3329 F1000.00
G01 X7.6812 Y-3.3345 F1000.00
G01 X7.6684 Y-3.3358 F1000.00
G01 X7.6561 Y-3.3363 F1000.00
G01 X7.5522 Y-3.3363 F1000.00
G01 X7.5376 Y-3.3371 F1000.00
G01 X7.5287 Y-3.3384 F1000.00
G01 X7.5199 Y-3.3406 F1000.00
G01 X7.5113 Y-3.3436 F1000.00
G01 X7.5031 Y-3.3475 F1000.00
G01 X7.4954 Y-3.3522 F1000.00
G01 X7.4881 Y-3.3576 F1000.00
G01 X7.4814 Y-3.3637 F1000.00
G01 X7.4753 Y-3.3704 F1000.00
G01 X7.4699 Y-3.3777 F1000.00
G01 X7.4652 Y-3.3854 F1000.00
G01 X7.4613 Y-3.3936 F1000.00
G01 X7.4583 Y-3.4022 F1000.00
G01 X7.4561 Y-3.4110 F1000.00
G01 X7.4548 Y-3.4199 F1000.00
G01 X7.4543 Y-3.4290 F1000.00
G01 X7.4843 Y-3.4290 F1000.00
G01 X7.4846 Y-3.4351 F1000.00
G01 X7.4855 Y-3.4412 F1000.00
G01 X7.4870 Y-3.4471 F1000.00
G01 X7.4891 Y-3.4529 F1000.00
G01 X7.4917 Y-3.4584 F1000.00
G01 X7.4949 Y-3.4636 F1000.00
G01 X7.4985 Y-3.4686 F1000.00
G01 X7.5026 Y-3.4731 F1000.00
G01 X7.5071 Y-3.4772 F1000.00
G01 X7.5121 Y-3.4808 F1000.00
G01 X7.5173 Y-3.4840 F1000.00
G01 X7.5228 Y-3.4866 F1000.00
G01 X7.5286 Y-3.4887 F1000.00
G01 X7.5345 Y-3.4902 F1000.00
G01 X7.5406 Y-3.4911 F1000.00
G01 X7.5530 Y-3.4917 F1000.00
G01 X8.3868 Y-3.4917 F1000.00
G01 X8.3992 Y-3.4911 F1000.00
G01 X8.4053 Y-3.4902 F1000.00
G01 X8.4112 Y-3.4887 F1000.00
G01 X8.4170 Y-3.4866 F1000.00
G01 X8.4225 Y-3.4840 F1000.00
G01 X8.4277 Y-3.4808 F1000.00
G01 X8.4327 Y-3.4772 F1000.00
G01 X8.4372 Y-3.4731 F1000.00
G01 X8.4413 Y-3.4686 F1000.00
G01 X8.4449 Y-3.4636 F1000.00
G01 X8.4481 Y-3.4584 F1000.00
G01 X8.4507 Y-3.4529 F1000.00
G01 X8.4528 Y-3.4471 F1000.00
G01 X8.4543 Y-3.4412 F1000.00
G01 X8.4552 Y-3.4351 F1000.00
G01 X8.4555 Y-3.4290 F1000.00
G01 X8.4552 Y-3.4229 F1000.00
G01 X8.4543 Y-3.4168 F1000.00
G01 X8.4528 Y-3.4109 F1000.00
G01 X8.4507 Y-3.4051 F1000.00
G01 X8.4481 Y-3.3996 F1000.00
G01 X8.4449 Y-3.3944 F1000.00
G01 X8.4413 Y-3.3894 F1000.00
G01 X8.4372 Y-3.3849 F1000.00
G01 X8.4327 Y-3.3808 F1000.00
G01 X8.4277 Y-3.3772 F1000.00
G01 X8.4225 Y-3.3740 F1000.00
G01 X8.4170 Y-3.3714 F1000.00
G01 X8.4112 Y-3.3693 F1000.00
G01 X8.4053 Y-3.3678 F1000.00
G01 X8.3992 Y-3.3669 F1000.00
G01 X8.3868 Y-3.3663 F1000.00
G01 X8.2803 Y-3.3662 F1000.00
G01 X8.2615 Y-3.3650 F1000.00
G01 X8.2420 Y-3.3622 F1000.00
G01 X8.2277 Y-3.3592 F1000.00
G01 X8.2150 Y-3.3558 F1000.00
G01 X8.2022 Y-3.3516 F1000.00
G01 X8.1896 Y-3.3468 F1000.00
G01 X8.1776 Y-3.3414 F1000.00
G01 X8.1656 Y-3.3353 F1000.00
G01 X8.1529 Y-3.3279 F1000.00
G01 X8.1420 Y-3.3207 F1000.00
G01 X8.1315 Y-3.3130 F1000.00
G01 X8.1218 Y-3.3051 F1000.00
G01 X8.1125 Y-3.2967 F1000.00
G01 X8.1039 Y-3.2883 F1000.00
G01 X8.0952 Y-3.2787 F1000.00
G01 X8.0875 Y-3.2694 F1000.00
G01 X8.0800 Y-3.2594 F1000.00
G01 X8.0733 Y-3.2495 F1000.00
G01 X8.0665 Y-3.2384 F1000.00
G01 X8.0606 Y-3.2275 F1000.00
G01 X8.0551 Y-3.2162 F1000.00
G01 X8.0504 Y-3.2051 F1000.00
G01 X8.0461 Y-3.1934 F1000.00
G01 X8.0429 Y-3.1832 F1000.00
G01 X8.0398 Y-3.1717 F1000.00
G01 X8.0371 Y-3.1590 F1000.00
G01 X8.0352 Y-3.1477 F1000.00
G01 X8.0337 Y-3.1355 F1000.00
G01 X8.0328 Y-3.1234 F1000.00
G01 X8.0326 Y-3.1117 F1000.00
G01 X8.0326 Y-1.2074 F1000.00
G01 X8.0330 Y-1.1933 F1000.00
G01 X8.0342 Y-1.1782 F1000.00
G01 X8.0362 Y-1.1645 F1000.00
G01 X8.0390 Y-1.1507 F1000.00
G01 X8.0424 Y-1.1374 F1000.00
G01 X8.0470 Y-1.1229 F1000.00
G01 X8.0521 Y-1.1095 F1000.00
G01 X8.0580 Y-1.0965 F1000.00
G01 X8.0649 Y-1.0831 F1000.00
G01 X8.0723 Y-1.0707 F1000.00
G01 X8.0802 Y-1.0590 F1000.00
G01 X8.0894 Y-1.0470 F1000.00
G01 X8.0984 Y-1.0365 F1000.00
G01 X8.1084 Y-1.0260 F1000.00
G01 X8.1195 Y-1.0157 F1000.00
G01 X8.1303 Y-1.0067 F1000.00
G01 X8.1420 Y-0.9981 F1000.00
G01 X8.1548 Y-0.9897 F1000.00
G01 X8.1670 Y-0.9827 F1000.00
G01 X8.1801 Y-0.9762 F1000.00
G01 X8.1942 Y-0.9701 F1000.00
G01 X8.2079 Y-0.9652 F1000.00
G01 X8.2214 Y-0.9612 F1000.00
G01 X8.2362 Y-0.9577 F1000.00
G01 X8.2574 Y-0.9543 F1000.00
G01 X8.2792 Y-0.9526 F1000.00
G01 X8.3868 Y-0.9525 F1000.00
G01 X8.3992 Y-0.9519 F1000.00
G01 X8.4053 Y-0.9510 F1000.00
G01 X8.4112 Y-0.9495 F1000.00
G01 X8.4170 Y-0.9474 F1000.00
G01 X8.4225 Y-0.9448 F1000.00
G01 X8.4277 Y-0.9416 F1000.00
G01 X8.4327 Y-0.9380 F1000.00
G01 X8.4372 Y-0.9339 F1000.00
G01 X8.4413 Y-0.9294 F1000.00
G01 X8.4449 Y-0.9244 F1000.00
G01 X8.4481 Y-0.9192 F1000.00
G01 X8.4507 Y-0.9137 F1000.00
G01 X8.4528 Y-0.9079 F1000.00
G01 X8.4543 Y-0.9020 F1000.00
G01 X8.4552 Y-0.8959 F1000.00
G01 X8.4555 Y-0.8898 F1000.00
G01 X8.4552 Y-0.8837 F1000.00
G01 X8.4543 Y-0.8776 F1000.00
G01 X8.4528 Y-0.8717 F1000.00
G01 X8.4507 Y-0.8659 F1000.00
G01 X8.4481 Y-0.8604 F1000.00
G01 X8.4449 Y-0.8552 F1000.00
G01 X8.4413 Y-0.8502 F1000.00
G01 X8.4372 Y-0.8457 F1000.00
G01 X8.4327 Y-0.8416 F1000.00
G01 X8.4277 Y-0.8380 F1000.00
G01 X8.4225 Y-0.8348 F1000.00
G01 X8.4170 Y-0.8322 F1000.00
G01 X8.4112 Y-0.8301 F1000.00
G01 X8.4053 Y-0.8286 F1000.00
G01 X8.3992 Y-0.8277 F1000.00
G01 X8.3868 Y-0.8271 F1000.00
G01 X7.5530 Y-0.8271 F1000.00
G01 X7.5406 Y-0.8277 F1000.00
G01 X7.5345 Y-0.8286 F1000.00
