(G-CODE GENERATED BY FLATCAM v8.994 - www.flatcam.org - Version Date: 2020/11/7)

(Name: PCB2.GTS_mt_paint_cnc)
(Type: G-code from Geometry)
(Units: MM)

(Created on Friday, 27 January 2023 at 11:34)

(This preprocessor is used with a motion controller loaded with GRBL firmware. )
(It is for the case when it is used together with a LASER connected on the SPINDLE connector.)

(Feedrate: 1000.0 mm/min)
(Feedrate rapids: 1500.0 mm/min)

(Z Focus: 2.0 mm)
(Steps per circle: 64)
(Preprocessor Geometry: GRBL_laser)

(X range:  -18.9495 ...   23.3286  mm)
(Y range:  -21.8705 ...   20.9815  mm)

(Laser Power - Spindle Speed: 250.0)

G21
G90
G17
G94

G01 F1000.00

M5
G01 F1000.00
G00 X2.2297 Y2.0645
G01 F60.00
M03 S250.0
G01 F1000.00
G01 X2.2296 Y4.0893 F1000.00
G01 X2.2296 Y4.1139 F1000.00
G01 X2.2390 Y4.1612 F1000.00
G01 X2.2576 Y4.2061 F1000.00
G01 X2.2846 Y4.2465 F1000.00
G01 X2.3193 Y4.2812 F1000.00
G01 X2.3596 Y4.3082 F1000.00
G01 X2.4044 Y4.3267 F1000.00
G01 X2.4520 Y4.3362 F1000.00
G01 X3.3771 Y4.3362 F1000.00
G01 X3.4006 Y4.3315 F1000.00
G01 X3.4224 Y4.3225 F1000.00
G01 X3.4416 Y4.3097 F1000.00
G01 X3.4585 Y4.2928 F1000.00
G01 X3.4715 Y4.2733 F1000.00
G01 X3.4807 Y4.2513 F1000.00
G01 X3.4852 Y4.2285 F1000.00
G01 X3.4852 Y2.1724 F1000.00
G01 X3.4806 Y2.1495 F1000.00
G01 X3.4715 Y2.1276 F1000.00
G01 X3.4587 Y2.1083 F1000.00
G01 X3.4416 Y2.0912 F1000.00
G01 X3.4221 Y2.0782 F1000.00
G01 X3.4005 Y2.0692 F1000.00
G01 X3.3774 Y2.0646 F1000.00
G01 X2.2297 Y2.0645 F1000.00
G01 X2.2597 Y2.0945 F1000.00
G01 X2.2596 Y4.0893 F1000.00
G01 X2.2596 Y4.1109 F1000.00
G01 X2.2679 Y4.1524 F1000.00
G01 X2.2842 Y4.1919 F1000.00
G01 X2.3079 Y4.2274 F1000.00
G01 X2.3384 Y4.2579 F1000.00
G01 X2.3738 Y4.2816 F1000.00
G01 X2.4131 Y4.2979 F1000.00
G01 X2.4549 Y4.3062 F1000.00
G01 X3.3741 Y4.3062 F1000.00
G01 X3.3919 Y4.3027 F1000.00
G01 X3.4082 Y4.2959 F1000.00
G01 X3.4225 Y4.2864 F1000.00
G01 X3.4352 Y4.2736 F1000.00
G01 X3.4450 Y4.2591 F1000.00
G01 X3.4518 Y4.2425 F1000.00
G01 X3.4552 Y4.2255 F1000.00
G01 X3.4552 Y2.1754 F1000.00
G01 X3.4518 Y2.1582 F1000.00
G01 X3.4450 Y2.1418 F1000.00
G01 X3.4353 Y2.1274 F1000.00
G01 X3.4224 Y2.1145 F1000.00
G01 X3.4079 Y2.1048 F1000.00
G01 X3.3917 Y2.0981 F1000.00
G01 X3.3744 Y2.0946 F1000.00
G01 X2.2597 Y2.0945 F1000.00
G01 X2.2897 Y2.1245 F1000.00
G01 X2.2896 Y4.0893 F1000.00
G01 X2.2896 Y4.1080 F1000.00
G01 X2.2967 Y4.1437 F1000.00
G01 X2.3108 Y4.1777 F1000.00
G01 X2.3312 Y4.2083 F1000.00
G01 X2.3576 Y4.2346 F1000.00
G01 X2.3881 Y4.2550 F1000.00
G01 X2.4219 Y4.2690 F1000.00
G01 X2.4579 Y4.2762 F1000.00
G01 X3.3712 Y4.2762 F1000.00
G01 X3.3831 Y4.2738 F1000.00
G01 X3.3940 Y4.2693 F1000.00
G01 X3.4034 Y4.2631 F1000.00
G01 X3.4119 Y4.2545 F1000.00
G01 X3.4184 Y4.2449 F1000.00
G01 X3.4230 Y4.2337 F1000.00
G01 X3.4252 Y4.2225 F1000.00
G01 X3.4252 Y2.1784 F1000.00
G01 X3.4229 Y2.1670 F1000.00
G01 X3.4184 Y2.1560 F1000.00
G01 X3.4120 Y2.1465 F1000.00
G01 X3.4033 Y2.1378 F1000.00
G01 X3.3937 Y2.1313 F1000.00
G01 X3.3830 Y2.1269 F1000.00
G01 X3.3714 Y2.1246 F1000.00
G01 X2.2897 Y2.1245 F1000.00
G01 X2.3197 Y2.1545 F1000.00
G01 X2.3196 Y4.0893 F1000.00
G01 X2.3196 Y4.1050 F1000.00
G01 X2.3255 Y4.1349 F1000.00
G01 X2.3374 Y4.1635 F1000.00
G01 X2.3545 Y4.1891 F1000.00
G01 X2.3767 Y4.2113 F1000.00
G01 X2.4023 Y4.2284 F1000.00
G01 X2.4306 Y4.2402 F1000.00
G01 X2.4609 Y4.2462 F1000.00
G01 X3.3682 Y4.2462 F1000.00
G01 X3.3744 Y4.2450 F1000.00
G01 X3.3798 Y4.2427 F1000.00
G01 X3.3843 Y4.2398 F1000.00
G01 X3.3886 Y4.2354 F1000.00
G01 X3.3918 Y4.2307 F1000.00
G01 X3.3941 Y4.2250 F1000.00
G01 X3.3952 Y4.2196 F1000.00
G01 X3.3952 Y2.1813 F1000.00
G01 X3.3941 Y2.1757 F1000.00
G01 X3.3918 Y2.1702 F1000.00
G01 X3.3887 Y2.1656 F1000.00
G01 X3.3842 Y2.1611 F1000.00
G01 X3.3795 Y2.1579 F1000.00
G01 X3.3742 Y2.1557 F1000.00
G01 X3.3685 Y2.1546 F1000.00
G01 X2.3197 Y2.1545 F1000.00
G01 X2.3497 Y2.1845 F1000.00
G01 X2.3496 Y4.0893 F1000.00
G01 X2.3496 Y4.1021 F1000.00
G01 X2.3544 Y4.1262 F1000.00
G01 X2.3640 Y4.1493 F1000.00
G01 X2.3778 Y4.1700 F1000.00
G01 X2.3958 Y4.1880 F1000.00
G01 X2.4165 Y4.2018 F1000.00
G01 X2.4394 Y4.2113 F1000.00
G01 X2.4638 Y4.2162 F1000.00
G01 X3.3652 Y4.2162 F1000.00
G01 X3.3652 Y2.1846 F1000.00
G01 X2.3497 Y2.1845 F1000.00
G01 X2.3797 Y2.2145 F1000.00
G01 X2.3796 Y4.0893 F1000.00
G01 X2.3796 Y4.0991 F1000.00
G01 X2.3832 Y4.1174 F1000.00
G01 X2.3905 Y4.1351 F1000.00
G01 X2.4011 Y4.1509 F1000.00
G01 X2.4149 Y4.1647 F1000.00
G01 X2.4307 Y4.1752 F1000.00
G01 X2.4482 Y4.1825 F1000.00
G01 X2.4668 Y4.1862 F1000.00
G01 X3.3352 Y4.1862 F1000.00
G01 X3.3352 Y2.2146 F1000.00
G01 X2.3797 Y2.2145 F1000.00
G01 X2.4097 Y2.2445 F1000.00
G01 X2.4096 Y4.0893 F1000.00
G01 X2.4096 Y4.0961 F1000.00
G01 X2.4121 Y4.1087 F1000.00
G01 X2.4171 Y4.1208 F1000.00
G01 X2.4244 Y4.1318 F1000.00
G01 X2.4341 Y4.1414 F1000.00
G01 X2.4449 Y4.1487 F1000.00
G01 X2.4569 Y4.1536 F1000.00
G01 X2.4697 Y4.1562 F1000.00
G01 X3.3052 Y4.1562 F1000.00
G01 X3.3052 Y2.2446 F1000.00
G01 X2.4097 Y2.2445 F1000.00
G01 X2.4397 Y2.2745 F1000.00
G01 X2.4396 Y4.0893 F1000.00
G01 X2.4396 Y4.0932 F1000.00
G01 X2.4409 Y4.0999 F1000.00
G01 X2.4437 Y4.1066 F1000.00
G01 X2.4477 Y4.1127 F1000.00
G01 X2.4532 Y4.1181 F1000.00
G01 X2.4591 Y4.1221 F1000.00
G01 X2.4657 Y4.1248 F1000.00
G01 X2.4727 Y4.1262 F1000.00
G01 X3.2752 Y4.1262 F1000.00
G01 X3.2752 Y2.2746 F1000.00
G01 X2.4397 Y2.2745 F1000.00
G01 X2.4697 Y2.3045 F1000.00
G01 X2.4696 Y4.0893 F1000.00
G01 X2.4696 Y4.0902 F1000.00
G01 X2.4703 Y4.0924 F1000.00
G01 X2.4723 Y4.0948 F1000.00
G01 X2.4757 Y4.0962 F1000.00
G01 X3.2452 Y4.0962 F1000.00
G01 X3.2452 Y2.3046 F1000.00
G01 X2.4697 Y2.3045 F1000.00
G01 X2.8296 Y3.7362 F1000.00
G01 X2.8852 Y3.7362 F1000.00
G01 X2.8852 Y2.6646 F1000.00
G01 X2.8297 Y2.6646 F1000.00
G01 X2.8296 Y3.7362 F1000.00
G01 X2.7996 Y3.7662 F1000.00
G01 X2.9152 Y3.7662 F1000.00
G01 X2.9152 Y2.6346 F1000.00
G01 X2.7997 Y2.6346 F1000.00
G01 X2.7996 Y3.7662 F1000.00
G01 X2.7696 Y3.7962 F1000.00
G01 X2.9452 Y3.7962 F1000.00
G01 X2.9452 Y2.6046 F1000.00
G01 X2.7697 Y2.6046 F1000.00
G01 X2.7696 Y3.7962 F1000.00
G01 X2.7396 Y3.8262 F1000.00
G01 X2.9752 Y3.8262 F1000.00
G01 X2.9752 Y2.5746 F1000.00
G01 X2.7397 Y2.5745 F1000.00
G01 X2.7396 Y3.8262 F1000.00
G01 X2.7096 Y3.8562 F1000.00
G01 X3.0052 Y3.8562 F1000.00
G01 X3.0052 Y2.5446 F1000.00
G01 X2.7097 Y2.5445 F1000.00
G01 X2.7096 Y3.8562 F1000.00
G01 X2.6796 Y3.8862 F1000.00
G01 X3.0352 Y3.8862 F1000.00
G01 X3.0352 Y2.5146 F1000.00
G01 X2.6797 Y2.5145 F1000.00
G01 X2.6796 Y3.8862 F1000.00
G01 X2.6496 Y3.9162 F1000.00
G01 X3.0652 Y3.9162 F1000.00
G01 X3.0652 Y2.4846 F1000.00
G01 X2.6497 Y2.4845 F1000.00
G01 X2.6496 Y3.9162 F1000.00
G01 X2.6196 Y3.9462 F1000.00
G01 X3.0952 Y3.9462 F1000.00
G01 X3.0952 Y2.4546 F1000.00
G01 X2.6197 Y2.4545 F1000.00
G01 X2.6196 Y3.9462 F1000.00
G01 X2.5896 Y3.9762 F1000.00
G01 X3.1252 Y3.9762 F1000.00
G01 X3.1252 Y2.4246 F1000.00
G01 X2.5897 Y2.4245 F1000.00
G01 X2.5896 Y3.9762 F1000.00
G01 X2.5596 Y4.0062 F1000.00
G01 X3.1552 Y4.0062 F1000.00
G01 X3.1552 Y2.3946 F1000.00
G01 X2.5597 Y2.3945 F1000.00
G01 X2.5596 Y4.0062 F1000.00
G01 X2.5296 Y4.0362 F1000.00
G01 X3.1852 Y4.0362 F1000.00
G01 X3.1852 Y2.3646 F1000.00
G01 X2.5297 Y2.3645 F1000.00
G01 X2.5296 Y4.0362 F1000.00
G01 X2.4996 Y4.0662 F1000.00
G01 X3.2152 Y4.0662 F1000.00
G01 X3.2152 Y2.3346 F1000.00
G01 X2.4997 Y2.3345 F1000.00
G01 X2.4996 Y4.0662 F1000.00
G01 X2.1996 Y4.1168 F1000.00
G01 X2.2102 Y4.1699 F1000.00
G01 X2.2310 Y4.2203 F1000.00
G01 X2.2613 Y4.2656 F1000.00
G01 X2.3002 Y4.3045 F1000.00
G01 X2.3454 Y4.3347 F1000.00
G01 X2.3956 Y4.3555 F1000.00
G01 X2.4490 Y4.3662 F1000.00
G01 X3.3800 Y4.3662 F1000.00
G01 X3.4093 Y4.3604 F1000.00
G01 X3.4366 Y4.3491 F1000.00
G01 X3.4607 Y4.3330 F1000.00
G01 X3.4818 Y4.3119 F1000.00
G01 X3.4981 Y4.2875 F1000.00
G01 X3.5095 Y4.2600 F1000.00
G01 X3.5152 Y4.2314 F1000.00
G01 X3.5152 Y2.1695 F1000.00
G01 X3.5095 Y2.1407 F1000.00
G01 X3.4981 Y2.1133 F1000.00
G01 X3.4820 Y2.0891 F1000.00
G01 X3.4607 Y2.0679 F1000.00
G01 X3.4363 Y2.0516 F1000.00
G01 X3.4093 Y2.0404 F1000.00
G01 X3.3803 Y2.0346 F1000.00
G01 X2.2201 Y2.0345 F1000.00
G01 X2.2159 Y2.0353 F1000.00
G01 X2.2117 Y2.0371 F1000.00
G01 X2.2078 Y2.0397 F1000.00
G01 X2.2049 Y2.0426 F1000.00
G01 X2.2022 Y2.0466 F1000.00
G01 X2.2006 Y2.0505 F1000.00
G01 X2.1997 Y2.0550 F1000.00
G01 X2.1996 Y4.1168 F1000.00
G01 X2.1696 Y4.1198 F1000.00
G01 X2.1813 Y4.1787 F1000.00
G01 X2.2044 Y4.2345 F1000.00
G01 X2.2380 Y4.2847 F1000.00
G01 X2.2811 Y4.3278 F1000.00
G01 X2.3312 Y4.3613 F1000.00
G01 X2.3869 Y4.3844 F1000.00
G01 X2.4461 Y4.3962 F1000.00
G01 X3.3830 Y4.3962 F1000.00
G01 X3.4181 Y4.3892 F1000.00
G01 X3.4508 Y4.3757 F1000.00
G01 X3.4799 Y4.3563 F1000.00
G01 X3.5051 Y4.3310 F1000.00
G01 X3.5247 Y4.3017 F1000.00
G01 X3.5384 Y4.2688 F1000.00
G01 X3.5452 Y4.2344 F1000.00
G01 X3.5452 Y2.1665 F1000.00
G01 X3.5383 Y2.1320 F1000.00
G01 X3.5247 Y2.0991 F1000.00
G01 X3.5053 Y2.0700 F1000.00
G01 X3.4798 Y2.0446 F1000.00
G01 X3.4506 Y2.0250 F1000.00
G01 X3.4180 Y2.0115 F1000.00
G01 X3.3833 Y2.0046 F1000.00
G01 X2.2171 Y2.0045 F1000.00
G01 X2.2071 Y2.0065 F1000.00
G01 X2.1975 Y2.0105 F1000.00
G01 X2.1887 Y2.0164 F1000.00
G01 X2.1816 Y2.0235 F1000.00
G01 X2.1756 Y2.0324 F1000.00
G01 X2.1717 Y2.0418 F1000.00
G01 X2.1697 Y2.0520 F1000.00
G01 X2.1696 Y4.1198 F1000.00
G01 X2.1396 Y4.1227 F1000.00
G01 X2.1525 Y4.1874 F1000.00
G01 X2.1779 Y4.2487 F1000.00
G01 X2.2147 Y4.3039 F1000.00
G01 X2.2619 Y4.3511 F1000.00
G01 X2.3170 Y4.3879 F1000.00
G01 X2.3781 Y4.4132 F1000.00
G01 X2.4431 Y4.4262 F1000.00
G01 X3.3860 Y4.4262 F1000.00
G01 X3.4268 Y4.4181 F1000.00
G01 X3.4650 Y4.4023 F1000.00
G01 X3.4990 Y4.3796 F1000.00
G01 X3.5285 Y4.3501 F1000.00
G01 X3.5513 Y4.3159 F1000.00
G01 X3.5672 Y4.2775 F1000.00
G01 X3.5752 Y4.2373 F1000.00
G01 X3.5752 Y2.1636 F1000.00
G01 X3.5672 Y2.1232 F1000.00
G01 X3.5513 Y2.0849 F1000.00
G01 X3.5286 Y2.0509 F1000.00
G01 X3.4989 Y2.0213 F1000.00
G01 X3.4648 Y1.9984 F1000.00
G01 X3.4268 Y1.9827 F1000.00
G01 X3.3862 Y1.9746 F1000.00
G01 X2.2141 Y1.9745 F1000.00
G01 X2.1984 Y1.9776 F1000.00
G01 X2.1833 Y1.9839 F1000.00
G01 X2.1695 Y1.9931 F1000.00
G01 X2.1583 Y2.0043 F1000.00
G01 X2.1491 Y2.0181 F1000.00
G01 X2.1429 Y2.0330 F1000.00
G01 X2.1397 Y2.0490 F1000.00
G01 X2.1396 Y4.1227 F1000.00
G01 X2.1096 Y4.1257 F1000.00
G01 X2.1236 Y4.1962 F1000.00
G01 X2.1513 Y4.2629 F1000.00
G01 X2.1914 Y4.3230 F1000.00
G01 X2.2428 Y4.3744 F1000.00
G01 X2.3028 Y4.4145 F1000.00
G01 X2.3693 Y4.4421 F1000.00
G01 X2.4401 Y4.4562 F1000.00
G01 X3.3889 Y4.4562 F1000.00
G01 X3.4356 Y4.4469 F1000.00
G01 X3.4792 Y4.4289 F1000.00
G01 X3.5181 Y4.4029 F1000.00
G01 X3.5518 Y4.3692 F1000.00
G01 X3.5779 Y4.3301 F1000.00
G01 X3.5961 Y4.2863 F1000.00
G01 X3.6052 Y4.2403 F1000.00
G01 X3.6052 Y2.1606 F1000.00
G01 X3.5960 Y2.1145 F1000.00
G01 X3.5779 Y2.0707 F1000.00
G01 X3.5519 Y2.0318 F1000.00
G01 X3.5181 Y1.9980 F1000.00
G01 X3.4790 Y1.9718 F1000.00
G01 X3.4355 Y1.9538 F1000.00
G01 X3.3892 Y1.9446 F1000.00
G01 X2.2112 Y1.9445 F1000.00
G01 X2.1896 Y1.9488 F1000.00
G01 X2.1691 Y1.9573 F1000.00
G01 X2.1504 Y1.9698 F1000.00
G01 X2.1350 Y1.9852 F1000.00
G01 X2.1225 Y2.0039 F1000.00
G01 X2.1140 Y2.0243 F1000.00
G01 X2.1097 Y2.0461 F1000.00
G01 X2.1096 Y4.1257 F1000.00
G01 X2.0796 Y4.1286 F1000.00
G01 X2.0948 Y4.2049 F1000.00
G01 X2.1247 Y4.2771 F1000.00
G01 X2.1681 Y4.3421 F1000.00
G01 X2.2237 Y4.3977 F1000.00
G01 X2.2886 Y4.4411 F1000.00
G01 X2.3606 Y4.4709 F1000.00
G01 X2.4372 Y4.4862 F1000.00
G01 X3.3919 Y4.4862 F1000.00
G01 X3.4443 Y4.4758 F1000.00
G01 X3.4934 Y4.4554 F1000.00
G01 X3.5372 Y4.4262 F1000.00
G01 X3.5751 Y4.3884 F1000.00
G01 X3.6045 Y4.3443 F1000.00
G01 X3.6249 Y4.2950 F1000.00
G01 X3.6352 Y4.2432 F1000.00
G01 X3.6352 Y2.1576 F1000.00
G01 X3.6249 Y2.1057 F1000.00
G01 X3.6045 Y2.0565 F1000.00
G01 X3.5752 Y2.0126 F1000.00
G01 X3.5372 Y1.9747 F1000.00
G01 X3.4932 Y1.9453 F1000.00
G01 X3.4443 Y1.9250 F1000.00
G01 X3.3922 Y1.9146 F1000.00
G01 X2.2082 Y1.9145 F1000.00
G01 X2.1809 Y1.9200 F1000.00
G01 X2.1549 Y1.9307 F1000.00
G01 X2.1313 Y1.9465 F1000.00
G01 X2.1117 Y1.9661 F1000.00
G01 X2.0959 Y1.9897 F1000.00
G01 X2.0852 Y2.0155 F1000.00
G01 X2.0797 Y2.0431 F1000.00
G01 X2.0796 Y4.1286 F1000.00
G01 X2.0496 Y4.1316 F1000.00
G01 X2.0659 Y4.2137 F1000.00
G01 X2.0981 Y4.2913 F1000.00
G01 X2.1448 Y4.3612 F1000.00
G01 X2.2045 Y4.4210 F1000.00
G01 X2.2743 Y4.4677 F1000.00
G01 X2.3518 Y4.4998 F1000.00
G01 X2.4342 Y4.5162 F1000.00
G01 X3.3948 Y4.5162 F1000.00
G01 X3.4531 Y4.5046 F1000.00
G01 X3.5077 Y4.4820 F1000.00
G01 X3.5564 Y4.4495 F1000.00
G01 X3.5984 Y4.4075 F1000.00
G01 X3.6311 Y4.3585 F1000.00
G01 X3.6537 Y4.3038 F1000.00
G01 X3.6652 Y4.2462 F1000.00
G01 X3.6652 Y2.1547 F1000.00
G01 X3.6537 Y2.0970 F1000.00
G01 X3.6311 Y2.0423 F1000.00
G01 X3.5985 Y1.9935 F1000.00
G01 X3.5563 Y1.9514 F1000.00
G01 X3.5074 Y1.9187 F1000.00
G01 X3.4531 Y1.8961 F1000.00
G01 X3.3951 Y1.8846 F1000.00
G01 X2.2053 Y1.8845 F1000.00
G01 X2.1721 Y1.8911 F1000.00
G01 X2.1407 Y1.9041 F1000.00
G01 X2.1122 Y1.9232 F1000.00
G01 X2.0884 Y1.9470 F1000.00
G01 X2.0693 Y1.9755 F1000.00
G01 X2.0564 Y2.0068 F1000.00
G01 X2.0497 Y2.0402 F1000.00
G01 X2.0496 Y4.1316 F1000.00
G01 X2.0196 Y4.1345 F1000.00
G01 X2.0371 Y4.2224 F1000.00
G01 X2.0715 Y4.3056 F1000.00
G01 X2.1215 Y4.3804 F1000.00
G01 X2.1854 Y4.4443 F1000.00
G01 X2.2601 Y4.4942 F1000.00
G01 X2.3431 Y4.5286 F1000.00
G01 X2.4313 Y4.5462 F1000.00
G01 X3.3978 Y4.5462 F1000.00
G01 X3.4618 Y4.5335 F1000.00
G01 X3.5219 Y4.5086 F1000.00
G01 X3.5755 Y4.4728 F1000.00
G01 X3.6217 Y4.4266 F1000.00
G01 X3.6576 Y4.3727 F1000.00
G01 X3.6826 Y4.3125 F1000.00
G01 X3.6952 Y4.2491 F1000.00
G01 X3.6952 Y2.1517 F1000.00
G01 X3.6825 Y2.0882 F1000.00
G01 X3.6577 Y2.0281 F1000.00
G01 X3.6218 Y1.9744 F1000.00
G01 X3.5755 Y1.9281 F1000.00
G01 X3.5216 Y1.8921 F1000.00
G01 X3.4618 Y1.8673 F1000.00
G01 X3.3981 Y1.8546 F1000.00
G01 X2.2023 Y1.8545 F1000.00
G01 X2.1634 Y1.8623 F1000.00
G01 X2.1264 Y1.8776 F1000.00
G01 X2.0931 Y1.8999 F1000.00
G01 X2.0651 Y1.9278 F1000.00
G01 X2.0427 Y1.9613 F1000.00
G01 X2.0275 Y1.9980 F1000.00
G01 X2.0197 Y2.0372 F1000.00
G01 X2.0196 Y4.1345 F1000.00
G01 X1.9896 Y4.1375 F1000.00
G01 X2.0082 Y4.2312 F1000.00
G01 X2.0449 Y4.3198 F1000.00
G01 X2.0982 Y4.3995 F1000.00
G01 X2.1663 Y4.4676 F1000.00
G01 X2.2459 Y4.5208 F1000.00
G01 X2.3343 Y4.5575 F1000.00
G01 X2.4283 Y4.5762 F1000.00
G01 X3.4007 Y4.5762 F1000.00
G01 X3.4705 Y4.5623 F1000.00
G01 X3.5361 Y4.5352 F1000.00
G01 X3.5946 Y4.4961 F1000.00
G01 X3.6450 Y4.4457 F1000.00
G01 X3.6842 Y4.3869 F1000.00
G01 X3.7114 Y4.3213 F1000.00
G01 X3.7252 Y4.2521 F1000.00
G01 X3.7252 Y2.1488 F1000.00
G01 X3.7114 Y2.0795 F1000.00
G01 X3.6842 Y2.0139 F1000.00
G01 X3.6451 Y1.9553 F1000.00
G01 X3.5946 Y1.9048 F1000.00
G01 X3.5359 Y1.8655 F1000.00
G01 X3.4706 Y1.8385 F1000.00
G01 X3.4010 Y1.8246 F1000.00
G01 X2.1994 Y1.8245 F1000.00
G01 X2.1546 Y1.8334 F1000.00
G01 X2.1122 Y1.8510 F1000.00
G01 X2.0739 Y1.8766 F1000.00
G01 X2.0418 Y1.9087 F1000.00
G01 X2.0161 Y1.9471 F1000.00
G01 X1.9987 Y1.9893 F1000.00
G01 X1.9897 Y2.0342 F1000.00
G01 X1.9896 Y4.1375 F1000.00
G01 X1.9596 Y4.1405 F1000.00
G01 X1.9794 Y4.2399 F1000.00
G01 X2.0183 Y4.3340 F1000.00
G01 X2.0749 Y4.4186 F1000.00
G01 X2.1472 Y4.4909 F1000.00
G01 X2.2317 Y4.5474 F1000.00
G01 X2.3256 Y4.5863 F1000.00
G01 X2.4254 Y4.6062 F1000.00
G01 X3.4037 Y4.6062 F1000.00
G01 X3.4793 Y4.5912 F1000.00
G01 X3.5503 Y4.5618 F1000.00
G01 X3.6137 Y4.5194 F1000.00
G01 X3.6683 Y4.4648 F1000.00
G01 X3.7108 Y4.4011 F1000.00
G01 X3.7403 Y4.3300 F1000.00
G01 X3.7552 Y4.2550 F1000.00
G01 X3.7552 Y2.1458 F1000.00
G01 X3.7402 Y2.0707 F1000.00
G01 X3.7108 Y1.9997 F1000.00
G01 X3.6684 Y1.9361 F1000.00
G01 X3.6137 Y1.8815 F1000.00
G01 X3.5501 Y1.8389 F1000.00
G01 X3.4793 Y1.8096 F1000.00
G01 X3.4040 Y1.7946 F1000.00
G01 X2.1964 Y1.7945 F1000.00
G01 X2.1459 Y1.8046 F1000.00
G01 X2.0980 Y1.8244 F1000.00
G01 X2.0548 Y1.8533 F1000.00
G01 X2.0185 Y1.8896 F1000.00
G01 X1.9895 Y1.9329 F1000.00
G01 X1.9698 Y1.9805 F1000.00
G01 X1.9597 Y2.0313 F1000.00
G01 X1.9596 Y4.1405 F1000.00
G01 X1.9296 Y4.1434 F1000.00
G01 X1.9505 Y4.2487 F1000.00
G01 X1.9918 Y4.3482 F1000.00
G01 X2.0516 Y4.4377 F1000.00
G01 X2.1280 Y4.5142 F1000.00
G01 X2.2175 Y4.5740 F1000.00
G01 X2.3168 Y4.6152 F1000.00
G01 X2.4224 Y4.6362 F1000.00
G01 X3.4066 Y4.6362 F1000.00
G01 X3.4880 Y4.6200 F1000.00
G01 X3.5645 Y4.5884 F1000.00
G01 X3.6328 Y4.5427 F1000.00
G01 X3.6916 Y4.4840 F1000.00
G01 X3.7374 Y4.4153 F1000.00
G01 X3.7691 Y4.3388 F1000.00
G01 X3.7852 Y4.2580 F1000.00
G01 X3.7852 Y2.1428 F1000.00
G01 X3.7691 Y2.0620 F1000.00
G01 X3.7374 Y1.9855 F1000.00
G01 X3.6917 Y1.9170 F1000.00
G01 X3.6328 Y1.8582 F1000.00
G01 X3.5643 Y1.8123 F1000.00
G01 X3.4881 Y1.7808 F1000.00
G01 X3.4070 Y1.7646 F1000.00
G01 X2.1935 Y1.7645 F1000.00
G01 X2.1371 Y1.7757 F1000.00
G01 X2.0838 Y1.7978 F1000.00
G01 X2.0357 Y1.8300 F1000.00
G01 X1.9952 Y1.8705 F1000.00
G01 X1.9630 Y1.9187 F1000.00
G01 X1.9410 Y1.9718 F1000.00
G01 X1.9297 Y2.0283 F1000.00
G01 X1.9296 Y4.1434 F1000.00
G01 X1.8996 Y4.1464 F1000.00
G01 X1.9217 Y4.2574 F1000.00
G01 X1.9652 Y4.3624 F1000.00
G01 X2.0283 Y4.4568 F1000.00
G01 X2.1089 Y4.5375 F1000.00
G01 X2.2033 Y4.6006 F1000.00
G01 X2.3081 Y4.6440 F1000.00
G01 X2.4194 Y4.6662 F1000.00
G01 X3.4096 Y4.6662 F1000.00
G01 X3.4968 Y4.6489 F1000.00
G01 X3.5787 Y4.6150 F1000.00
G01 X3.6520 Y4.5660 F1000.00
G01 X3.7149 Y4.5031 F1000.00
G01 X3.7640 Y4.4295 F1000.00
G01 X3.7980 Y4.3475 F1000.00
G01 X3.8152 Y4.2610 F1000.00
G01 X3.8152 Y2.1399 F1000.00
G01 X3.7979 Y2.0532 F1000.00
G01 X3.7640 Y1.9713 F1000.00
G01 X3.7150 Y1.8979 F1000.00
G01 X3.6520 Y1.8349 F1000.00
G01 X3.5785 Y1.7858 F1000.00
G01 X3.4969 Y1.7519 F1000.00
G01 X3.4099 Y1.7346 F1000.00
G01 X2.1905 Y1.7345 F1000.00
G01 X2.1283 Y1.7469 F1000.00
G01 X2.0696 Y1.7712 F1000.00
G01 X2.0166 Y1.8066 F1000.00
G01 X1.9719 Y1.8514 F1000.00
G01 X1.9364 Y1.9045 F1000.00
G01 X1.9121 Y1.9630 F1000.00
G01 X1.8997 Y2.0254 F1000.00
G01 X1.8996 Y4.1464 F1000.00
G01 X1.8696 Y4.1493 F1000.00
G01 X1.8928 Y4.2662 F1000.00
G01 X1.9386 Y4.3766 F1000.00
G01 X2.0050 Y4.4760 F1000.00
G01 X2.0898 Y4.5608 F1000.00
G01 X2.1891 Y4.6272 F1000.00
G01 X2.2993 Y4.6728 F1000.00
G01 X2.4165 Y4.6962 F1000.00
G01 X3.4125 Y4.6962 F1000.00
G01 X3.5055 Y4.6777 F1000.00
G01 X3.5929 Y4.6416 F1000.00
G01 X3.6711 Y4.5893 F1000.00
G01 X3.7382 Y4.5222 F1000.00
G01 X3.7906 Y4.4437 F1000.00
G01 X3.8268 Y4.3563 F1000.00
G01 X3.8452 Y4.2639 F1000.00
G01 X3.8452 Y2.1369 F1000.00
G01 X3.8268 Y2.0445 F1000.00
G01 X3.7906 Y1.9571 F1000.00
G01 X3.7383 Y1.8788 F1000.00
G01 X3.6711 Y1.8116 F1000.00
G01 X3.5927 Y1.7592 F1000.00
G01 X3.5056 Y1.7231 F1000.00
G01 X3.4129 Y1.7046 F1000.00
G01 X2.1875 Y1.7045 F1000.00
G01 X2.1196 Y1.7180 F1000.00
G01 X2.0554 Y1.7446 F1000.00
G01 X1.9974 Y1.7833 F1000.00
G01 X1.9486 Y1.8322 F1000.00
G01 X1.9098 Y1.8903 F1000.00
G01 X1.8833 Y1.9542 F1000.00
G01 X1.8697 Y2.0224 F1000.00
G01 X1.8696 Y4.1493 F1000.00
G01 X1.8396 Y4.1523 F1000.00
G01 X1.8640 Y4.2749 F1000.00
G01 X1.9120 Y4.3908 F1000.00
G01 X1.9816 Y4.4951 F1000.00
G01 X2.0707 Y4.5841 F1000.00
G01 X2.1748 Y4.6537 F1000.00
G01 X2.2905 Y4.7017 F1000.00
G01 X2.4135 Y4.7262 F1000.00
G01 X3.4155 Y4.7262 F1000.00
G01 X3.5143 Y4.7066 F1000.00
G01 X3.6071 Y4.6682 F1000.00
G01 X3.6902 Y4.6126 F1000.00
G01 X3.7615 Y4.5413 F1000.00
G01 X3.8172 Y4.4579 F1000.00
G01 X3.8557 Y4.3650 F1000.00
G01 X3.8752 Y4.2669 F1000.00
G01 X3.8752 Y2.1340 F1000.00
G01 X3.8556 Y2.0357 F1000.00
G01 X3.8172 Y1.9429 F1000.00
G01 X3.7616 Y1.8597 F1000.00
G01 X3.6902 Y1.7883 F1000.00
G01 X3.6069 Y1.7326 F1000.00
G01 X3.5144 Y1.6942 F1000.00
G01 X3.4158 Y1.6746 F1000.00
G01 X2.1846 Y1.6745 F1000.00
G01 X2.1108 Y1.6892 F1000.00
G01 X2.0412 Y1.7180 F1000.00
G01 X1.9783 Y1.7600 F1000.00
G01 X1.9252 Y1.8131 F1000.00
G01 X1.8832 Y1.8760 F1000.00
G01 X1.8544 Y1.9455 F1000.00
G01 X1.8397 Y2.0194 F1000.00
G01 X1.8396 Y4.1523 F1000.00
G01 X1.8096 Y4.1552 F1000.00
G01 X1.8351 Y4.2837 F1000.00
G01 X1.8854 Y4.4050 F1000.00
G01 X1.9583 Y4.5142 F1000.00
G01 X2.0515 Y4.6074 F1000.00
G01 X2.1606 Y4.6803 F1000.00
G01 X2.2818 Y4.7305 F1000.00
G01 X2.4106 Y4.7562 F1000.00
G01 X3.4184 Y4.7562 F1000.00
G01 X3.5230 Y4.7354 F1000.00
G01 X3.6213 Y4.6947 F1000.00
G01 X3.7093 Y4.6359 F1000.00
G01 X3.7848 Y4.5604 F1000.00
G01 X3.8438 Y4.4722 F1000.00
G01 X3.8845 Y4.3738 F1000.00
G01 X3.9052 Y4.2698 F1000.00
G01 X3.9052 Y2.1310 F1000.00
G01 X3.8845 Y2.0270 F1000.00
G01 X3.8438 Y1.9286 F1000.00
G01 X3.7849 Y1.8405 F1000.00
G01 X3.7093 Y1.7650 F1000.00
G01 X3.6211 Y1.7060 F1000.00
G01 X3.5231 Y1.6654 F1000.00
G01 X3.4188 Y1.6446 F1000.00
G01 X2.1816 Y1.6445 F1000.00
G01 X2.1021 Y1.6603 F1000.00
G01 X2.0270 Y1.6915 F1000.00
G01 X1.9592 Y1.7367 F1000.00
G01 X1.9019 Y1.7940 F1000.00
G01 X1.8566 Y1.8618 F1000.00
G01 X1.8256 Y1.9367 F1000.00
G01 X1.8097 Y2.0165 F1000.00
G01 X1.8096 Y4.1552 F1000.00
G01 X1.7796 Y4.1582 F1000.00
G01 X1.8063 Y4.2924 F1000.00
G01 X1.8588 Y4.4192 F1000.00
G01 X1.9350 Y4.5333 F1000.00
G01 X2.0324 Y4.6307 F1000.00
G01 X2.1464 Y4.7069 F1000.00
G01 X2.2730 Y4.7594 F1000.00
G01 X2.4076 Y4.7862 F1000.00
G01 X3.4214 Y4.7862 F1000.00
G01 X3.5318 Y4.7643 F1000.00
G01 X3.6355 Y4.7213 F1000.00
G01 X3.7285 Y4.6592 F1000.00
G01 X3.8081 Y4.5796 F1000.00
G01 X3.8703 Y4.4864 F1000.00
G01 X3.9134 Y4.3826 F1000.00
G01 X3.9352 Y4.2728 F1000.00
G01 X3.9352 Y2.1280 F1000.00
G01 X3.9133 Y2.0182 F1000.00
G01 X3.8704 Y1.9144 F1000.00
G01 X3.8082 Y1.8214 F1000.00
G01 X3.7285 Y1.7417 F1000.00
G01 X3.6354 Y1.6794 F1000.00
G01 X3.5319 Y1.6365 F1000.00
G01 X3.4218 Y1.6146 F1000.00
G01 X2.1787 Y1.6145 F1000.00
G01 X2.0933 Y1.6315 F1000.00
G01 X2.0128 Y1.6649 F1000.00
G01 X1.9401 Y1.7134 F1000.00
G01 X1.8786 Y1.7749 F1000.00
G01 X1.8300 Y1.8476 F1000.00
G01 X1.7967 Y1.9280 F1000.00
G01 X1.7797 Y2.0135 F1000.00
G01 X1.7796 Y4.1582 F1000.00
G01 X1.7496 Y4.1611 F1000.00
G01 X1.7774 Y4.3012 F1000.00
G01 X1.8322 Y4.4334 F1000.00
G01 X1.9117 Y4.5524 F1000.00
G01 X2.0133 Y4.6540 F1000.00
G01 X2.1322 Y4.7335 F1000.00
G01 X2.2643 Y4.7882 F1000.00
G01 X2.4046 Y4.8162 F1000.00
G01 X3.4243 Y4.8162 F1000.00
G01 X3.5405 Y4.7931 F1000.00
G01 X3.6497 Y4.7479 F1000.00
G01 X3.7476 Y4.6825 F1000.00
G01 X3.8314 Y4.5987 F1000.00
G01 X3.8969 Y4.5006 F1000.00
G01 X3.9422 Y4.3913 F1000.00
G01 X3.9652 Y4.2757 F1000.00
G01 X3.9652 Y2.1251 F1000.00
G01 X3.9422 Y2.0095 F1000.00
G01 X3.8969 Y1.9002 F1000.00
G01 X3.8315 Y1.8023 F1000.00
G01 X3.7476 Y1.7184 F1000.00
G01 X3.6496 Y1.6529 F1000.00
G01 X3.5407 Y1.6077 F1000.00
G01 X3.4247 Y1.5846 F1000.00
G01 X2.1757 Y1.5845 F1000.00
G01 X2.0846 Y1.6026 F1000.00
G01 X1.9986 Y1.6383 F1000.00
G01 X1.9210 Y1.6901 F1000.00
G01 X1.8553 Y1.7557 F1000.00
G01 X1.8034 Y1.8334 F1000.00
G01 X1.7679 Y1.9192 F1000.00
G01 X1.7497 Y2.0106 F1000.00
G01 X1.7496 Y4.1611 F1000.00
G01 X1.7196 Y4.1641 F1000.00
G01 X1.7486 Y4.3099 F1000.00
G01 X1.8057 Y4.4476 F1000.00
G01 X1.8884 Y4.5716 F1000.00
G01 X1.9942 Y4.6773 F1000.00
G01 X2.1180 Y4.7601 F1000.00
G01 X2.2555 Y4.8171 F1000.00
G01 X2.4017 Y4.8462 F1000.00
G01 X3.4273 Y4.8462 F1000.00
G01 X3.5492 Y4.8220 F1000.00
G01 X3.6639 Y4.7745 F1000.00
G01 X3.7667 Y4.7058 F1000.00
G01 X3.8548 Y4.6178 F1000.00
G01 X3.9235 Y4.5148 F1000.00
G01 X3.9711 Y4.4001 F1000.00
G01 X3.9952 Y4.2787 F1000.00
G01 X3.9952 Y2.1221 F1000.00
G01 X3.9710 Y2.0007 F1000.00
G01 X3.9235 Y1.8860 F1000.00
G01 X3.8548 Y1.7832 F1000.00
G01 X3.7667 Y1.6951 F1000.00
G01 X3.6638 Y1.6263 F1000.00
G01 X3.5494 Y1.5789 F1000.00
G01 X3.4277 Y1.5546 F1000.00
G01 X2.1728 Y1.5545 F1000.00
G01 X2.0758 Y1.5738 F1000.00
G01 X1.9843 Y1.6117 F1000.00
G01 X1.9018 Y1.6668 F1000.00
G01 X1.8320 Y1.7366 F1000.00
G01 X1.7769 Y1.8192 F1000.00
G01 X1.7390 Y1.9105 F1000.00
G01 X1.7197 Y2.0076 F1000.00
G01 X1.7196 Y4.1641 F1000.00
G01 X1.6896 Y4.1670 F1000.00
G01 X1.7198 Y4.3187 F1000.00
G01 X1.7791 Y4.4619 F1000.00
G01 X1.8651 Y4.5907 F1000.00
G01 X1.9750 Y4.7006 F1000.00
G01 X2.1038 Y4.7867 F1000.00
G01 X2.2468 Y4.8459 F1000.00
G01 X2.3987 Y4.8762 F1000.00
G01 X3.4303 Y4.8762 F1000.00
G01 X3.5580 Y4.8508 F1000.00
G01 X3.6781 Y4.8011 F1000.00
G01 X3.7858 Y4.7291 F1000.00
G01 X3.8781 Y4.6369 F1000.00
G01 X3.9501 Y4.5290 F1000.00
G01 X3.9999 Y4.4088 F1000.00
G01 X4.0252 Y4.2816 F1000.00
G01 X4.0252 Y2.1192 F1000.00
G01 X3.9999 Y1.9920 F1000.00
G01 X3.9501 Y1.8718 F1000.00
G01 X3.8781 Y1.7640 F1000.00
G01 X3.7858 Y1.6718 F1000.00
G01 X3.6780 Y1.5997 F1000.00
G01 X3.5582 Y1.5500 F1000.00
G01 X3.4306 Y1.5246 F1000.00
G01 X2.1698 Y1.5245 F1000.00
G01 X2.0671 Y1.5450 F1000.00
G01 X1.9701 Y1.5851 F1000.00
G01 X1.8827 Y1.6435 F1000.00
G01 X1.8087 Y1.7175 F1000.00
G01 X1.7503 Y1.8050 F1000.00
G01 X1.7102 Y1.9017 F1000.00
G01 X1.6897 Y2.0046 F1000.00
G01 X1.6896 Y4.1670 F1000.00
G01 X1.6596 Y4.1700 F1000.00
G01 X1.6909 Y4.3274 F1000.00
G01 X1.7525 Y4.4761 F1000.00
G01 X1.8418 Y4.6098 F1000.00
G01 X1.9559 Y4.7239 F1000.00
G01 X2.0896 Y4.8132 F1000.00
G01 X2.2380 Y4.8748 F1000.00
G01 X2.3958 Y4.9062 F1000.00
G01 X3.4332 Y4.9062 F1000.00
G01 X3.5667 Y4.8797 F1000.00
G01 X3.6923 Y4.8277 F1000.00
G01 X3.8049 Y4.7524 F1000.00
G01 X3.9014 Y4.6560 F1000.00
G01 X3.9767 Y4.5432 F1000.00
G01 X4.0288 Y4.4176 F1000.00
G01 X4.0552 Y4.2846 F1000.00
G01 X4.0552 Y2.1162 F1000.00
G01 X4.0287 Y1.9832 F1000.00
G01 X3.9767 Y1.8576 F1000.00
G01 X3.9014 Y1.7449 F1000.00
G01 X3.8050 Y1.6485 F1000.00
G01 X3.6922 Y1.5731 F1000.00
G01 X3.5669 Y1.5212 F1000.00
G01 X3.4336 Y1.4946 F1000.00
G01 X2.1669 Y1.4945 F1000.00
G01 X2.0583 Y1.5161 F1000.00
G01 X1.9559 Y1.5585 F1000.00
G01 X1.8636 Y1.6202 F1000.00
G01 X1.7854 Y1.6984 F1000.00
G01 X1.7237 Y1.7908 F1000.00
G01 X1.6814 Y1.8930 F1000.00
G01 X1.6597 Y2.0017 F1000.00
G01 X1.6596 Y4.1700 F1000.00
G01 X1.6296 Y4.1730 F1000.00
G01 X1.6621 Y4.3362 F1000.00
G01 X1.7259 Y4.4903 F1000.00
G01 X1.8185 Y4.6289 F1000.00
G01 X1.9368 Y4.7472 F1000.00
G01 X2.0753 Y4.8398 F1000.00
G01 X2.2292 Y4.9036 F1000.00
G01 X2.3928 Y4.9362 F1000.00
G01 X3.4362 Y4.9362 F1000.00
G01 X3.5755 Y4.9085 F1000.00
G01 X3.7065 Y4.8543 F1000.00
G01 X3.8241 Y4.7757 F1000.00
G01 X3.9247 Y4.6752 F1000.00
G01 X4.0033 Y4.5574 F1000.00
G01 X4.0576 Y4.4263 F1000.00
G01 X4.0852 Y4.2875 F1000.00
G01 X4.0852 Y2.1132 F1000.00
G01 X4.0575 Y1.9745 F1000.00
G01 X4.0033 Y1.8434 F1000.00
G01 X3.9247 Y1.7258 F1000.00
G01 X3.8241 Y1.6252 F1000.00
G01 X3.7064 Y1.5465 F1000.00
G01 X3.5757 Y1.4923 F1000.00
G01 X3.4366 Y1.4646 F1000.00
G01 X2.1639 Y1.4645 F1000.00
G01 X2.0496 Y1.4873 F1000.00
G01 X1.9417 Y1.5319 F1000.00
G01 X1.8445 Y1.5969 F1000.00
G01 X1.7621 Y1.6792 F1000.00
G01 X1.6971 Y1.7766 F1000.00
G01 X1.6525 Y1.8842 F1000.00
G01 X1.6297 Y1.9987 F1000.00
G01 X1.6296 Y4.1730 F1000.00
G01 X1.5996 Y4.1759 F1000.00
G01 X1.6332 Y4.3449 F1000.00
G01 X1.6993 Y4.5045 F1000.00
G01 X1.7952 Y4.6480 F1000.00
G01 X1.9176 Y4.7705 F1000.00
G01 X2.0611 Y4.8664 F1000.00
G01 X2.2205 Y4.9324 F1000.00
G01 X2.3898 Y4.9662 F1000.00
G01 X3.4391 Y4.9662 F1000.00
G01 X3.5842 Y4.9373 F1000.00
G01 X3.7207 Y4.8809 F1000.00
G01 X3.8432 Y4.7990 F1000.00
G01 X3.9480 Y4.6943 F1000.00
G01 X4.0299 Y4.5716 F1000.00
G01 X4.0864 Y4.4351 F1000.00
G01 X4.1152 Y4.2905 F1000.00
G01 X4.1152 Y2.1103 F1000.00
G01 X4.0864 Y1.9657 F1000.00
G01 X4.0299 Y1.8292 F1000.00
G01 X3.9480 Y1.7067 F1000.00
G01 X3.8432 Y1.6019 F1000.00
G01 X3.7207 Y1.5199 F1000.00
G01 X3.5845 Y1.4635 F1000.00
G01 X3.4395 Y1.4346 F1000.00
G01 X2.1609 Y1.4345 F1000.00
G01 X2.0408 Y1.4584 F1000.00
G01 X1.9275 Y1.5054 F1000.00
G01 X1.8253 Y1.5736 F1000.00
G01 X1.7388 Y1.6601 F1000.00
G01 X1.6705 Y1.7624 F1000.00
G01 X1.6237 Y1.8755 F1000.00
G01 X1.5997 Y1.9958 F1000.00
G01 X1.5996 Y4.1759 F1000.00
G01 X1.5696 Y4.1789 F1000.00
G01 X1.6044 Y4.3537 F1000.00
G01 X1.6727 Y4.5187 F1000.00
G01 X1.7719 Y4.6672 F1000.00
G01 X1.8985 Y4.7938 F1000.00
G01 X2.0469 Y4.8930 F1000.00
G01 X2.2117 Y4.9613 F1000.00
G01 X2.3869 Y4.9962 F1000.00
G01 X3.4421 Y4.9962 F1000.00
G01 X3.5930 Y4.9662 F1000.00
G01 X3.7349 Y4.9075 F1000.00
G01 X3.8623 Y4.8223 F1000.00
G01 X3.9713 Y4.7134 F1000.00
G01 X4.0565 Y4.5858 F1000.00
G01 X4.1153 Y4.4438 F1000.00
G01 X4.1452 Y4.2935 F1000.00
G01 X4.1452 Y2.1073 F1000.00
G01 X4.1152 Y1.9569 F1000.00
G01 X4.0565 Y1.8150 F1000.00
G01 X3.9713 Y1.6875 F1000.00
G01 X3.8623 Y1.5786 F1000.00
G01 X3.7349 Y1.4934 F1000.00
G01 X3.5932 Y1.4346 F1000.00
G01 X3.4425 Y1.4046 F1000.00
G01 X2.1580 Y1.4045 F1000.00
G01 X2.0321 Y1.4296 F1000.00
G01 X1.9133 Y1.4788 F1000.00
G01 X1.8062 Y1.5503 F1000.00
G01 X1.7155 Y1.6410 F1000.00
G01 X1.6439 Y1.7482 F1000.00
G01 X1.5948 Y1.8667 F1000.00
G01 X1.5697 Y1.9928 F1000.00
G01 X1.5696 Y4.1789 F1000.00
G01 X1.5396 Y4.1818 F1000.00
G01 X1.5755 Y4.3624 F1000.00
G01 X1.6461 Y4.5329 F1000.00
G01 X1.7486 Y4.6863 F1000.00
G01 X1.8794 Y4.8171 F1000.00
G01 X2.0327 Y4.9196 F1000.00
G01 X2.2030 Y4.9901 F1000.00
G01 X2.3839 Y5.0262 F1000.00
G01 X3.4450 Y5.0262 F1000.00
G01 X3.6017 Y4.9950 F1000.00
G01 X3.7491 Y4.9340 F1000.00
G01 X3.8814 Y4.8456 F1000.00
G01 X3.9946 Y4.7325 F1000.00
G01 X4.0830 Y4.6000 F1000.00
G01 X4.1441 Y4.4526 F1000.00
G01 X4.1752 Y4.2964 F1000.00
G01 X4.1752 Y2.1044 F1000.00
G01 X4.1441 Y1.9482 F1000.00
G01 X4.0831 Y1.8008 F1000.00
G01 X3.9946 Y1.6684 F1000.00
G01 X3.8815 Y1.5553 F1000.00
G01 X3.7491 Y1.4668 F1000.00
G01 X3.6020 Y1.4058 F1000.00
G01 X3.4454 Y1.3746 F1000.00
G01 X2.1550 Y1.3745 F1000.00
G01 X2.0233 Y1.4007 F1000.00
G01 X1.8991 Y1.4522 F1000.00
G01 X1.7871 Y1.5270 F1000.00
G01 X1.6922 Y1.6219 F1000.00
G01 X1.6173 Y1.7339 F1000.00
G01 X1.5660 Y1.8580 F1000.00
G01 X1.5397 Y1.9898 F1000.00
G01 X1.5396 Y4.1818 F1000.00
G01 X1.5096 Y4.1848 F1000.00
G01 X1.5467 Y4.3712 F1000.00
G01 X1.6195 Y4.5471 F1000.00
G01 X1.7253 Y4.7054 F1000.00
G01 X1.8603 Y4.8404 F1000.00
G01 X2.0185 Y4.9462 F1000.00
G01 X2.1942 Y5.0190 F1000.00
G01 X2.3810 Y5.0562 F1000.00
G01 X3.4480 Y5.0562 F1000.00
G01 X3.6104 Y5.0239 F1000.00
G01 X3.7634 Y4.9606 F1000.00
G01 X3.9006 Y4.8690 F1000.00
G01 X4.0179 Y4.7516 F1000.00
G01 X4.1096 Y4.6142 F1000.00
G01 X4.1730 Y4.4613 F1000.00
G01 X4.2052 Y4.2994 F1000.00
G01 X4.2052 Y2.1014 F1000.00
G01 X4.1729 Y1.9394 F1000.00
G01 X4.1096 Y1.7866 F1000.00
G01 X4.0179 Y1.6493 F1000.00
G01 X3.9006 Y1.5320 F1000.00
G01 X3.7633 Y1.4402 F1000.00
G01 X3.6107 Y1.3770 F1000.00
G01 X3.4484 Y1.3446 F1000.00
G01 X2.1521 Y1.3445 F1000.00
G01 X2.0146 Y1.3719 F1000.00
G01 X1.8849 Y1.4256 F1000.00
G01 X1.7680 Y1.5037 F1000.00
G01 X1.6689 Y1.6027 F1000.00
G01 X1.5908 Y1.7197 F1000.00
G01 X1.5371 Y1.8492 F1000.00
G01 X1.5097 Y1.9869 F1000.00
G01 X1.5096 Y4.1848 F1000.00
G01 X1.4796 Y4.1877 F1000.00
G01 X1.5178 Y4.3799 F1000.00
G01 X1.5930 Y4.5613 F1000.00
G01 X1.7020 Y4.7245 F1000.00
G01 X1.8411 Y4.8637 F1000.00
G01 X2.0043 Y4.9727 F1000.00
G01 X2.1855 Y5.0478 F1000.00
G01 X2.3780 Y5.0862 F1000.00
G01 X3.4509 Y5.0862 F1000.00
G01 X3.6192 Y5.0527 F1000.00
G01 X3.7776 Y4.9872 F1000.00
G01 X3.9197 Y4.8923 F1000.00
G01 X4.0412 Y4.7708 F1000.00
G01 X4.1362 Y4.6284 F1000.00
G01 X4.2018 Y4.4701 F1000.00
G01 X4.2352 Y4.3023 F1000.00
G01 X4.2352 Y2.0984 F1000.00
G01 X4.2018 Y1.9307 F1000.00
G01 X4.1362 Y1.7724 F1000.00
G01 X4.0412 Y1.6302 F1000.00
G01 X3.9197 Y1.5087 F1000.00
G01 X3.7775 Y1.4136 F1000.00
G01 X3.6195 Y1.3481 F1000.00
G01 X3.4514 Y1.3146 F1000.00
G01 X2.1491 Y1.3145 F1000.00
G01 X2.0058 Y1.3430 F1000.00
G01 X1.8707 Y1.3990 F1000.00
G01 X1.7489 Y1.4804 F1000.00
G01 X1.6456 Y1.5836 F1000.00
G01 X1.5642 Y1.7055 F1000.00
G01 X1.5083 Y1.8404 F1000.00
G01 X1.4797 Y1.9839 F1000.00
G01 X1.4796 Y4.1877 F1000.00
G01 X1.4496 Y4.1907 F1000.00
G01 X1.4890 Y4.3887 F1000.00
G01 X1.5664 Y4.5755 F1000.00
G01 X1.6787 Y4.7437 F1000.00
G01 X1.8220 Y4.8870 F1000.00
G01 X1.9901 Y4.9993 F1000.00
G01 X2.1767 Y5.0767 F1000.00
G01 X2.3751 Y5.1162 F1000.00
G01 X3.4539 Y5.1162 F1000.00
G01 X3.6279 Y5.0816 F1000.00
G01 X3.7918 Y5.0138 F1000.00
G01 X3.9388 Y4.9156 F1000.00
G01 X4.0645 Y4.7899 F1000.00
G01 X4.1628 Y4.6426 F1000.00
G01 X4.2307 Y4.4788 F1000.00
G01 X4.2652 Y4.3053 F1000.00
G01 X4.2652 Y2.0955 F1000.00
G01 X4.2306 Y1.9219 F1000.00
G01 X4.1628 Y1.7582 F1000.00
G01 X4.0645 Y1.6111 F1000.00
G01 X3.9389 Y1.4854 F1000.00
G01 X3.7917 Y1.3870 F1000.00
G01 X3.6283 Y1.3193 F1000.00
G01 X3.4543 Y1.2846 F1000.00
G01 X2.1462 Y1.2845 F1000.00
G01 X1.9971 Y1.3142 F1000.00
G01 X1.8565 Y1.3724 F1000.00
G01 X1.7297 Y1.4571 F1000.00
G01 X1.6223 Y1.5645 F1000.00
G01 X1.5376 Y1.6913 F1000.00
G01 X1.4794 Y1.8317 F1000.00
G01 X1.4497 Y1.9810 F1000.00
G01 X1.4496 Y4.1907 F1000.00
G01 X1.4196 Y4.1936 F1000.00
G01 X1.4601 Y4.3974 F1000.00
G01 X1.5398 Y4.5897 F1000.00
G01 X1.6554 Y4.7628 F1000.00
G01 X1.8029 Y4.9103 F1000.00
G01 X1.9758 Y5.0259 F1000.00
G01 X2.1680 Y5.1055 F1000.00
G01 X2.3721 Y5.1462 F1000.00
G01 X3.4568 Y5.1462 F1000.00
G01 X3.6367 Y5.1104 F1000.00
G01 X3.8060 Y5.0404 F1000.00
G01 X3.9579 Y4.9389 F1000.00
G01 X4.0878 Y4.8090 F1000.00
G01 X4.1894 Y4.6568 F1000.00
G01 X4.2595 Y4.4876 F1000.00
G01 X4.2952 Y4.3082 F1000.00
G01 X4.2952 Y2.0925 F1000.00
G01 X4.2595 Y1.9132 F1000.00
G01 X4.1894 Y1.7439 F1000.00
G01 X4.0878 Y1.5919 F1000.00
G01 X3.9580 Y1.4621 F1000.00
G01 X3.8060 Y1.3604 F1000.00
G01 X3.6370 Y1.2904 F1000.00
G01 X3.4573 Y1.2546 F1000.00
G01 X2.1432 Y1.2545 F1000.00
G01 X1.9883 Y1.2853 F1000.00
G01 X1.8422 Y1.3458 F1000.00
G01 X1.7106 Y1.4338 F1000.00
G01 X1.5990 Y1.5454 F1000.00
G01 X1.5110 Y1.6771 F1000.00
G01 X1.4506 Y1.8229 F1000.00
G01 X1.4197 Y1.9780 F1000.00
G01 X1.4196 Y4.1936 F1000.00
G01 X1.3896 Y4.1966 F1000.00
G01 X1.4313 Y4.4062 F1000.00
G01 X1.5132 Y4.6039 F1000.00
G01 X1.6321 Y4.7819 F1000.00
G01 X1.7838 Y4.9336 F1000.00
G01 X1.9616 Y5.0525 F1000.00
G01 X2.1592 Y5.1344 F1000.00
G01 X2.3691 Y5.1762 F1000.00
G01 X3.4598 Y5.1762 F1000.00
G01 X3.6454 Y5.1393 F1000.00
G01 X3.8202 Y5.0670 F1000.00
G01 X3.9770 Y4.9622 F1000.00
G01 X4.1111 Y4.8281 F1000.00
G01 X4.2160 Y4.6710 F1000.00
G01 X4.2884 Y4.4963 F1000.00
G01 X4.3252 Y4.3112 F1000.00
G01 X4.3252 Y2.0896 F1000.00
G01 X4.2883 Y1.9044 F1000.00
G01 X4.2160 Y1.7297 F1000.00
G01 X4.1111 Y1.5728 F1000.00
G01 X3.9771 Y1.4388 F1000.00
G01 X3.8202 Y1.3339 F1000.00
G01 X3.6458 Y1.2616 F1000.00
G01 X3.4602 Y1.2246 F1000.00
G01 X2.1403 Y1.2245 F1000.00
G01 X1.9795 Y1.2565 F1000.00
G01 X1.8280 Y1.3193 F1000.00
G01 X1.6915 Y1.4105 F1000.00
G01 X1.5757 Y1.5262 F1000.00
G01 X1.4844 Y1.6629 F1000.00
G01 X1.4217 Y1.8142 F1000.00
G01 X1.3897 Y1.9750 F1000.00
G01 X1.3896 Y4.1966 F1000.00
G01 X1.3596 Y4.1995 F1000.00
G01 X1.4024 Y4.4149 F1000.00
G01 X1.4866 Y4.6181 F1000.00
G01 X1.6088 Y4.8010 F1000.00
G01 X1.7646 Y4.9569 F1000.00
G01 X1.9474 Y5.0791 F1000.00
G01 X2.1504 Y5.1632 F1000.00
G01 X2.3662 Y5.2062 F1000.00
G01 X3.4627 Y5.2062 F1000.00
G01 X3.6542 Y5.1681 F1000.00
G01 X3.8344 Y5.0936 F1000.00
G01 X3.9962 Y4.9855 F1000.00
G01 X4.1344 Y4.8472 F1000.00
G01 X4.2426 Y4.6852 F1000.00
G01 X4.3172 Y4.5051 F1000.00
G01 X4.3552 Y4.3141 F1000.00
G01 X4.3552 Y2.0866 F1000.00
G01 X4.3172 Y1.8957 F1000.00
G01 X4.2426 Y1.7155 F1000.00
G01 X4.1344 Y1.5537 F1000.00
G01 X3.9962 Y1.4155 F1000.00
G01 X3.8344 Y1.3073 F1000.00
G01 X3.6545 Y1.2327 F1000.00
G01 X3.4632 Y1.1946 F1000.00
G01 X2.1373 Y1.1945 F1000.00
G01 X1.9708 Y1.2276 F1000.00
G01 X1.8138 Y1.2927 F1000.00
G01 X1.6724 Y1.3872 F1000.00
G01 X1.5524 Y1.5071 F1000.00
G01 X1.4578 Y1.6487 F1000.00
G01 X1.3929 Y1.8054 F1000.00
G01 X1.3597 Y1.9721 F1000.00
G01 X1.3596 Y4.1995 F1000.00
G01 X1.3296 Y4.2025 F1000.00
G01 X1.3736 Y4.4237 F1000.00
G01 X1.4600 Y4.6324 F1000.00
G01 X1.5855 Y4.8201 F1000.00
G01 X1.7455 Y4.9802 F1000.00
G01 X1.9332 Y5.1057 F1000.00
G01 X2.1417 Y5.1921 F1000.00
G01 X2.3632 Y5.2362 F1000.00
G01 X3.4657 Y5.2362 F1000.00
G01 X3.6629 Y5.1970 F1000.00
G01 X3.8486 Y5.1202 F1000.00
G01 X4.0153 Y5.0088 F1000.00
G01 X4.1577 Y4.8664 F1000.00
G01 X4.2692 Y4.6994 F1000.00
G01 X4.3461 Y4.5138 F1000.00
G01 X4.3852 Y4.3171 F1000.00
G01 X4.3852 Y2.0836 F1000.00
G01 X4.3460 Y1.8869 F1000.00
G01 X4.2692 Y1.7013 F1000.00
G01 X4.1577 Y1.5346 F1000.00
G01 X4.0154 Y1.3922 F1000.00
G01 X3.8486 Y1.2807 F1000.00
G01 X3.6633 Y1.2039 F1000.00
G01 X3.4662 Y1.1646 F1000.00
G01 X2.1343 Y1.1645 F1000.00
G01 X1.9620 Y1.1988 F1000.00
G01 X1.7996 Y1.2661 F1000.00
G01 X1.6532 Y1.3639 F1000.00
G01 X1.5291 Y1.4880 F1000.00
G01 X1.4312 Y1.6345 F1000.00
G01 X1.3640 Y1.7967 F1000.00
G01 X1.3297 Y1.9691 F1000.00
G01 X1.3296 Y4.2025 F1000.00
G01 X1.2996 Y4.2054 F1000.00
G01 X1.3447 Y4.4324 F1000.00
G01 X1.4334 Y4.6466 F1000.00
G01 X1.5622 Y4.8393 F1000.00
G01 X1.7264 Y5.0035 F1000.00
G01 X1.9190 Y5.1322 F1000.00
G01 X2.1329 Y5.2209 F1000.00
G01 X2.3603 Y5.2662 F1000.00
G01 X3.4686 Y5.2662 F1000.00
G01 X3.6716 Y5.2258 F1000.00
G01 X3.8628 Y5.1468 F1000.00
G01 X4.0344 Y5.0321 F1000.00
G01 X4.1811 Y4.8855 F1000.00
G01 X4.2957 Y4.7136 F1000.00
G01 X4.3749 Y4.5226 F1000.00
G01 X4.4152 Y4.3200 F1000.00
G01 X4.4152 Y2.0807 F1000.00
G01 X4.3748 Y1.8782 F1000.00
G01 X4.2958 Y1.6871 F1000.00
G01 X4.1810 Y1.5154 F1000.00
G01 X4.0345 Y1.3689 F1000.00
G01 X3.8628 Y1.2541 F1000.00
G01 X3.6721 Y1.1750 F1000.00
G01 X3.4691 Y1.1346 F1000.00
G01 X2.1314 Y1.1345 F1000.00
G01 X1.9533 Y1.1700 F1000.00
G01 X1.7854 Y1.2395 F1000.00
G01 X1.6341 Y1.3406 F1000.00
G01 X1.5058 Y1.4689 F1000.00
G01 X1.4047 Y1.6203 F1000.00
G01 X1.3352 Y1.7879 F1000.00
G01 X1.2997 Y1.9662 F1000.00
G01 X1.2996 Y4.2054 F1000.00
G01 X1.2696 Y4.2084 F1000.00
G01 X1.3159 Y4.4412 F1000.00
G01 X1.4069 Y4.6608 F1000.00
G01 X1.5389 Y4.8584 F1000.00
G01 X1.7073 Y5.0268 F1000.00
G01 X1.9048 Y5.1588 F1000.00
G01 X2.1245 Y5.2498 F1000.00
G01 X2.3573 Y5.2962 F1000.00
G01 X3.4716 Y5.2962 F1000.00
G01 X3.6804 Y5.2547 F1000.00
G01 X3.8770 Y5.1733 F1000.00
G01 X4.0536 Y5.0553 F1000.00
G01 X4.2044 Y4.9045 F1000.00
G01 X4.3223 Y4.7278 F1000.00
G01 X4.4038 Y4.5314 F1000.00
G01 X4.4452 Y4.3230 F1000.00
G01 X4.4452 Y2.0777 F1000.00
G01 X4.4037 Y1.8694 F1000.00
G01 X4.3223 Y1.6729 F1000.00
G01 X4.2043 Y1.4963 F1000.00
G01 X4.0536 Y1.3456 F1000.00
G01 X3.8770 Y1.2275 F1000.00
G01 X3.6808 Y1.1462 F1000.00
G01 X3.4721 Y1.1046 F1000.00
G01 X2.1284 Y1.1045 F1000.00
G01 X1.9445 Y1.1411 F1000.00
G01 X1.7712 Y1.2129 F1000.00
G01 X1.6150 Y1.3173 F1000.00
G01 X1.4825 Y1.4498 F1000.00
G01 X1.3781 Y1.6061 F1000.00
G01 X1.3063 Y1.7795 F1000.00
G01 X1.2697 Y1.9632 F1000.00
G01 X1.2696 Y4.2084 F1000.00
G01 X1.2396 Y4.2104 F1000.00
G01 X1.2396 Y4.2111 F1000.00
G01 X1.2867 Y4.4483 F1000.00
G01 X1.2877 Y4.4515 F1000.00
G01 X1.3806 Y4.6755 F1000.00
G01 X1.5156 Y4.8774 F1000.00
G01 X1.6884 Y5.0502 F1000.00
G01 X1.8900 Y5.1851 F1000.00
G01 X2.1136 Y5.2778 F1000.00
G01 X2.1175 Y5.2791 F1000.00
G01 X2.3550 Y5.3262 F1000.00
G01 X3.4748 Y5.3262 F1000.00
G01 X3.6891 Y5.2836 F1000.00
G01 X3.8893 Y5.2007 F1000.00
G01 X3.8928 Y5.1989 F1000.00
G01 X4.0732 Y5.0781 F1000.00
G01 X4.2269 Y4.9245 F1000.00
G01 X4.2289 Y4.9219 F1000.00
G01 X4.3490 Y4.7419 F1000.00
G01 X4.4324 Y4.5405 F1000.00
G01 X4.4752 Y4.3250 F1000.00
G01 X4.4752 Y2.0757 F1000.00
G01 X4.4326 Y1.8608 F1000.00
G01 X4.3494 Y1.6599 F1000.00
G01 X4.3479 Y1.6571 F1000.00
G01 X4.2275 Y1.4771 F1000.00
G01 X4.0723 Y1.3220 F1000.00
G01 X3.8908 Y1.2008 F1000.00
G01 X3.6891 Y1.1172 F1000.00
G01 X3.4741 Y1.0746 F1000.00
G01 X2.1254 Y1.0746 F1000.00
G01 X1.9352 Y1.1125 F1000.00
G01 X1.7581 Y1.1859 F1000.00
G01 X1.5954 Y1.2945 F1000.00
G01 X1.4593 Y1.4306 F1000.00
G01 X1.3517 Y1.5915 F1000.00
G01 X1.2774 Y1.7712 F1000.00
G01 X1.2400 Y1.9588 F1000.00
G01 X1.2397 Y1.9610 F1000.00
G01 X1.2397 Y2.0574 F1000.00
G01 X1.2396 Y4.2104 F1000.00
G01 X1.2097 Y4.2140 F1000.00
G01 X1.2575 Y4.4552 F1000.00
G01 X1.2596 Y4.4621 F1000.00
G01 X1.3542 Y4.6898 F1000.00
G01 X1.4924 Y4.8966 F1000.00
G01 X1.6692 Y5.0734 F1000.00
G01 X1.8741 Y5.2105 F1000.00
G01 X1.8795 Y5.2133 F1000.00
G01 X2.1031 Y5.3060 F1000.00
G01 X2.1106 Y5.3083 F1000.00
G01 X2.3483 Y5.3556 F1000.00
G01 X2.3546 Y5.3562 F1000.00
G01 X3.4749 Y5.3562 F1000.00
G01 X3.4786 Y5.3559 F1000.00
G01 X3.6968 Y5.3126 F1000.00
G01 X3.9018 Y5.2280 F1000.00
G01 X3.9086 Y5.2244 F1000.00
G01 X4.0922 Y5.1014 F1000.00
G01 X4.2487 Y4.9451 F1000.00
G01 X4.2532 Y4.9395 F1000.00
G01 X4.3756 Y4.7558 F1000.00
G01 X4.4612 Y4.5491 F1000.00
G01 X4.5046 Y4.3321 F1000.00
G01 X4.5052 Y4.3258 F1000.00
G01 X4.5052 Y2.0749 F1000.00
G01 X4.5046 Y2.0686 F1000.00
G01 X4.4614 Y1.8526 F1000.00
G01 X4.3768 Y1.6476 F1000.00
G01 X4.3734 Y1.6413 F1000.00
G01 X4.2507 Y1.4580 F1000.00
G01 X4.0909 Y1.2984 F1000.00
G01 X3.9050 Y1.1743 F1000.00
G01 X3.6978 Y1.0885 F1000.00
G01 X3.4812 Y1.0452 F1000.00
G01 X3.4749 Y1.0446 F1000.00
G01 X2.1255 Y1.0445 F1000.00
G01 X2.1218 Y1.0448 F1000.00
G01 X1.9264 Y1.0838 F1000.00
G01 X1.7458 Y1.1585 F1000.00
G01 X1.7404 Y1.1613 F1000.00
G01 X1.5787 Y1.2694 F1000.00
G01 X1.5746 Y1.2728 F1000.00
G01 X1.4364 Y1.4112 F1000.00
G01 X1.4340 Y1.4143 F1000.00
G01 X1.3252 Y1.5774 F1000.00
G01 X1.2486 Y1.7624 F1000.00
G01 X1.2104 Y1.9540 F1000.00
G01 X1.2097 Y1.9606 F1000.00
G01 X1.2097 Y4.2140 F1000.00
G01 X1.1798 Y4.2165 F1000.00
G01 X1.1806 Y4.2224 F1000.00
G01 X1.2283 Y4.4621 F1000.00
G01 X1.2297 Y4.4678 F1000.00
G01 X1.2315 Y4.4728 F1000.00
G01 X1.3252 Y4.6987 F1000.00
G01 X1.3281 Y4.7046 F1000.00
G01 X1.4686 Y4.9149 F1000.00
G01 X1.4727 Y4.9196 F1000.00
G01 X1.6462 Y5.0931 F1000.00
G01 X1.6509 Y5.0972 F1000.00
G01 X1.8581 Y5.2359 F1000.00
G01 X1.8671 Y5.2406 F1000.00
G01 X2.0927 Y5.3341 F1000.00
G01 X2.0987 Y5.3363 F1000.00
G01 X2.1037 Y5.3375 F1000.00
G01 X2.3434 Y5.3852 F1000.00
G01 X2.3537 Y5.3862 F1000.00
G01 X3.4758 Y5.3862 F1000.00
G01 X3.4850 Y5.3853 F1000.00
G01 X3.7050 Y5.3415 F1000.00
G01 X3.7109 Y5.3395 F1000.00
G01 X3.9143 Y5.2553 F1000.00
G01 X3.9198 Y5.2527 F1000.00
G01 X3.9245 Y5.2499 F1000.00
G01 X4.1062 Y5.1284 F1000.00
G01 X4.1116 Y5.1244 F1000.00
G01 X4.2706 Y4.9657 F1000.00
G01 X4.2775 Y4.9571 F1000.00
G01 X4.3994 Y4.7745 F1000.00
G01 X4.4025 Y4.7692 F1000.00
G01 X4.4898 Y4.5584 F1000.00
G01 X4.4914 Y4.5521 F1000.00
G01 X4.5342 Y4.3370 F1000.00
G01 X4.5352 Y4.3267 F1000.00
G01 X4.5352 Y2.0740 F1000.00
G01 X4.5342 Y2.0638 F1000.00
G01 X4.4911 Y1.8475 F1000.00
G01 X4.4885 Y1.8389 F1000.00
G01 X4.4041 Y1.6352 F1000.00
G01 X4.4019 Y1.6305 F1000.00
G01 X4.3989 Y1.6254 F1000.00
G01 X4.2770 Y1.4431 F1000.00
G01 X4.2734 Y1.4383 F1000.00
G01 X4.1147 Y1.2793 F1000.00
G01 X4.1095 Y1.2748 F1000.00
G01 X3.9244 Y1.1509 F1000.00
G01 X3.9193 Y1.1479 F1000.00
G01 X3.9146 Y1.1457 F1000.00
G01 X3.7119 Y1.0616 F1000.00
G01 X3.7062 Y1.0596 F1000.00
G01 X3.4860 Y1.0156 F1000.00
G01 X3.4758 Y1.0146 F1000.00
G01 X2.1246 Y1.0145 F1000.00
G01 X2.1144 Y1.0155 F1000.00
G01 X1.9237 Y1.0535 F1000.00
G01 X1.9171 Y1.0552 F1000.00
G01 X1.7334 Y1.1312 F1000.00
G01 X1.7279 Y1.1338 F1000.00
G01 X1.5614 Y1.2448 F1000.00
G01 X1.5572 Y1.2481 F1000.00
G01 X1.4159 Y1.3890 F1000.00
G01 X1.4096 Y1.3968 F1000.00
G01 X1.2989 Y1.5629 F1000.00
G01 X1.2963 Y1.5684 F1000.00
G01 X1.2220 Y1.7477 F1000.00
G01 X1.2186 Y1.7587 F1000.00
G01 X1.1807 Y1.9492 F1000.00
G01 X1.1799 Y1.9552 F1000.00
G01 X1.1798 Y4.2165 F1000.00
M5
G00 X6.4167 Y4.2140
G01 F60.00
M03 S250.0
G01 F1000.00
G01 X6.4168 Y1.9578 F1000.00
G01 X6.4548 Y1.7656 F1000.00
G01 X6.4571 Y1.7581 F1000.00
G01 X6.5322 Y1.5774 F1000.00
G01 X6.6410 Y1.4143 F1000.00
G01 X6.6448 Y1.4096 F1000.00
G01 X6.7840 Y1.2706 F1000.00
G01 X6.9494 Y1.1601 F1000.00
G01 X7.1334 Y1.0838 F1000.00
G01 X7.3262 Y1.0451 F1000.00
G01 X7.3325 Y1.0445 F1000.00
G01 X8.6819 Y1.0446 F1000.00
G01 X8.6882 Y1.0452 F1000.00
G01 X8.9048 Y1.0885 F1000.00
G01 X9.1092 Y1.1730 F1000.00
G01 X9.1156 Y1.1765 F1000.00
G01 X9.2979 Y1.2984 F1000.00
G01 X9.4577 Y1.4580 F1000.00
G01 X9.5804 Y1.6413 F1000.00
G01 X9.5838 Y1.6476 F1000.00
G01 X9.6674 Y1.8497 F1000.00
G01 X9.6688 Y1.8541 F1000.00
G01 X9.7116 Y2.0686 F1000.00
G01 X9.7122 Y2.0749 F1000.00
G01 X9.7122 Y4.3258 F1000.00
G01 X9.7116 Y4.3321 F1000.00
G01 X9.6682 Y4.5491 F1000.00
G01 X9.5839 Y4.7531 F1000.00
G01 X9.5810 Y4.7586 F1000.00
G01 X9.4575 Y4.9431 F1000.00
G01 X9.3012 Y5.0996 F1000.00
G01 X9.2956 Y5.1041 F1000.00
G01 X9.1121 Y5.2265 F1000.00
G01 X8.9071 Y5.3114 F1000.00
G01 X8.9031 Y5.3127 F1000.00
G01 X8.6868 Y5.3557 F1000.00
G01 X8.6819 Y5.3562 F1000.00
G01 X7.5616 Y5.3562 F1000.00
G01 X7.5553 Y5.3556 F1000.00
G01 X7.3176 Y5.3083 F1000.00
G01 X7.3105 Y5.3061 F1000.00
G01 X7.0865 Y5.2133 F1000.00
G01 X7.0811 Y5.2105 F1000.00
G01 X6.8762 Y5.0734 F1000.00
G01 X6.6994 Y4.8966 F1000.00
G01 X6.5623 Y4.6917 F1000.00
G01 X6.5595 Y4.6863 F1000.00
G01 X6.4654 Y4.4587 F1000.00
G01 X6.4167 Y4.2140 F1000.00
G01 X6.4466 Y4.2104 F1000.00
G01 X6.4467 Y2.0574 F1000.00
G01 X6.4467 Y1.9610 F1000.00
G01 X6.4470 Y1.9588 F1000.00
G01 X6.4844 Y1.7712 F1000.00
G01 X6.5587 Y1.5915 F1000.00
G01 X6.6663 Y1.4306 F1000.00
G01 X6.8024 Y1.2945 F1000.00
G01 X6.9651 Y1.1859 F1000.00
G01 X7.1422 Y1.1125 F1000.00
G01 X7.3324 Y1.0746 F1000.00
G01 X8.6815 Y1.0746 F1000.00
G01 X8.8961 Y1.1172 F1000.00
G01 X9.0978 Y1.2008 F1000.00
G01 X9.2793 Y1.3220 F1000.00
G01 X9.4345 Y1.4771 F1000.00
G01 X9.5549 Y1.6571 F1000.00
G01 X9.5564 Y1.6599 F1000.00
G01 X9.6396 Y1.8608 F1000.00
G01 X9.6822 Y2.0757 F1000.00
G01 X9.6822 Y4.3250 F1000.00
G01 X9.6394 Y4.5405 F1000.00
G01 X9.5561 Y4.7416 F1000.00
G01 X9.4359 Y4.9219 F1000.00
G01 X9.4339 Y4.9245 F1000.00
G01 X9.2802 Y5.0781 F1000.00
G01 X9.0998 Y5.1989 F1000.00
G01 X9.0970 Y5.2004 F1000.00
G01 X8.8961 Y5.2836 F1000.00
G01 X8.6818 Y5.3262 F1000.00
G01 X7.5620 Y5.3262 F1000.00
G01 X7.3245 Y5.2791 F1000.00
G01 X7.3210 Y5.2780 F1000.00
G01 X7.0970 Y5.1851 F1000.00
G01 X6.8954 Y5.0502 F1000.00
G01 X6.7226 Y4.8774 F1000.00
G01 X6.5869 Y4.6740 F1000.00
G01 X6.4941 Y4.4499 F1000.00
G01 X6.4466 Y4.2111 F1000.00
G01 X6.4466 Y4.2104 F1000.00
G01 X6.4766 Y4.2084 F1000.00
G01 X6.4767 Y1.9632 F1000.00
G01 X6.5133 Y1.7795 F1000.00
G01 X6.5851 Y1.6061 F1000.00
G01 X6.6895 Y1.4498 F1000.00
G01 X6.8220 Y1.3173 F1000.00
G01 X6.9782 Y1.2129 F1000.00
G01 X7.1515 Y1.1411 F1000.00
G01 X7.3354 Y1.1045 F1000.00
G01 X8.6792 Y1.1046 F1000.00
G01 X8.8878 Y1.1462 F1000.00
G01 X9.0840 Y1.2275 F1000.00
G01 X9.2606 Y1.3456 F1000.00
G01 X9.4113 Y1.4963 F1000.00
G01 X9.5293 Y1.6729 F1000.00
G01 X9.6107 Y1.8695 F1000.00
G01 X9.6522 Y2.0777 F1000.00
G01 X9.6522 Y4.3230 F1000.00
G01 X9.6108 Y4.5314 F1000.00
G01 X9.5295 Y4.7276 F1000.00
G01 X9.4114 Y4.9045 F1000.00
G01 X9.2606 Y5.0553 F1000.00
G01 X9.0840 Y5.1733 F1000.00
G01 X8.8874 Y5.2547 F1000.00
G01 X8.6786 Y5.2962 F1000.00
G01 X7.5643 Y5.2962 F1000.00
G01 X7.3314 Y5.2498 F1000.00
G01 X7.1118 Y5.1588 F1000.00
G01 X6.9143 Y5.0268 F1000.00
G01 X6.7459 Y4.8584 F1000.00
G01 X6.6139 Y4.6608 F1000.00
G01 X6.5228 Y4.4407 F1000.00
G01 X6.4766 Y4.2084 F1000.00
G01 X6.5066 Y4.2054 F1000.00
G01 X6.5067 Y1.9662 F1000.00
G01 X6.5422 Y1.7879 F1000.00
G01 X6.6117 Y1.6203 F1000.00
G01 X6.7128 Y1.4689 F1000.00
G01 X6.8411 Y1.3406 F1000.00
G01 X6.9924 Y1.2395 F1000.00
G01 X7.1603 Y1.1700 F1000.00
G01 X7.3384 Y1.1345 F1000.00
G01 X8.6762 Y1.1346 F1000.00
G01 X8.8791 Y1.1750 F1000.00
G01 X9.0698 Y1.2541 F1000.00
G01 X9.2415 Y1.3689 F1000.00
G01 X9.3880 Y1.5154 F1000.00
G01 X9.5028 Y1.6871 F1000.00
G01 X9.5819 Y1.8783 F1000.00
G01 X9.6222 Y2.0807 F1000.00
G01 X9.6222 Y4.3200 F1000.00
G01 X9.5819 Y4.5226 F1000.00
G01 X9.5029 Y4.7134 F1000.00
G01 X9.3881 Y4.8855 F1000.00
G01 X9.2414 Y5.0321 F1000.00
G01 X9.0698 Y5.1468 F1000.00
G01 X8.8786 Y5.2258 F1000.00
G01 X8.6756 Y5.2662 F1000.00
G01 X7.5673 Y5.2662 F1000.00
G01 X7.3401 Y5.2210 F1000.00
G01 X7.1260 Y5.1322 F1000.00
G01 X6.9334 Y5.0035 F1000.00
G01 X6.7692 Y4.8393 F1000.00
G01 X6.6405 Y4.6466 F1000.00
G01 X6.5517 Y4.4320 F1000.00
G01 X6.5066 Y4.2054 F1000.00
G01 X6.5366 Y4.2025 F1000.00
G01 X6.5367 Y1.9691 F1000.00
G01 X6.5710 Y1.7967 F1000.00
G01 X6.6382 Y1.6345 F1000.00
G01 X6.7361 Y1.4880 F1000.00
G01 X6.8602 Y1.3639 F1000.00
G01 X7.0066 Y1.2661 F1000.00
G01 X7.1690 Y1.1988 F1000.00
G01 X7.3413 Y1.1645 F1000.00
G01 X8.6733 Y1.1646 F1000.00
G01 X8.8703 Y1.2039 F1000.00
G01 X9.0556 Y1.2807 F1000.00
G01 X9.2224 Y1.3922 F1000.00
G01 X9.3647 Y1.5346 F1000.00
G01 X9.4762 Y1.7013 F1000.00
G01 X9.5530 Y1.8870 F1000.00
G01 X9.5922 Y2.0836 F1000.00
G01 X9.5922 Y4.3171 F1000.00
G01 X9.5531 Y4.5139 F1000.00
G01 X9.4763 Y4.6992 F1000.00
G01 X9.3647 Y4.8664 F1000.00
G01 X9.2223 Y5.0088 F1000.00
G01 X9.0556 Y5.1202 F1000.00
G01 X8.8699 Y5.1970 F1000.00
G01 X8.6727 Y5.2362 F1000.00
G01 X7.5702 Y5.2362 F1000.00
G01 X7.3489 Y5.1921 F1000.00
G01 X7.1402 Y5.1057 F1000.00
G01 X6.9525 Y4.9802 F1000.00
G01 X6.7925 Y4.8201 F1000.00
G01 X6.6670 Y4.6324 F1000.00
G01 X6.5805 Y4.4232 F1000.00
G01 X6.5366 Y4.2025 F1000.00
G01 X6.5666 Y4.1995 F1000.00
G01 X6.5667 Y1.9721 F1000.00
G01 X6.5999 Y1.8054 F1000.00
G01 X6.6648 Y1.6487 F1000.00
G01 X6.7594 Y1.5071 F1000.00
G01 X6.8794 Y1.3872 F1000.00
G01 X7.0208 Y1.2927 F1000.00
G01 X7.1778 Y1.2276 F1000.00
G01 X7.3443 Y1.1945 F1000.00
G01 X8.6703 Y1.1946 F1000.00
G01 X8.8615 Y1.2327 F1000.00
G01 X9.0414 Y1.3073 F1000.00
G01 X9.2032 Y1.4155 F1000.00
G01 X9.3414 Y1.5537 F1000.00
G01 X9.4496 Y1.7155 F1000.00
G01 X9.5242 Y1.8958 F1000.00
G01 X9.5622 Y2.0866 F1000.00
G01 X9.5622 Y4.3141 F1000.00
G01 X9.5242 Y4.5051 F1000.00
G01 X9.4497 Y4.6850 F1000.00
G01 X9.3414 Y4.8472 F1000.00
G01 X9.2032 Y4.9855 F1000.00
G01 X9.0414 Y5.0936 F1000.00
G01 X8.8612 Y5.1681 F1000.00
G01 X8.6697 Y5.2062 F1000.00
G01 X7.5732 Y5.2062 F1000.00
G01 X7.3576 Y5.1633 F1000.00
G01 X7.1544 Y5.0791 F1000.00
G01 X6.9716 Y4.9569 F1000.00
G01 X6.8158 Y4.8010 F1000.00
G01 X6.6936 Y4.6182 F1000.00
G01 X6.6093 Y4.4145 F1000.00
G01 X6.5666 Y4.1995 F1000.00
G01 X6.5966 Y4.1966 F1000.00
G01 X6.5967 Y1.9750 F1000.00
G01 X6.6287 Y1.8142 F1000.00
G01 X6.6914 Y1.6629 F1000.00
G01 X6.7827 Y1.5262 F1000.00
G01 X6.8985 Y1.4105 F1000.00
G01 X7.0350 Y1.3193 F1000.00
G01 X7.1865 Y1.2565 F1000.00
G01 X7.3473 Y1.2245 F1000.00
G01 X8.6673 Y1.2246 F1000.00
G01 X8.8528 Y1.2616 F1000.00
G01 X9.0272 Y1.3339 F1000.00
G01 X9.1841 Y1.4388 F1000.00
G01 X9.3181 Y1.5728 F1000.00
G01 X9.4230 Y1.7297 F1000.00
G01 X9.4953 Y1.9045 F1000.00
G01 X9.5322 Y2.0896 F1000.00
G01 X9.5322 Y4.3112 F1000.00
G01 X9.4954 Y4.4964 F1000.00
G01 X9.4232 Y4.6708 F1000.00
G01 X9.3181 Y4.8281 F1000.00
G01 X9.1840 Y4.9622 F1000.00
G01 X9.0272 Y5.0670 F1000.00
G01 X8.8524 Y5.1393 F1000.00
G01 X8.6668 Y5.1762 F1000.00
G01 X7.5761 Y5.1762 F1000.00
G01 X7.3664 Y5.1344 F1000.00
G01 X7.1686 Y5.0525 F1000.00
G01 X6.9908 Y4.9336 F1000.00
G01 X6.8391 Y4.7819 F1000.00
G01 X6.7202 Y4.6040 F1000.00
G01 X6.6382 Y4.4058 F1000.00
G01 X6.5966 Y4.1966 F1000.00
G01 X6.6266 Y4.1936 F1000.00
G01 X6.6267 Y1.9780 F1000.00
G01 X6.6576 Y1.8229 F1000.00
G01 X6.7180 Y1.6771 F1000.00
G01 X6.8060 Y1.5454 F1000.00
G01 X6.9176 Y1.4338 F1000.00
G01 X7.0492 Y1.3458 F1000.00
G01 X7.1953 Y1.2853 F1000.00
G01 X7.3502 Y1.2545 F1000.00
G01 X8.6644 Y1.2546 F1000.00
G01 X8.8440 Y1.2904 F1000.00
G01 X9.0130 Y1.3604 F1000.00
G01 X9.1650 Y1.4621 F1000.00
G01 X9.2948 Y1.5919 F1000.00
G01 X9.3964 Y1.7439 F1000.00
G01 X9.4665 Y1.9133 F1000.00
G01 X9.5022 Y2.0925 F1000.00
G01 X9.5022 Y4.3082 F1000.00
G01 X9.4665 Y4.4876 F1000.00
G01 X9.3966 Y4.6566 F1000.00
G01 X9.2948 Y4.8090 F1000.00
G01 X9.1649 Y4.9389 F1000.00
G01 X9.0130 Y5.0404 F1000.00
G01 X8.8437 Y5.1104 F1000.00
G01 X8.6638 Y5.1462 F1000.00
G01 X7.5791 Y5.1462 F1000.00
G01 X7.3751 Y5.1056 F1000.00
G01 X7.1828 Y5.0259 F1000.00
G01 X7.0099 Y4.9103 F1000.00
G01 X6.8624 Y4.7628 F1000.00
G01 X6.7468 Y4.5898 F1000.00
G01 X6.6670 Y4.3970 F1000.00
G01 X6.6266 Y4.1936 F1000.00
G01 X6.6566 Y4.1907 F1000.00
G01 X6.6567 Y1.9810 F1000.00
G01 X6.6864 Y1.8317 F1000.00
G01 X6.7446 Y1.6913 F1000.00
G01 X6.8293 Y1.5645 F1000.00
G01 X6.9367 Y1.4571 F1000.00
G01 X7.0635 Y1.3724 F1000.00
G01 X7.2041 Y1.3142 F1000.00
G01 X7.3532 Y1.2845 F1000.00
G01 X8.6614 Y1.2846 F1000.00
G01 X8.8353 Y1.3193 F1000.00
G01 X8.9987 Y1.3870 F1000.00
G01 X9.1459 Y1.4854 F1000.00
G01 X9.2715 Y1.6111 F1000.00
G01 X9.3698 Y1.7581 F1000.00
G01 X9.4376 Y1.9220 F1000.00
G01 X9.4722 Y2.0955 F1000.00
G01 X9.4722 Y4.3053 F1000.00
G01 X9.4377 Y4.4789 F1000.00
G01 X9.3700 Y4.6424 F1000.00
G01 X9.2715 Y4.7899 F1000.00
G01 X9.1458 Y4.9156 F1000.00
G01 X8.9988 Y5.0138 F1000.00
G01 X8.8349 Y5.0816 F1000.00
G01 X8.6609 Y5.1162 F1000.00
G01 X7.5820 Y5.1162 F1000.00
G01 X7.3839 Y5.0768 F1000.00
G01 X7.1971 Y4.9993 F1000.00
G01 X7.0290 Y4.8870 F1000.00
G01 X6.8857 Y4.7437 F1000.00
G01 X6.7734 Y4.5756 F1000.00
G01 X6.6959 Y4.3883 F1000.00
G01 X6.6566 Y4.1907 F1000.00
G01 X6.6866 Y4.1877 F1000.00
G01 X6.6867 Y1.9839 F1000.00
G01 X6.7153 Y1.8404 F1000.00
G01 X6.7712 Y1.7055 F1000.00
G01 X6.8526 Y1.5836 F1000.00
G01 X6.9559 Y1.4804 F1000.00
G01 X7.0777 Y1.3990 F1000.00
G01 X7.2128 Y1.3430 F1000.00
G01 X7.3561 Y1.3145 F1000.00
G01 X8.6584 Y1.3146 F1000.00
G01 X8.8265 Y1.3481 F1000.00
G01 X8.9845 Y1.4136 F1000.00
G01 X9.1267 Y1.5087 F1000.00
G01 X9.2482 Y1.6302 F1000.00
G01 X9.3432 Y1.7724 F1000.00
G01 X9.4088 Y1.9308 F1000.00
G01 X9.4422 Y2.0984 F1000.00
G01 X9.4422 Y4.3023 F1000.00
G01 X9.4088 Y4.4701 F1000.00
G01 X9.3434 Y4.6282 F1000.00
G01 X9.2482 Y4.7708 F1000.00
G01 X9.1267 Y4.8923 F1000.00
G01 X8.9846 Y4.9872 F1000.00
G01 X8.8262 Y5.0527 F1000.00
G01 X8.6579 Y5.0862 F1000.00
G01 X7.5850 Y5.0862 F1000.00
G01 X7.3927 Y5.0479 F1000.00
G01 X7.2113 Y4.9727 F1000.00
G01 X7.0481 Y4.8637 F1000.00
G01 X6.9090 Y4.7245 F1000.00
G01 X6.8000 Y4.5614 F1000.00
G01 X6.7247 Y4.3795 F1000.00
G01 X6.6866 Y4.1877 F1000.00
G01 X6.7166 Y4.1848 F1000.00
G01 X6.7167 Y1.9869 F1000.00
G01 X6.7441 Y1.8492 F1000.00
G01 X6.7978 Y1.7197 F1000.00
G01 X6.8759 Y1.6027 F1000.00
G01 X6.9750 Y1.5037 F1000.00
G01 X7.0919 Y1.4256 F1000.00
G01 X7.2216 Y1.3719 F1000.00
G01 X7.3591 Y1.3445 F1000.00
G01 X8.6555 Y1.3446 F1000.00
G01 X8.8177 Y1.3770 F1000.00
G01 X8.9703 Y1.4402 F1000.00
G01 X9.1076 Y1.5320 F1000.00
G01 X9.2249 Y1.6493 F1000.00
G01 X9.3166 Y1.7866 F1000.00
G01 X9.3799 Y1.9395 F1000.00
G01 X9.4122 Y2.1014 F1000.00
G01 X9.4122 Y4.2994 F1000.00
G01 X9.3800 Y4.4614 F1000.00
G01 X9.3168 Y4.6139 F1000.00
G01 X9.2249 Y4.7516 F1000.00
G01 X9.1076 Y4.8690 F1000.00
G01 X8.9704 Y4.9606 F1000.00
G01 X8.8174 Y5.0239 F1000.00
G01 X8.6550 Y5.0562 F1000.00
G01 X7.5879 Y5.0562 F1000.00
G01 X7.4014 Y5.0191 F1000.00
G01 X7.2255 Y4.9462 F1000.00
G01 X7.0673 Y4.8404 F1000.00
G01 X6.9323 Y4.7054 F1000.00
G01 X6.8266 Y4.5471 F1000.00
G01 X6.7536 Y4.3708 F1000.00
G01 X6.7166 Y4.1848 F1000.00
G01 X6.7466 Y4.1818 F1000.00
G01 X6.7467 Y1.9898 F1000.00
G01 X6.7730 Y1.8580 F1000.00
G01 X6.8243 Y1.7339 F1000.00
G01 X6.8992 Y1.6219 F1000.00
G01 X6.9941 Y1.5270 F1000.00
G01 X7.1061 Y1.4522 F1000.00
G01 X7.2303 Y1.4007 F1000.00
G01 X7.3620 Y1.3745 F1000.00
G01 X8.6525 Y1.3746 F1000.00
G01 X8.8090 Y1.4058 F1000.00
G01 X8.9561 Y1.4668 F1000.00
G01 X9.0885 Y1.5553 F1000.00
G01 X9.2016 Y1.6684 F1000.00
G01 X9.2901 Y1.8008 F1000.00
G01 X9.3511 Y1.9483 F1000.00
G01 X9.3822 Y2.1044 F1000.00
G01 X9.3822 Y4.2964 F1000.00
G01 X9.3511 Y4.4526 F1000.00
G01 X9.2902 Y4.5997 F1000.00
G01 X9.2016 Y4.7325 F1000.00
G01 X9.0884 Y4.8456 F1000.00
G01 X8.9561 Y4.9340 F1000.00
G01 X8.8087 Y4.9950 F1000.00
G01 X8.6520 Y5.0262 F1000.00
G01 X7.5909 Y5.0262 F1000.00
G01 X7.4102 Y4.9902 F1000.00
G01 X7.2397 Y4.9196 F1000.00
G01 X7.0864 Y4.8171 F1000.00
G01 X6.9556 Y4.6863 F1000.00
G01 X6.8532 Y4.5329 F1000.00
G01 X6.7824 Y4.3620 F1000.00
G01 X6.7466 Y4.1818 F1000.00
G01 X6.7766 Y4.1789 F1000.00
G01 X6.7767 Y1.9928 F1000.00
G01 X6.8018 Y1.8667 F1000.00
G01 X6.8509 Y1.7482 F1000.00
G01 X6.9225 Y1.6410 F1000.00
G01 X7.0132 Y1.5503 F1000.00
G01 X7.1203 Y1.4788 F1000.00
G01 X7.2391 Y1.4296 F1000.00
G01 X7.3650 Y1.4045 F1000.00
G01 X8.6496 Y1.4046 F1000.00
G01 X8.8002 Y1.4346 F1000.00
G01 X8.9419 Y1.4934 F1000.00
G01 X9.0693 Y1.5786 F1000.00
G01 X9.1783 Y1.6875 F1000.00
G01 X9.2635 Y1.8150 F1000.00
G01 X9.3222 Y1.9570 F1000.00
G01 X9.3522 Y2.1073 F1000.00
G01 X9.3522 Y4.2935 F1000.00
G01 X9.3223 Y4.4439 F1000.00
G01 X9.2636 Y4.5855 F1000.00
G01 X9.1783 Y4.7134 F1000.00
G01 X9.0693 Y4.8223 F1000.00
G01 X8.9419 Y4.9075 F1000.00
G01 X8.8000 Y4.9662 F1000.00
G01 X8.6491 Y4.9962 F1000.00
G01 X7.5939 Y4.9962 F1000.00
G01 X7.4189 Y4.9614 F1000.00
G01 X7.2539 Y4.8930 F1000.00
G01 X7.1055 Y4.7938 F1000.00
G01 X6.9789 Y4.6672 F1000.00
G01 X6.8798 Y4.5187 F1000.00
G01 X6.8113 Y4.3533 F1000.00
G01 X6.7766 Y4.1789 F1000.00
G01 X6.8066 Y4.1759 F1000.00
G01 X6.8067 Y1.9958 F1000.00
G01 X6.8307 Y1.8755 F1000.00
G01 X6.8775 Y1.7624 F1000.00
G01 X6.9458 Y1.6601 F1000.00
G01 X7.0323 Y1.5736 F1000.00
G01 X7.1345 Y1.5054 F1000.00
G01 X7.2478 Y1.4584 F1000.00
G01 X7.3679 Y1.4345 F1000.00
G01 X8.6466 Y1.4346 F1000.00
G01 X8.7915 Y1.4635 F1000.00
G01 X8.9277 Y1.5199 F1000.00
G01 X9.0502 Y1.6019 F1000.00
G01 X9.1550 Y1.7067 F1000.00
G01 X9.2369 Y1.8292 F1000.00
G01 X9.2934 Y1.9658 F1000.00
G01 X9.3222 Y2.1103 F1000.00
G01 X9.3222 Y4.2905 F1000.00
G01 X9.2934 Y4.4351 F1000.00
G01 X9.2370 Y4.5713 F1000.00
G01 X9.1550 Y4.6943 F1000.00
G01 X9.0502 Y4.7990 F1000.00
G01 X8.9277 Y4.8809 F1000.00
G01 X8.7912 Y4.9373 F1000.00
G01 X8.6461 Y4.9662 F1000.00
G01 X7.5968 Y4.9662 F1000.00
G01 X7.4277 Y4.9325 F1000.00
G01 X7.2681 Y4.8664 F1000.00
G01 X7.1246 Y4.7705 F1000.00
G01 X7.0022 Y4.6480 F1000.00
G01 X6.9063 Y4.5045 F1000.00
G01 X6.8401 Y4.3445 F1000.00
G01 X6.8066 Y4.1759 F1000.00
G01 X6.8366 Y4.1730 F1000.00
G01 X6.8367 Y1.9987 F1000.00
G01 X6.8595 Y1.8842 F1000.00
G01 X6.9041 Y1.7766 F1000.00
G01 X6.9691 Y1.6792 F1000.00
G01 X7.0515 Y1.5969 F1000.00
G01 X7.1487 Y1.5319 F1000.00
G01 X7.2566 Y1.4873 F1000.00
G01 X7.3709 Y1.4645 F1000.00
G01 X8.6436 Y1.4646 F1000.00
G01 X8.7827 Y1.4923 F1000.00
G01 X8.9134 Y1.5465 F1000.00
G01 X9.0311 Y1.6252 F1000.00
G01 X9.1317 Y1.7258 F1000.00
G01 X9.2103 Y1.8434 F1000.00
G01 X9.2646 Y1.9745 F1000.00
G01 X9.2922 Y2.1132 F1000.00
G01 X9.2922 Y4.2875 F1000.00
G01 X9.2646 Y4.4264 F1000.00
G01 X9.2104 Y4.5571 F1000.00
G01 X9.1317 Y4.6752 F1000.00
G01 X9.0311 Y4.7757 F1000.00
G01 X8.9135 Y4.8543 F1000.00
G01 X8.7825 Y4.9085 F1000.00
G01 X8.6432 Y4.9362 F1000.00
G01 X7.5998 Y4.9362 F1000.00
G01 X7.4364 Y4.9037 F1000.00
G01 X7.2823 Y4.8398 F1000.00
G01 X7.1438 Y4.7472 F1000.00
G01 X7.0255 Y4.6289 F1000.00
G01 X6.9329 Y4.4903 F1000.00
G01 X6.8690 Y4.3358 F1000.00
G01 X6.8366 Y4.1730 F1000.00
G01 X6.8666 Y4.1700 F1000.00
G01 X6.8667 Y2.0017 F1000.00
G01 X6.8884 Y1.8930 F1000.00
G01 X6.9307 Y1.7908 F1000.00
G01 X6.9924 Y1.6984 F1000.00
G01 X7.0706 Y1.6202 F1000.00
G01 X7.1629 Y1.5585 F1000.00
G01 X7.2653 Y1.5161 F1000.00
G01 X7.3739 Y1.4945 F1000.00
G01 X8.6407 Y1.4946 F1000.00
G01 X8.7739 Y1.5212 F1000.00
G01 X8.8992 Y1.5731 F1000.00
G01 X9.0120 Y1.6485 F1000.00
G01 X9.1084 Y1.7449 F1000.00
G01 X9.1837 Y1.8576 F1000.00
G01 X9.2357 Y1.9833 F1000.00
G01 X9.2622 Y2.1162 F1000.00
G01 X9.2622 Y4.2846 F1000.00
G01 X9.2357 Y4.4176 F1000.00
G01 X9.1839 Y4.5429 F1000.00
G01 X9.1084 Y4.6560 F1000.00
G01 X9.0119 Y4.7524 F1000.00
G01 X8.8993 Y4.8277 F1000.00
G01 X8.7737 Y4.8797 F1000.00
G01 X8.6402 Y4.9062 F1000.00
G01 X7.6027 Y4.9062 F1000.00
G01 X7.4452 Y4.8748 F1000.00
G01 X7.2966 Y4.8132 F1000.00
G01 X7.1629 Y4.7239 F1000.00
G01 X7.0488 Y4.6098 F1000.00
G01 X6.9595 Y4.4761 F1000.00
G01 X6.8978 Y4.3270 F1000.00
G01 X6.8666 Y4.1700 F1000.00
G01 X6.8966 Y4.1670 F1000.00
G01 X6.8967 Y2.0046 F1000.00
G01 X6.9172 Y1.9017 F1000.00
G01 X6.9573 Y1.8050 F1000.00
G01 X7.0157 Y1.7175 F1000.00
G01 X7.0897 Y1.6435 F1000.00
G01 X7.1771 Y1.5851 F1000.00
G01 X7.2741 Y1.5450 F1000.00
G01 X7.3768 Y1.5245 F1000.00
G01 X8.6377 Y1.5246 F1000.00
G01 X8.7652 Y1.5500 F1000.00
G01 X8.8850 Y1.5997 F1000.00
G01 X8.9928 Y1.6718 F1000.00
G01 X9.0851 Y1.7640 F1000.00
G01 X9.1571 Y1.8718 F1000.00
G01 X9.2069 Y1.9920 F1000.00
G01 X9.2322 Y2.1192 F1000.00
G01 X9.2322 Y4.2816 F1000.00
G01 X9.2069 Y4.4089 F1000.00
G01 X9.1573 Y4.5287 F1000.00
G01 X9.0851 Y4.6369 F1000.00
G01 X8.9928 Y4.7291 F1000.00
G01 X8.8851 Y4.8011 F1000.00
G01 X8.7650 Y4.8508 F1000.00
G01 X8.6373 Y4.8762 F1000.00
G01 X7.6057 Y4.8762 F1000.00
G01 X7.4539 Y4.8460 F1000.00
G01 X7.3108 Y4.7867 F1000.00
G01 X7.1820 Y4.7006 F1000.00
G01 X7.0721 Y4.5907 F1000.00
G01 X6.9861 Y4.4619 F1000.00
G01 X6.9267 Y4.3183 F1000.00
G01 X6.8966 Y4.1670 F1000.00
G01 X6.9266 Y4.1641 F1000.00
G01 X6.9267 Y2.0076 F1000.00
G01 X6.9460 Y1.9105 F1000.00
G01 X6.9839 Y1.8192 F1000.00
G01 X7.0390 Y1.7366 F1000.00
G01 X7.1088 Y1.6668 F1000.00
G01 X7.1913 Y1.6117 F1000.00
G01 X7.2828 Y1.5738 F1000.00
G01 X7.3798 Y1.5545 F1000.00
G01 X8.6347 Y1.5546 F1000.00
G01 X8.7564 Y1.5789 F1000.00
G01 X8.8708 Y1.6263 F1000.00
G01 X8.9737 Y1.6951 F1000.00
G01 X9.0618 Y1.7832 F1000.00
G01 X9.1305 Y1.8860 F1000.00
G01 X9.1780 Y2.0008 F1000.00
G01 X9.2022 Y2.1221 F1000.00
G01 X9.2022 Y4.2787 F1000.00
G01 X9.1780 Y4.4001 F1000.00
G01 X9.1307 Y4.5145 F1000.00
G01 X9.0618 Y4.6178 F1000.00
G01 X8.9737 Y4.7058 F1000.00
G01 X8.8709 Y4.7745 F1000.00
G01 X8.7562 Y4.8220 F1000.00
G01 X8.6343 Y4.8462 F1000.00
G01 X7.6086 Y4.8462 F1000.00
G01 X7.4627 Y4.8171 F1000.00
G01 X7.3250 Y4.7601 F1000.00
G01 X7.2012 Y4.6773 F1000.00
G01 X7.0954 Y4.5716 F1000.00
G01 X7.0127 Y4.4477 F1000.00
G01 X6.9555 Y4.3096 F1000.00
G01 X6.9266 Y4.1641 F1000.00
G01 X6.9566 Y4.1611 F1000.00
G01 X6.9567 Y2.0106 F1000.00
G01 X6.9749 Y1.9192 F1000.00
G01 X7.0104 Y1.8334 F1000.00
G01 X7.0623 Y1.7557 F1000.00
G01 X7.1280 Y1.6901 F1000.00
G01 X7.2056 Y1.6383 F1000.00
G01 X7.2916 Y1.6026 F1000.00
G01 X7.3827 Y1.5845 F1000.00
G01 X8.6318 Y1.5846 F1000.00
G01 X8.7477 Y1.6077 F1000.00
G01 X8.8566 Y1.6529 F1000.00
G01 X8.9546 Y1.7184 F1000.00
G01 X9.0385 Y1.8023 F1000.00
G01 X9.1039 Y1.9002 F1000.00
G01 X9.1492 Y2.0095 F1000.00
G01 X9.1722 Y2.1251 F1000.00
G01 X9.1722 Y4.2757 F1000.00
G01 X9.1492 Y4.3914 F1000.00
G01 X9.1041 Y4.5003 F1000.00
G01 X9.0384 Y4.5987 F1000.00
G01 X8.9546 Y4.6825 F1000.00
G01 X8.8567 Y4.7479 F1000.00
G01 X8.7475 Y4.7931 F1000.00
G01 X8.6313 Y4.8162 F1000.00
G01 X7.6116 Y4.8162 F1000.00
G01 X7.4714 Y4.7883 F1000.00
G01 X7.3392 Y4.7335 F1000.00
G01 X7.2203 Y4.6540 F1000.00
G01 X7.1187 Y4.5524 F1000.00
G01 X7.0393 Y4.4335 F1000.00
G01 X6.9844 Y4.3008 F1000.00
G01 X6.9566 Y4.1611 F1000.00
G01 X6.9866 Y4.1582 F1000.00
G01 X6.9867 Y2.0135 F1000.00
G01 X7.0037 Y1.9280 F1000.00
G01 X7.0370 Y1.8476 F1000.00
G01 X7.0856 Y1.7749 F1000.00
G01 X7.1471 Y1.7134 F1000.00
G01 X7.2198 Y1.6649 F1000.00
G01 X7.3003 Y1.6315 F1000.00
G01 X7.3857 Y1.6145 F1000.00
G01 X8.6288 Y1.6146 F1000.00
G01 X8.7389 Y1.6365 F1000.00
G01 X8.8424 Y1.6794 F1000.00
G01 X8.9355 Y1.7417 F1000.00
G01 X9.0152 Y1.8214 F1000.00
G01 X9.0773 Y1.9144 F1000.00
G01 X9.1203 Y2.0183 F1000.00
G01 X9.1422 Y2.1280 F1000.00
G01 X9.1422 Y4.2728 F1000.00
G01 X9.1203 Y4.3826 F1000.00
G01 X9.0775 Y4.4861 F1000.00
G01 X9.0151 Y4.5796 F1000.00
G01 X8.9355 Y4.6592 F1000.00
G01 X8.8425 Y4.7213 F1000.00
G01 X8.7388 Y4.7643 F1000.00
G01 X8.6284 Y4.7862 F1000.00
G01 X7.6146 Y4.7862 F1000.00
G01 X7.4802 Y4.7594 F1000.00
G01 X7.3534 Y4.7069 F1000.00
G01 X7.2394 Y4.6307 F1000.00
G01 X7.1420 Y4.5333 F1000.00
G01 X7.0659 Y4.4193 F1000.00
G01 X7.0132 Y4.2921 F1000.00
G01 X6.9866 Y4.1582 F1000.00
G01 X7.0166 Y4.1552 F1000.00
G01 X7.0167 Y2.0165 F1000.00
G01 X7.0326 Y1.9367 F1000.00
G01 X7.0636 Y1.8618 F1000.00
G01 X7.1089 Y1.7940 F1000.00
G01 X7.1662 Y1.7367 F1000.00
G01 X7.2340 Y1.6915 F1000.00
G01 X7.3091 Y1.6603 F1000.00
G01 X7.3886 Y1.6445 F1000.00
G01 X8.6259 Y1.6446 F1000.00
G01 X8.7301 Y1.6654 F1000.00
G01 X8.8281 Y1.7060 F1000.00
G01 X8.9163 Y1.7650 F1000.00
G01 X8.9919 Y1.8405 F1000.00
G01 X9.0508 Y1.9286 F1000.00
G01 X9.0915 Y2.0270 F1000.00
G01 X9.1122 Y2.1310 F1000.00
G01 X9.1122 Y4.2698 F1000.00
G01 X9.0915 Y4.3739 F1000.00
G01 X9.0509 Y4.4719 F1000.00
G01 X8.9918 Y4.5604 F1000.00
G01 X8.9163 Y4.6359 F1000.00
G01 X8.8283 Y4.6947 F1000.00
G01 X8.7300 Y4.7354 F1000.00
G01 X8.6254 Y4.7562 F1000.00
G01 X7.6175 Y4.7562 F1000.00
G01 X7.4889 Y4.7306 F1000.00
G01 X7.3676 Y4.6803 F1000.00
G01 X7.2585 Y4.6074 F1000.00
G01 X7.1653 Y4.5142 F1000.00
G01 X7.0925 Y4.4051 F1000.00
G01 X7.0421 Y4.2833 F1000.00
G01 X7.0166 Y4.1552 F1000.00
G01 X7.0466 Y4.1523 F1000.00
G01 X7.0467 Y2.0194 F1000.00
G01 X7.0614 Y1.9455 F1000.00
G01 X7.0902 Y1.8760 F1000.00
G01 X7.1322 Y1.8131 F1000.00
G01 X7.1853 Y1.7600 F1000.00
G01 X7.2482 Y1.7180 F1000.00
G01 X7.3178 Y1.6892 F1000.00
G01 X7.3916 Y1.6745 F1000.00
G01 X8.6229 Y1.6746 F1000.00
G01 X8.7214 Y1.6942 F1000.00
G01 X8.8139 Y1.7326 F1000.00
G01 X8.8972 Y1.7883 F1000.00
G01 X8.9686 Y1.8597 F1000.00
G01 X9.0242 Y1.9428 F1000.00
G01 X9.0626 Y2.0358 F1000.00
G01 X9.0822 Y2.1340 F1000.00
G01 X9.0822 Y4.2669 F1000.00
G01 X9.0627 Y4.3651 F1000.00
G01 X9.0243 Y4.4577 F1000.00
G01 X8.9685 Y4.5413 F1000.00
G01 X8.8972 Y4.6126 F1000.00
G01 X8.8141 Y4.6682 F1000.00
G01 X8.7213 Y4.7066 F1000.00
G01 X8.6225 Y4.7262 F1000.00
G01 X7.6205 Y4.7262 F1000.00
G01 X7.4977 Y4.7018 F1000.00
G01 X7.3818 Y4.6537 F1000.00
G01 X7.2777 Y4.5841 F1000.00
G01 X7.1886 Y4.4951 F1000.00
G01 X7.1191 Y4.3909 F1000.00
G01 X7.0709 Y4.2746 F1000.00
G01 X7.0466 Y4.1523 F1000.00
G01 X7.0766 Y4.1493 F1000.00
G01 X7.0767 Y2.0224 F1000.00
G01 X7.0903 Y1.9542 F1000.00
G01 X7.1168 Y1.8903 F1000.00
G01 X7.1556 Y1.8322 F1000.00
G01 X7.2044 Y1.7833 F1000.00
G01 X7.2624 Y1.7446 F1000.00
G01 X7.3266 Y1.7180 F1000.00
G01 X7.3945 Y1.7045 F1000.00
G01 X8.6199 Y1.7046 F1000.00
G01 X8.7126 Y1.7231 F1000.00
G01 X8.7997 Y1.7592 F1000.00
G01 X8.8781 Y1.8116 F1000.00
G01 X8.9453 Y1.8788 F1000.00
G01 X8.9976 Y1.9570 F1000.00
G01 X9.0338 Y2.0445 F1000.00
G01 X9.0522 Y2.1369 F1000.00
G01 X9.0522 Y4.2639 F1000.00
G01 X9.0338 Y4.3564 F1000.00
G01 X8.9977 Y4.4435 F1000.00
G01 X8.9452 Y4.5222 F1000.00
G01 X8.8781 Y4.5893 F1000.00
G01 X8.7999 Y4.6416 F1000.00
G01 X8.7125 Y4.6777 F1000.00
G01 X8.6195 Y4.6962 F1000.00
G01 X7.6234 Y4.6962 F1000.00
G01 X7.5065 Y4.6729 F1000.00
G01 X7.3961 Y4.6272 F1000.00
G01 X7.2968 Y4.5608 F1000.00
G01 X7.2120 Y4.4760 F1000.00
G01 X7.1457 Y4.3767 F1000.00
G01 X7.0998 Y4.2658 F1000.00
G01 X7.0766 Y4.1493 F1000.00
G01 X7.1066 Y4.1464 F1000.00
G01 X7.1067 Y2.0254 F1000.00
G01 X7.1191 Y1.9630 F1000.00
G01 X7.1434 Y1.9045 F1000.00
G01 X7.1789 Y1.8514 F1000.00
G01 X7.2236 Y1.8066 F1000.00
G01 X7.2766 Y1.7712 F1000.00
G01 X7.3353 Y1.7469 F1000.00
G01 X7.3975 Y1.7345 F1000.00
G01 X8.6170 Y1.7346 F1000.00
G01 X8.7039 Y1.7519 F1000.00
G01 X8.7855 Y1.7858 F1000.00
G01 X8.8590 Y1.8349 F1000.00
G01 X8.9220 Y1.8979 F1000.00
G01 X8.9710 Y1.9712 F1000.00
G01 X9.0049 Y2.0533 F1000.00
G01 X9.0222 Y2.1399 F1000.00
G01 X9.0222 Y4.2610 F1000.00
G01 X9.0050 Y4.3476 F1000.00
G01 X8.9711 Y4.4293 F1000.00
G01 X8.9219 Y4.5031 F1000.00
G01 X8.8590 Y4.5660 F1000.00
G01 X8.7857 Y4.6150 F1000.00
G01 X8.7038 Y4.6489 F1000.00
G01 X8.6166 Y4.6662 F1000.00
G01 X7.6264 Y4.6662 F1000.00
G01 X7.5152 Y4.6441 F1000.00
G01 X7.4103 Y4.6006 F1000.00
G01 X7.3159 Y4.5375 F1000.00
G01 X7.2353 Y4.4568 F1000.00
G01 X7.1722 Y4.3625 F1000.00
G01 X7.1286 Y4.2571 F1000.00
G01 X7.1066 Y4.1464 F1000.00
G01 X7.1366 Y4.1434 F1000.00
G01 X7.1367 Y2.0283 F1000.00
G01 X7.1480 Y1.9718 F1000.00
G01 X7.1700 Y1.9187 F1000.00
G01 X7.2022 Y1.8705 F1000.00
G01 X7.2427 Y1.8300 F1000.00
G01 X7.2908 Y1.7978 F1000.00
G01 X7.3441 Y1.7757 F1000.00
G01 X7.4005 Y1.7645 F1000.00
G01 X8.6140 Y1.7646 F1000.00
G01 X8.6951 Y1.7808 F1000.00
G01 X8.7713 Y1.8123 F1000.00
G01 X8.8398 Y1.8582 F1000.00
G01 X8.8987 Y1.9170 F1000.00
G01 X8.9444 Y1.9855 F1000.00
G01 X8.9761 Y2.0620 F1000.00
G01 X8.9922 Y2.1428 F1000.00
G01 X8.9922 Y4.2580 F1000.00
G01 X8.9761 Y4.3389 F1000.00
G01 X8.9445 Y4.4151 F1000.00
G01 X8.8986 Y4.4840 F1000.00
G01 X8.8398 Y4.5427 F1000.00
G01 X8.7715 Y4.5884 F1000.00
G01 X8.6950 Y4.6200 F1000.00
G01 X8.6136 Y4.6362 F1000.00
G01 X7.6293 Y4.6362 F1000.00
G01 X7.5240 Y4.6152 F1000.00
G01 X7.4245 Y4.5740 F1000.00
G01 X7.3350 Y4.5142 F1000.00
G01 X7.2586 Y4.4377 F1000.00
G01 X7.1988 Y4.3483 F1000.00
G01 X7.1575 Y4.2483 F1000.00
G01 X7.1366 Y4.1434 F1000.00
G01 X7.1666 Y4.1405 F1000.00
G01 X7.1667 Y2.0313 F1000.00
G01 X7.1768 Y1.9805 F1000.00
G01 X7.1965 Y1.9329 F1000.00
G01 X7.2255 Y1.8896 F1000.00
G01 X7.2618 Y1.8533 F1000.00
G01 X7.3050 Y1.8244 F1000.00
G01 X7.3529 Y1.8046 F1000.00
G01 X7.4034 Y1.7945 F1000.00
G01 X8.6110 Y1.7946 F1000.00
G01 X8.6863 Y1.8096 F1000.00
G01 X8.7571 Y1.8389 F1000.00
G01 X8.8207 Y1.8815 F1000.00
G01 X8.8754 Y1.9361 F1000.00
G01 X8.9178 Y1.9997 F1000.00
G01 X8.9473 Y2.0708 F1000.00
G01 X8.9622 Y2.1458 F1000.00
G01 X8.9622 Y4.2550 F1000.00
G01 X8.9473 Y4.3301 F1000.00
G01 X8.9180 Y4.4009 F1000.00
G01 X8.8753 Y4.4648 F1000.00
G01 X8.8207 Y4.5194 F1000.00
G01 X8.7573 Y4.5618 F1000.00
G01 X8.6863 Y4.5912 F1000.00
G01 X8.6107 Y4.6062 F1000.00
G01 X7.6323 Y4.6062 F1000.00
G01 X7.5327 Y4.5864 F1000.00
G01 X7.4387 Y4.5474 F1000.00
G01 X7.3542 Y4.4909 F1000.00
G01 X7.2819 Y4.4186 F1000.00
G01 X7.2254 Y4.3341 F1000.00
G01 X7.1863 Y4.2396 F1000.00
G01 X7.1666 Y4.1405 F1000.00
G01 X7.1966 Y4.1375 F1000.00
G01 X7.1967 Y2.0342 F1000.00
G01 X7.2057 Y1.9893 F1000.00
G01 X7.2231 Y1.9471 F1000.00
G01 X7.2488 Y1.9087 F1000.00
G01 X7.2809 Y1.8766 F1000.00
G01 X7.3192 Y1.8510 F1000.00
G01 X7.3616 Y1.8334 F1000.00
G01 X7.4064 Y1.8245 F1000.00
G01 X8.6081 Y1.8246 F1000.00
G01 X8.6776 Y1.8385 F1000.00
G01 X8.7429 Y1.8655 F1000.00
G01 X8.8016 Y1.9048 F1000.00
G01 X8.8521 Y1.9553 F1000.00
G01 X8.8912 Y2.0139 F1000.00
G01 X8.9184 Y2.0795 F1000.00
G01 X8.9322 Y2.1488 F1000.00
G01 X8.9322 Y4.2521 F1000.00
G01 X8.9184 Y4.3214 F1000.00
G01 X8.8914 Y4.3867 F1000.00
G01 X8.8520 Y4.4457 F1000.00
G01 X8.8016 Y4.4961 F1000.00
G01 X8.7431 Y4.5352 F1000.00
G01 X8.6775 Y4.5623 F1000.00
G01 X8.6077 Y4.5762 F1000.00
G01 X7.6352 Y4.5762 F1000.00
G01 X7.5415 Y4.5575 F1000.00
G01 X7.4529 Y4.5208 F1000.00
G01 X7.3733 Y4.4676 F1000.00
G01 X7.3052 Y4.3995 F1000.00
G01 X7.2520 Y4.3199 F1000.00
G01 X7.2152 Y4.2308 F1000.00
G01 X7.1966 Y4.1375 F1000.00
G01 X7.2266 Y4.1345 F1000.00
G01 X7.2267 Y2.0372 F1000.00
G01 X7.2345 Y1.9980 F1000.00
G01 X7.2497 Y1.9613 F1000.00
G01 X7.2721 Y1.9278 F1000.00
G01 X7.3001 Y1.8999 F1000.00
G01 X7.3334 Y1.8776 F1000.00
G01 X7.3704 Y1.8623 F1000.00
G01 X7.4093 Y1.8545 F1000.00
G01 X8.6051 Y1.8546 F1000.00
G01 X8.6688 Y1.8673 F1000.00
G01 X8.7286 Y1.8921 F1000.00
G01 X8.7825 Y1.9281 F1000.00
G01 X8.8288 Y1.9744 F1000.00
G01 X8.8646 Y2.0281 F1000.00
G01 X8.8896 Y2.0883 F1000.00
G01 X8.9022 Y2.1517 F1000.00
G01 X8.9022 Y4.2491 F1000.00
G01 X8.8896 Y4.3126 F1000.00
G01 X8.8648 Y4.3725 F1000.00
G01 X8.8287 Y4.4266 F1000.00
G01 X8.7825 Y4.4728 F1000.00
G01 X8.7289 Y4.5086 F1000.00
G01 X8.6688 Y4.5335 F1000.00
G01 X8.6048 Y4.5462 F1000.00
G01 X7.6382 Y4.5462 F1000.00
G01 X7.5502 Y4.5287 F1000.00
G01 X7.4671 Y4.4942 F1000.00
G01 X7.3924 Y4.4443 F1000.00
G01 X7.3285 Y4.3804 F1000.00
G01 X7.2786 Y4.3057 F1000.00
G01 X7.2440 Y4.2221 F1000.00
G01 X7.2266 Y4.1345 F1000.00
G01 X7.2566 Y4.1316 F1000.00
G01 X7.2567 Y2.0402 F1000.00
G01 X7.2634 Y2.0068 F1000.00
G01 X7.2763 Y1.9755 F1000.00
G01 X7.2954 Y1.9470 F1000.00
G01 X7.3192 Y1.9232 F1000.00
G01 X7.3477 Y1.9041 F1000.00
G01 X7.3791 Y1.8911 F1000.00
G01 X7.4123 Y1.8845 F1000.00
G01 X8.6022 Y1.8846 F1000.00
G01 X8.6601 Y1.8961 F1000.00
G01 X8.7144 Y1.9187 F1000.00
G01 X8.7633 Y1.9514 F1000.00
G01 X8.8055 Y1.9935 F1000.00
G01 X8.8381 Y2.0423 F1000.00
G01 X8.8607 Y2.0970 F1000.00
G01 X8.8722 Y2.1547 F1000.00
G01 X8.8722 Y4.2462 F1000.00
G01 X8.8607 Y4.3039 F1000.00
G01 X8.8382 Y4.3583 F1000.00
G01 X8.8054 Y4.4075 F1000.00
G01 X8.7634 Y4.4495 F1000.00
G01 X8.7147 Y4.4820 F1000.00
G01 X8.6601 Y4.5046 F1000.00
G01 X8.6018 Y4.5162 F1000.00
G01 X7.6412 Y4.5162 F1000.00
G01 X7.5590 Y4.4998 F1000.00
G01 X7.4813 Y4.4677 F1000.00
G01 X7.4115 Y4.4210 F1000.00
G01 X7.3518 Y4.3612 F1000.00
G01 X7.3052 Y4.2915 F1000.00
G01 X7.2729 Y4.2134 F1000.00
G01 X7.2566 Y4.1316 F1000.00
G01 X7.2866 Y4.1286 F1000.00
G01 X7.2867 Y2.0431 F1000.00
G01 X7.2922 Y2.0155 F1000.00
G01 X7.3029 Y1.9897 F1000.00
G01 X7.3187 Y1.9661 F1000.00
G01 X7.3383 Y1.9465 F1000.00
G01 X7.3619 Y1.9307 F1000.00
G01 X7.3879 Y1.9200 F1000.00
G01 X7.4152 Y1.9145 F1000.00
G01 X8.5992 Y1.9146 F1000.00
G01 X8.6513 Y1.9250 F1000.00
G01 X8.7002 Y1.9453 F1000.00
G01 X8.7442 Y1.9747 F1000.00
G01 X8.7822 Y2.0126 F1000.00
G01 X8.8115 Y2.0565 F1000.00
G01 X8.8319 Y2.1058 F1000.00
G01 X8.8422 Y2.1576 F1000.00
G01 X8.8422 Y4.2432 F1000.00
G01 X8.8319 Y4.2952 F1000.00
G01 X8.8116 Y4.3441 F1000.00
G01 X8.7821 Y4.3884 F1000.00
G01 X8.7442 Y4.4262 F1000.00
G01 X8.7004 Y4.4554 F1000.00
G01 X8.6513 Y4.4758 F1000.00
G01 X8.5989 Y4.4862 F1000.00
G01 X7.6441 Y4.4862 F1000.00
G01 X7.5677 Y4.4710 F1000.00
G01 X7.4956 Y4.4411 F1000.00
G01 X7.4307 Y4.3977 F1000.00
G01 X7.3751 Y4.3421 F1000.00
G01 X7.3318 Y4.2773 F1000.00
G01 X7.3017 Y4.2046 F1000.00
G01 X7.2866 Y4.1286 F1000.00
G01 X7.3166 Y4.1257 F1000.00
G01 X7.3167 Y2.0461 F1000.00
G01 X7.3210 Y2.0243 F1000.00
G01 X7.3295 Y2.0039 F1000.00
G01 X7.3420 Y1.9852 F1000.00
G01 X7.3574 Y1.9698 F1000.00
G01 X7.3761 Y1.9573 F1000.00
G01 X7.3966 Y1.9488 F1000.00
G01 X7.4182 Y1.9445 F1000.00
G01 X8.5962 Y1.9446 F1000.00
G01 X8.6425 Y1.9538 F1000.00
G01 X8.6860 Y1.9718 F1000.00
G01 X8.7251 Y1.9980 F1000.00
G01 X8.7589 Y2.0318 F1000.00
G01 X8.7849 Y2.0707 F1000.00
G01 X8.8030 Y2.1145 F1000.00
G01 X8.8122 Y2.1606 F1000.00
G01 X8.8122 Y4.2403 F1000.00
G01 X8.8030 Y4.2864 F1000.00
G01 X8.7850 Y4.3299 F1000.00
G01 X8.7588 Y4.3692 F1000.00
G01 X8.7251 Y4.4029 F1000.00
G01 X8.6862 Y4.4289 F1000.00
G01 X8.6426 Y4.4469 F1000.00
G01 X8.5959 Y4.4562 F1000.00
G01 X7.6471 Y4.4562 F1000.00
G01 X7.5765 Y4.4421 F1000.00
G01 X7.5098 Y4.4145 F1000.00
G01 X7.4498 Y4.3744 F1000.00
G01 X7.3984 Y4.3230 F1000.00
G01 X7.3584 Y4.2631 F1000.00
G01 X7.3306 Y4.1959 F1000.00
G01 X7.3166 Y4.1257 F1000.00
G01 X7.3466 Y4.1227 F1000.00
G01 X7.3467 Y2.0490 F1000.00
G01 X7.3499 Y2.0330 F1000.00
G01 X7.3561 Y2.0181 F1000.00
G01 X7.3653 Y2.0043 F1000.00
G01 X7.3765 Y1.9931 F1000.00
G01 X7.3903 Y1.9839 F1000.00
G01 X7.4054 Y1.9776 F1000.00
G01 X7.4211 Y1.9745 F1000.00
G01 X8.5933 Y1.9746 F1000.00
G01 X8.6338 Y1.9827 F1000.00
G01 X8.6718 Y1.9984 F1000.00
G01 X8.7059 Y2.0213 F1000.00
G01 X8.7356 Y2.0509 F1000.00
G01 X8.7583 Y2.0849 F1000.00
G01 X8.7742 Y2.1233 F1000.00
G01 X8.7822 Y2.1636 F1000.00
G01 X8.7822 Y4.2373 F1000.00
G01 X8.7742 Y4.2777 F1000.00
G01 X8.7584 Y4.3157 F1000.00
G01 X8.7355 Y4.3501 F1000.00
G01 X8.7060 Y4.3796 F1000.00
G01 X8.6720 Y4.4023 F1000.00
G01 X8.6338 Y4.4181 F1000.00
G01 X8.5930 Y4.4262 F1000.00
G01 X7.6500 Y4.4262 F1000.00
G01 X7.5852 Y4.4133 F1000.00
G01 X7.5240 Y4.3879 F1000.00
G01 X7.4689 Y4.3511 F1000.00
G01 X7.4217 Y4.3039 F1000.00
G01 X7.3850 Y4.2489 F1000.00
G01 X7.3594 Y4.1871 F1000.00
G01 X7.3466 Y4.1227 F1000.00
G01 X7.3766 Y4.1198 F1000.00
G01 X7.3767 Y2.0520 F1000.00
G01 X7.3787 Y2.0418 F1000.00
G01 X7.3826 Y2.0324 F1000.00
G01 X7.3886 Y2.0235 F1000.00
G01 X7.3957 Y2.0164 F1000.00
G01 X7.4045 Y2.0105 F1000.00
G01 X7.4141 Y2.0065 F1000.00
G01 X7.4241 Y2.0045 F1000.00
G01 X8.5903 Y2.0046 F1000.00
G01 X8.6250 Y2.0115 F1000.00
G01 X8.6576 Y2.0250 F1000.00
G01 X8.6868 Y2.0446 F1000.00
G01 X8.7123 Y2.0700 F1000.00
G01 X8.7317 Y2.0991 F1000.00
G01 X8.7453 Y2.1320 F1000.00
G01 X8.7522 Y2.1665 F1000.00
G01 X8.7522 Y4.2344 F1000.00
G01 X8.7453 Y4.2689 F1000.00
G01 X8.7318 Y4.3015 F1000.00
G01 X8.7121 Y4.3310 F1000.00
G01 X8.6869 Y4.3563 F1000.00
G01 X8.6578 Y4.3757 F1000.00
G01 X8.6251 Y4.3892 F1000.00
G01 X8.5900 Y4.3962 F1000.00
G01 X7.6530 Y4.3962 F1000.00
G01 X7.5940 Y4.3844 F1000.00
G01 X7.5382 Y4.3613 F1000.00
G01 X7.4881 Y4.3278 F1000.00
G01 X7.4450 Y4.2847 F1000.00
G01 X7.4115 Y4.2347 F1000.00
G01 X7.3883 Y4.1784 F1000.00
G01 X7.3766 Y4.1198 F1000.00
G01 X7.4066 Y4.1168 F1000.00
G01 X7.4067 Y2.0550 F1000.00
G01 X7.4076 Y2.0505 F1000.00
G01 X7.4092 Y2.0466 F1000.00
G01 X7.4119 Y2.0426 F1000.00
G01 X7.4148 Y2.0397 F1000.00
G01 X7.4187 Y2.0371 F1000.00
G01 X7.4229 Y2.0353 F1000.00
G01 X7.4271 Y2.0345 F1000.00
G01 X8.5873 Y2.0346 F1000.00
G01 X8.6163 Y2.0404 F1000.00
G01 X8.6433 Y2.0516 F1000.00
G01 X8.6677 Y2.0679 F1000.00
G01 X8.6890 Y2.0891 F1000.00
G01 X8.7051 Y2.1133 F1000.00
G01 X8.7165 Y2.1408 F1000.00
G01 X8.7222 Y2.1695 F1000.00
G01 X8.7222 Y4.2314 F1000.00
G01 X8.7165 Y4.2602 F1000.00
G01 X8.7052 Y4.2873 F1000.00
G01 X8.6888 Y4.3119 F1000.00
G01 X8.6677 Y4.3330 F1000.00
G01 X8.6436 Y4.3491 F1000.00
G01 X8.6163 Y4.3604 F1000.00
G01 X8.5870 Y4.3662 F1000.00
G01 X7.6559 Y4.3662 F1000.00
G01 X7.6027 Y4.3556 F1000.00
G01 X7.5524 Y4.3347 F1000.00
G01 X7.5072 Y4.3045 F1000.00
G01 X7.4683 Y4.2656 F1000.00
G01 X7.4381 Y4.2205 F1000.00
G01 X7.4171 Y4.1696 F1000.00
G01 X7.4066 Y4.1168 F1000.00
G01 X7.7066 Y4.0662 F1000.00
G01 X7.7067 Y2.3345 F1000.00
G01 X8.4222 Y2.3346 F1000.00
G01 X8.4222 Y4.0662 F1000.00
G01 X7.7066 Y4.0662 F1000.00
G01 X7.7366 Y4.0362 F1000.00
G01 X7.7367 Y2.3645 F1000.00
G01 X8.3922 Y2.3646 F1000.00
G01 X8.3922 Y4.0362 F1000.00
G01 X7.7366 Y4.0362 F1000.00
G01 X7.7666 Y4.0062 F1000.00
G01 X7.7667 Y2.3945 F1000.00
G01 X8.3622 Y2.3946 F1000.00
G01 X8.3622 Y4.0062 F1000.00
G01 X7.7666 Y4.0062 F1000.00
G01 X7.7966 Y3.9762 F1000.00
G01 X7.7967 Y2.4245 F1000.00
G01 X8.3322 Y2.4246 F1000.00
G01 X8.3322 Y3.9762 F1000.00
G01 X7.7966 Y3.9762 F1000.00
G01 X7.8266 Y3.9462 F1000.00
G01 X7.8267 Y2.4545 F1000.00
G01 X8.3022 Y2.4546 F1000.00
G01 X8.3022 Y3.9462 F1000.00
G01 X7.8266 Y3.9462 F1000.00
G01 X7.8566 Y3.9162 F1000.00
G01 X7.8567 Y2.4845 F1000.00
G01 X8.2722 Y2.4846 F1000.00
G01 X8.2722 Y3.9162 F1000.00
G01 X7.8566 Y3.9162 F1000.00
G01 X7.8866 Y3.8862 F1000.00
G01 X7.8867 Y2.5145 F1000.00
G01 X8.2422 Y2.5146 F1000.00
G01 X8.2422 Y3.8862 F1000.00
G01 X7.8866 Y3.8862 F1000.00
G01 X7.9166 Y3.8562 F1000.00
G01 X7.9167 Y2.5445 F1000.00
G01 X8.2122 Y2.5446 F1000.00
G01 X8.2122 Y3.8562 F1000.00
G01 X7.9166 Y3.8562 F1000.00
G01 X7.9466 Y3.8262 F1000.00
G01 X7.9467 Y2.5745 F1000.00
G01 X8.1822 Y2.5746 F1000.00
G01 X8.1822 Y3.8262 F1000.00
G01 X7.9466 Y3.8262 F1000.00
G01 X7.9766 Y3.7962 F1000.00
G01 X7.9767 Y2.6046 F1000.00
G01 X8.1522 Y2.6046 F1000.00
G01 X8.1522 Y3.7962 F1000.00
G01 X7.9766 Y3.7962 F1000.00
G01 X8.0066 Y3.7662 F1000.00
G01 X8.0067 Y2.6346 F1000.00
G01 X8.1222 Y2.6346 F1000.00
G01 X8.1222 Y3.7662 F1000.00
G01 X8.0066 Y3.7662 F1000.00
G01 X8.0366 Y3.7362 F1000.00
G01 X8.0367 Y2.6646 F1000.00
G01 X8.0922 Y2.6646 F1000.00
G01 X8.0922 Y3.7362 F1000.00
G01 X8.0366 Y3.7362 F1000.00
G01 X7.6767 Y2.3045 F1000.00
G01 X8.4522 Y2.3046 F1000.00
G01 X8.4522 Y4.0962 F1000.00
G01 X7.6825 Y4.0962 F1000.00
G01 X7.6793 Y4.0948 F1000.00
G01 X7.6774 Y4.0926 F1000.00
G01 X7.6766 Y4.0902 F1000.00
G01 X7.6766 Y4.0893 F1000.00
G01 X7.6767 Y2.3045 F1000.00
G01 X7.6467 Y2.2745 F1000.00
G01 X8.4822 Y2.2746 F1000.00
G01 X8.4822 Y4.1262 F1000.00
G01 X7.6796 Y4.1262 F1000.00
G01 X7.6728 Y4.1248 F1000.00
G01 X7.6661 Y4.1221 F1000.00
G01 X7.6602 Y4.1181 F1000.00
G01 X7.6547 Y4.1127 F1000.00
G01 X7.6508 Y4.1068 F1000.00
G01 X7.6479 Y4.0997 F1000.00
G01 X7.6466 Y4.0932 F1000.00
G01 X7.6466 Y4.0893 F1000.00
G01 X7.6467 Y2.2745 F1000.00
G01 X7.6167 Y2.2445 F1000.00
G01 X8.5122 Y2.2446 F1000.00
G01 X8.5122 Y4.1562 F1000.00
G01 X7.6766 Y4.1562 F1000.00
G01 X7.6640 Y4.1537 F1000.00
G01 X7.6519 Y4.1487 F1000.00
G01 X7.6411 Y4.1414 F1000.00
G01 X7.6314 Y4.1318 F1000.00
G01 X7.6243 Y4.1210 F1000.00
G01 X7.6190 Y4.1084 F1000.00
G01 X7.6166 Y4.0961 F1000.00
G01 X7.6166 Y4.0893 F1000.00
G01 X7.6167 Y2.2445 F1000.00
G01 X7.5867 Y2.2145 F1000.00
G01 X8.5422 Y2.2146 F1000.00
G01 X8.5422 Y4.1862 F1000.00
G01 X7.6737 Y4.1862 F1000.00
G01 X7.6553 Y4.1825 F1000.00
G01 X7.6377 Y4.1752 F1000.00
G01 X7.6219 Y4.1647 F1000.00
G01 X7.6081 Y4.1509 F1000.00
G01 X7.5977 Y4.1352 F1000.00
G01 X7.5902 Y4.1172 F1000.00
G01 X7.5866 Y4.0991 F1000.00
G01 X7.5866 Y4.0893 F1000.00
G01 X7.5867 Y2.2145 F1000.00
G01 X7.5567 Y2.1845 F1000.00
G01 X8.5722 Y2.1846 F1000.00
G01 X8.5722 Y4.2162 F1000.00
G01 X7.6707 Y4.2162 F1000.00
G01 X7.6465 Y4.2114 F1000.00
G01 X7.6235 Y4.2018 F1000.00
G01 X7.6028 Y4.1880 F1000.00
G01 X7.5848 Y4.1700 F1000.00
G01 X7.5711 Y4.1494 F1000.00
G01 X7.5613 Y4.1259 F1000.00
G01 X7.5566 Y4.1021 F1000.00
G01 X7.5566 Y4.0893 F1000.00
G01 X7.5567 Y2.1845 F1000.00
G01 X7.5267 Y2.1545 F1000.00
G01 X8.5755 Y2.1546 F1000.00
G01 X8.5812 Y2.1557 F1000.00
G01 X8.5865 Y2.1579 F1000.00
G01 X8.5912 Y2.1611 F1000.00
G01 X8.5957 Y2.1656 F1000.00
G01 X8.5988 Y2.1701 F1000.00
G01 X8.6011 Y2.1758 F1000.00
G01 X8.6022 Y2.1813 F1000.00
G01 X8.6022 Y4.2196 F1000.00
G01 X8.6011 Y4.2252 F1000.00
G01 X8.5989 Y4.2305 F1000.00
G01 X8.5956 Y4.2354 F1000.00
G01 X8.5913 Y4.2398 F1000.00
G01 X8.5868 Y4.2427 F1000.00
G01 X8.5814 Y4.2450 F1000.00
G01 X8.5752 Y4.2462 F1000.00
G01 X7.6678 Y4.2462 F1000.00
G01 X7.6378 Y4.2402 F1000.00
G01 X7.6093 Y4.2284 F1000.00
G01 X7.5837 Y4.2113 F1000.00
G01 X7.5615 Y4.1891 F1000.00
G01 X7.5445 Y4.1636 F1000.00
G01 X7.5325 Y4.1346 F1000.00
G01 X7.5266 Y4.1050 F1000.00
G01 X7.5266 Y4.0893 F1000.00
G01 X7.5267 Y2.1545 F1000.00
G01 X7.4967 Y2.1245 F1000.00
G01 X8.5784 Y2.1246 F1000.00
G01 X8.5900 Y2.1269 F1000.00
G01 X8.6007 Y2.1313 F1000.00
G01 X8.6103 Y2.1378 F1000.00
G01 X8.6190 Y2.1465 F1000.00
G01 X8.6253 Y2.1559 F1000.00
G01 X8.6299 Y2.1670 F1000.00
G01 X8.6322 Y2.1784 F1000.00
G01 X8.6322 Y4.2225 F1000.00
G01 X8.6299 Y4.2339 F1000.00
G01 X8.6255 Y4.2447 F1000.00
G01 X8.6189 Y4.2545 F1000.00
G01 X8.6104 Y4.2631 F1000.00
G01 X8.6010 Y4.2693 F1000.00
G01 X8.5901 Y4.2738 F1000.00
G01 X8.5782 Y4.2762 F1000.00
G01 X7.6648 Y4.2762 F1000.00
G01 X7.6290 Y4.2691 F1000.00
G01 X7.5951 Y4.2550 F1000.00
G01 X7.5646 Y4.2346 F1000.00
G01 X7.5382 Y4.2083 F1000.00
G01 X7.5179 Y4.1778 F1000.00
G01 X7.5036 Y4.1434 F1000.00
G01 X7.4966 Y4.1080 F1000.00
G01 X7.4966 Y4.0893 F1000.00
G01 X7.4967 Y2.1245 F1000.00
G01 X7.4667 Y2.0945 F1000.00
G01 X8.5814 Y2.0946 F1000.00
G01 X8.5987 Y2.0981 F1000.00
G01 X8.6149 Y2.1048 F1000.00
G01 X8.6294 Y2.1145 F1000.00
G01 X8.6423 Y2.1274 F1000.00
G01 X8.6519 Y2.1417 F1000.00
G01 X8.6588 Y2.1583 F1000.00
G01 X8.6622 Y2.1754 F1000.00
G01 X8.6622 Y4.2255 F1000.00
G01 X8.6588 Y4.2427 F1000.00
G01 X8.6521 Y4.2589 F1000.00
G01 X8.6422 Y4.2736 F1000.00
G01 X8.6295 Y4.2864 F1000.00
G01 X8.6152 Y4.2959 F1000.00
G01 X8.5989 Y4.3027 F1000.00
G01 X8.5811 Y4.3062 F1000.00
G01 X7.6619 Y4.3062 F1000.00
G01 X7.6202 Y4.2979 F1000.00
G01 X7.5808 Y4.2816 F1000.00
G01 X7.5454 Y4.2579 F1000.00
G01 X7.5149 Y4.2274 F1000.00
G01 X7.4913 Y4.1920 F1000.00
G01 X7.4748 Y4.1521 F1000.00
G01 X7.4666 Y4.1109 F1000.00
G01 X7.4666 Y4.0893 F1000.00
G01 X7.4667 Y2.0945 F1000.00
G01 X7.4367 Y2.0645 F1000.00
G01 X8.5844 Y2.0646 F1000.00
G01 X8.6075 Y2.0692 F1000.00
G01 X8.6291 Y2.0782 F1000.00
G01 X8.6486 Y2.0912 F1000.00
G01 X8.6657 Y2.1083 F1000.00
G01 X8.6785 Y2.1275 F1000.00
G01 X8.6876 Y2.1495 F1000.00
G01 X8.6922 Y2.1724 F1000.00
G01 X8.6922 Y4.2285 F1000.00
G01 X8.6876 Y4.2514 F1000.00
G01 X8.6786 Y4.2731 F1000.00
G01 X8.6655 Y4.2928 F1000.00
G01 X8.6486 Y4.3097 F1000.00
G01 X8.6294 Y4.3225 F1000.00
G01 X8.6076 Y4.3315 F1000.00
G01 X8.5841 Y4.3362 F1000.00
G01 X7.6589 Y4.3362 F1000.00
G01 X7.6115 Y4.3267 F1000.00
G01 X7.5666 Y4.3082 F1000.00
G01 X7.5263 Y4.2812 F1000.00
G01 X7.4916 Y4.2465 F1000.00
G01 X7.4647 Y4.2063 F1000.00
G01 X7.4459 Y4.1609 F1000.00
G01 X7.4366 Y4.1139 F1000.00
G01 X7.4366 Y4.0893 F1000.00
G01 X7.4367 Y2.0645 F1000.00
M5
G00 X6.3870 Y1.9544
G01 F60.00
M03 S250.0
G01 F1000.00
G01 X6.3867 Y1.9597 F1000.00
G01 X6.3866 Y4.0893 F1000.00
G01 X6.3866 Y4.2121 F1000.00
G01 X6.3869 Y4.2175 F1000.00
G01 X6.4365 Y4.4671 F1000.00
G01 X6.5322 Y4.6987 F1000.00
G01 X6.5369 Y4.7077 F1000.00
G01 X6.6733 Y4.9118 F1000.00
G01 X6.6797 Y4.9196 F1000.00
G01 X6.8532 Y5.0931 F1000.00
G01 X6.8579 Y5.0972 F1000.00
G01 X7.0682 Y5.2377 F1000.00
G01 X7.0741 Y5.2406 F1000.00
G01 X7.3000 Y5.3343 F1000.00
G01 X7.3057 Y5.3363 F1000.00
G01 X7.5504 Y5.3852 F1000.00
G01 X7.5563 Y5.3860 F1000.00
G01 X8.6828 Y5.3862 F1000.00
G01 X8.6892 Y5.3857 F1000.00
G01 X8.9120 Y5.3415 F1000.00
G01 X8.9179 Y5.3395 F1000.00
G01 X9.1218 Y5.2551 F1000.00
G01 X9.1315 Y5.2499 F1000.00
G01 X9.3132 Y5.1284 F1000.00
G01 X9.3218 Y5.1215 F1000.00
G01 X9.4805 Y4.9625 F1000.00
G01 X9.4845 Y4.9571 F1000.00
G01 X9.6064 Y4.7745 F1000.00
G01 X9.6095 Y4.7692 F1000.00
G01 X9.6968 Y4.5584 F1000.00
G01 X9.6984 Y4.5521 F1000.00
G01 X9.7412 Y4.3370 F1000.00
G01 X9.7422 Y4.3267 F1000.00
G01 X9.7420 Y2.0696 F1000.00
G01 X9.7412 Y2.0638 F1000.00
G01 X9.6972 Y1.8436 F1000.00
G01 X9.6111 Y1.6352 F1000.00
G01 X9.6089 Y1.6305 F1000.00
G01 X9.6059 Y1.6254 F1000.00
G01 X9.4840 Y1.4431 F1000.00
G01 X9.4775 Y1.4351 F1000.00
G01 X9.3217 Y1.2793 F1000.00
G01 X9.3165 Y1.2748 F1000.00
G01 X9.1314 Y1.1509 F1000.00
G01 X9.1262 Y1.1478 F1000.00
G01 X8.9189 Y1.0616 F1000.00
G01 X8.9139 Y1.0598 F1000.00
G01 X8.6930 Y1.0156 F1000.00
G01 X8.6828 Y1.0146 F1000.00
G01 X7.3316 Y1.0145 F1000.00
G01 X7.3214 Y1.0155 F1000.00
G01 X7.1307 Y1.0535 F1000.00
G01 X7.1241 Y1.0552 F1000.00
G01 X6.9404 Y1.1312 F1000.00
G01 X6.9349 Y1.1338 F1000.00
G01 X6.7657 Y1.2468 F1000.00
G01 X6.7610 Y1.2509 F1000.00
G01 X6.6229 Y1.3890 F1000.00
G01 X6.6166 Y1.3968 F1000.00
G01 X6.5080 Y1.5594 F1000.00
G01 X6.5033 Y1.5684 F1000.00
G01 X6.4290 Y1.7477 F1000.00
G01 X6.4268 Y1.7541 F1000.00
G01 X6.3877 Y1.9492 F1000.00
G01 X6.3870 Y1.9544 F1000.00
M5
G00 X11.5938 Y4.3435
G01 F60.00
M03 S250.0
G01 F1000.00
G01 X11.5946 Y4.3493 F1000.00
G01 X11.6435 Y4.5941 F1000.00
G01 X11.6455 Y4.5998 F1000.00
G01 X11.7390 Y4.8253 F1000.00
G01 X11.7439 Y4.8347 F1000.00
G01 X11.8803 Y5.0388 F1000.00
G01 X11.8867 Y5.0466 F1000.00
G01 X12.0602 Y5.2201 F1000.00
G01 X12.0649 Y5.2242 F1000.00
G01 X12.2752 Y5.3647 F1000.00
G01 X12.2811 Y5.3676 F1000.00
G01 X12.5067 Y5.4611 F1000.00
G01 X12.5125 Y5.4632 F1000.00
G01 X12.5177 Y5.4645 F1000.00
G01 X12.7576 Y5.5122 F1000.00
G01 X12.7677 Y5.5132 F1000.00
G01 X13.8898 Y5.5132 F1000.00
G01 X13.8990 Y5.5123 F1000.00
G01 X14.1190 Y5.4685 F1000.00
G01 X14.1249 Y5.4665 F1000.00
G01 X14.3328 Y5.3802 F1000.00
G01 X14.3377 Y5.3773 F1000.00
G01 X14.5202 Y5.2554 F1000.00
G01 X14.5256 Y5.2514 F1000.00
G01 X14.6875 Y5.0895 F1000.00
G01 X14.6915 Y5.0841 F1000.00
G01 X14.8134 Y4.9015 F1000.00
G01 X14.8165 Y4.8962 F1000.00
G01 X14.9037 Y4.6857 F1000.00
G01 X14.9054 Y4.6791 F1000.00
G01 X14.9482 Y4.4640 F1000.00
G01 X14.9490 Y4.4581 F1000.00
G01 X14.9492 Y2.2010 F1000.00
G01 X14.9482 Y2.1908 F1000.00
G01 X14.9044 Y1.9716 F1000.00
G01 X14.9025 Y1.9659 F1000.00
G01 X14.8181 Y1.7622 F1000.00
G01 X14.8159 Y1.7575 F1000.00
G01 X14.8129 Y1.7524 F1000.00
G01 X14.6890 Y1.5673 F1000.00
G01 X14.6845 Y1.5621 F1000.00
G01 X14.5287 Y1.4063 F1000.00
G01 X14.5235 Y1.4018 F1000.00
G01 X14.3384 Y1.2779 F1000.00
G01 X14.3332 Y1.2748 F1000.00
G01 X14.1202 Y1.1866 F1000.00
G01 X13.9000 Y1.1426 F1000.00
G01 X13.8898 Y1.1416 F1000.00
G01 X12.5342 Y1.1417 F1000.00
G01 X12.5284 Y1.1425 F1000.00
G01 X12.3377 Y1.1805 F1000.00
G01 X12.3311 Y1.1822 F1000.00
G01 X12.1474 Y1.2582 F1000.00
G01 X12.1384 Y1.2629 F1000.00
G01 X11.9754 Y1.3718 F1000.00
G01 X11.9680 Y1.3779 F1000.00
G01 X11.8276 Y1.5186 F1000.00
G01 X11.8236 Y1.5238 F1000.00
G01 X11.7129 Y1.6899 F1000.00
G01 X11.7103 Y1.6954 F1000.00
G01 X11.6360 Y1.8747 F1000.00
G01 X11.6338 Y1.8811 F1000.00
G01 X11.5947 Y2.0762 F1000.00
G01 X11.5940 Y2.0814 F1000.00
G01 X11.5937 Y2.0867 F1000.00
G01 X11.5938 Y4.3435 F1000.00
G01 X11.6237 Y4.3410 F1000.00
G01 X11.6724 Y4.5857 F1000.00
G01 X11.7663 Y4.8128 F1000.00
G01 X11.7693 Y4.8187 F1000.00
G01 X11.9064 Y5.0236 F1000.00
G01 X12.0832 Y5.2004 F1000.00
G01 X12.2881 Y5.3375 F1000.00
G01 X12.2935 Y5.3403 F1000.00
G01 X12.5171 Y5.4330 F1000.00
G01 X12.5246 Y5.4353 F1000.00
G01 X12.7624 Y5.4826 F1000.00
G01 X12.7686 Y5.4832 F1000.00
G01 X13.8889 Y5.4832 F1000.00
G01 X13.8926 Y5.4829 F1000.00
G01 X14.1108 Y5.4396 F1000.00
G01 X14.3163 Y5.3548 F1000.00
G01 X14.3217 Y5.3519 F1000.00
G01 X14.5062 Y5.2284 F1000.00
G01 X14.6627 Y5.0721 F1000.00
G01 X14.6672 Y5.0665 F1000.00
G01 X14.7896 Y4.8828 F1000.00
G01 X14.8751 Y4.6764 F1000.00
G01 X14.9186 Y4.4591 F1000.00
G01 X14.9192 Y4.4527 F1000.00
G01 X14.9192 Y2.2019 F1000.00
G01 X14.9186 Y2.1956 F1000.00
G01 X14.8754 Y1.9796 F1000.00
G01 X14.7908 Y1.7746 F1000.00
G01 X14.7874 Y1.7683 F1000.00
G01 X14.6654 Y1.5859 F1000.00
G01 X14.5049 Y1.4254 F1000.00
G01 X14.3190 Y1.3013 F1000.00
G01 X14.1118 Y1.2155 F1000.00
G01 X13.8952 Y1.1722 F1000.00
G01 X13.8889 Y1.1716 F1000.00
G01 X12.5367 Y1.1716 F1000.00
G01 X12.3404 Y1.2108 F1000.00
G01 X12.1598 Y1.2855 F1000.00
G01 X12.1544 Y1.2883 F1000.00
G01 X11.9927 Y1.3964 F1000.00
G01 X11.9886 Y1.3998 F1000.00
G01 X11.8498 Y1.5389 F1000.00
G01 X11.7392 Y1.7044 F1000.00
G01 X11.6626 Y1.8894 F1000.00
G01 X11.6244 Y2.0810 F1000.00
G01 X11.6237 Y2.0876 F1000.00
G01 X11.6237 Y4.3410 F1000.00
G01 X11.6536 Y4.3374 F1000.00
G01 X11.7011 Y4.5770 F1000.00
G01 X11.7936 Y4.8003 F1000.00
G01 X11.7947 Y4.8027 F1000.00
G01 X11.9296 Y5.0044 F1000.00
G01 X12.1024 Y5.1772 F1000.00
G01 X12.3040 Y5.3121 F1000.00
G01 X12.5276 Y5.4048 F1000.00
G01 X12.5314 Y5.4061 F1000.00
G01 X12.7690 Y5.4532 F1000.00
G01 X13.8888 Y5.4532 F1000.00
G01 X14.1031 Y5.4106 F1000.00
G01 X14.3040 Y5.3274 F1000.00
G01 X14.4872 Y5.2051 F1000.00
G01 X14.6412 Y5.0511 F1000.00
G01 X14.7626 Y4.8696 F1000.00
G01 X14.8464 Y4.6676 F1000.00
G01 X14.8470 Y4.6654 F1000.00
G01 X14.8892 Y4.4523 F1000.00
G01 X14.8892 Y2.2027 F1000.00
G01 X14.8466 Y1.9878 F1000.00
G01 X14.7634 Y1.7869 F1000.00
G01 X14.7619 Y1.7841 F1000.00
G01 X14.6418 Y1.6045 F1000.00
G01 X14.4863 Y1.4490 F1000.00
G01 X14.3048 Y1.3278 F1000.00
G01 X14.1030 Y1.2442 F1000.00
G01 X13.8881 Y1.2016 F1000.00
G01 X12.5396 Y1.2015 F1000.00
G01 X12.3492 Y1.2395 F1000.00
G01 X12.1721 Y1.3129 F1000.00
G01 X12.0094 Y1.4215 F1000.00
G01 X11.8733 Y1.5576 F1000.00
G01 X11.7657 Y1.7185 F1000.00
G01 X11.6914 Y1.8982 F1000.00
G01 X11.6540 Y2.0858 F1000.00
G01 X11.6537 Y2.0880 F1000.00
G01 X11.6537 Y2.1844 F1000.00
G01 X11.6536 Y4.3374 F1000.00
G01 X11.6836 Y4.3354 F1000.00
G01 X11.7301 Y4.5686 F1000.00
G01 X11.8209 Y4.7879 F1000.00
G01 X11.9529 Y4.9854 F1000.00
G01 X12.1213 Y5.1538 F1000.00
G01 X12.3188 Y5.2858 F1000.00
G01 X12.5386 Y5.3769 F1000.00
G01 X12.7713 Y5.4232 F1000.00
G01 X13.8856 Y5.4232 F1000.00
G01 X14.0944 Y5.3817 F1000.00
G01 X14.2905 Y5.3005 F1000.00
G01 X14.4676 Y5.1823 F1000.00
G01 X14.6184 Y5.0315 F1000.00
G01 X14.7363 Y4.8548 F1000.00
G01 X14.8178 Y4.6584 F1000.00
G01 X14.8592 Y4.4501 F1000.00
G01 X14.8592 Y2.2048 F1000.00
G01 X14.8177 Y1.9964 F1000.00
G01 X14.7363 Y1.7999 F1000.00
G01 X14.6183 Y1.6233 F1000.00
G01 X14.4676 Y1.4726 F1000.00
G01 X14.2910 Y1.3545 F1000.00
G01 X14.0946 Y1.2732 F1000.00
G01 X13.8861 Y1.2316 F1000.00
G01 X12.5424 Y1.2315 F1000.00
G01 X12.3585 Y1.2681 F1000.00
G01 X12.1852 Y1.3399 F1000.00
G01 X12.0290 Y1.4443 F1000.00
G01 X11.8964 Y1.5768 F1000.00
G01 X11.7921 Y1.7331 F1000.00
G01 X11.7203 Y1.9065 F1000.00
G01 X11.6837 Y2.0902 F1000.00
G01 X11.6836 Y4.3354 F1000.00
G01 X11.7136 Y4.3324 F1000.00
G01 X11.7589 Y4.5599 F1000.00
G01 X11.8475 Y4.7737 F1000.00
G01 X11.9762 Y4.9663 F1000.00
G01 X12.1404 Y5.1305 F1000.00
G01 X12.3330 Y5.2592 F1000.00
G01 X12.5472 Y5.3480 F1000.00
G01 X12.7743 Y5.3932 F1000.00
G01 X13.8826 Y5.3932 F1000.00
G01 X14.0856 Y5.3528 F1000.00
G01 X14.2763 Y5.2739 F1000.00
G01 X14.4485 Y5.1590 F1000.00
G01 X14.5951 Y5.0125 F1000.00
G01 X14.7097 Y4.8406 F1000.00
G01 X14.7889 Y4.6496 F1000.00
G01 X14.8292 Y4.4471 F1000.00
G01 X14.8292 Y2.2078 F1000.00
G01 X14.7888 Y2.0052 F1000.00
G01 X14.7098 Y1.8141 F1000.00
G01 X14.5950 Y1.6424 F1000.00
G01 X14.4485 Y1.4959 F1000.00
G01 X14.2768 Y1.3811 F1000.00
G01 X14.0859 Y1.3020 F1000.00
G01 X13.8831 Y1.2616 F1000.00
G01 X12.5454 Y1.2615 F1000.00
G01 X12.3673 Y1.2970 F1000.00
G01 X12.1994 Y1.3665 F1000.00
G01 X12.0481 Y1.4676 F1000.00
G01 X11.9197 Y1.5959 F1000.00
G01 X11.8187 Y1.7473 F1000.00
G01 X11.7492 Y1.9149 F1000.00
G01 X11.7137 Y2.0932 F1000.00
G01 X11.7136 Y4.3324 F1000.00
G01 X11.7436 Y4.3295 F1000.00
G01 X11.7878 Y4.5511 F1000.00
G01 X11.8741 Y4.7595 F1000.00
G01 X11.9995 Y4.9471 F1000.00
G01 X12.1595 Y5.1072 F1000.00
G01 X12.3472 Y5.2327 F1000.00
G01 X12.5559 Y5.3192 F1000.00
G01 X12.7772 Y5.3632 F1000.00
G01 X13.8797 Y5.3632 F1000.00
G01 X14.0769 Y5.3240 F1000.00
G01 X14.2621 Y5.2474 F1000.00
G01 X14.4293 Y5.1357 F1000.00
G01 X14.5717 Y4.9934 F1000.00
G01 X14.6832 Y4.8264 F1000.00
G01 X14.7601 Y4.6408 F1000.00
G01 X14.7992 Y4.4442 F1000.00
G01 X14.7992 Y2.2107 F1000.00
G01 X14.7600 Y2.0139 F1000.00
G01 X14.6832 Y1.8283 F1000.00
G01 X14.5717 Y1.6616 F1000.00
G01 X14.4294 Y1.5192 F1000.00
G01 X14.2626 Y1.4077 F1000.00
G01 X14.0771 Y1.3309 F1000.00
G01 X13.8802 Y1.2916 F1000.00
G01 X12.5483 Y1.2915 F1000.00
G01 X12.3760 Y1.3258 F1000.00
G01 X12.2136 Y1.3931 F1000.00
G01 X12.0672 Y1.4909 F1000.00
G01 X11.9430 Y1.6151 F1000.00
G01 X11.8452 Y1.7615 F1000.00
G01 X11.7780 Y1.9237 F1000.00
G01 X11.7437 Y2.0961 F1000.00
G01 X11.7436 Y4.3295 F1000.00
G01 X11.7736 Y4.3265 F1000.00
G01 X11.8166 Y4.5424 F1000.00
G01 X11.9007 Y4.7453 F1000.00
G01 X12.0228 Y4.9280 F1000.00
G01 X12.1786 Y5.0839 F1000.00
G01 X12.3614 Y5.2061 F1000.00
G01 X12.5647 Y5.2903 F1000.00
G01 X12.7802 Y5.3332 F1000.00
G01 X13.8767 Y5.3332 F1000.00
G01 X14.0682 Y5.2951 F1000.00
G01 X14.2479 Y5.2208 F1000.00
G01 X14.4102 Y5.1124 F1000.00
G01 X14.5484 Y4.9742 F1000.00
G01 X14.6566 Y4.8122 F1000.00
G01 X14.7312 Y4.6321 F1000.00
G01 X14.7692 Y4.4412 F1000.00
G01 X14.7692 Y2.2137 F1000.00
G01 X14.7312 Y2.0227 F1000.00
G01 X14.6566 Y1.8425 F1000.00
G01 X14.5484 Y1.6807 F1000.00
G01 X14.4102 Y1.5425 F1000.00
G01 X14.2484 Y1.4343 F1000.00
G01 X14.0683 Y1.3597 F1000.00
G01 X13.8772 Y1.3216 F1000.00
G01 X12.5513 Y1.3215 F1000.00
G01 X12.3848 Y1.3546 F1000.00
G01 X12.2278 Y1.4197 F1000.00
G01 X12.0864 Y1.5142 F1000.00
G01 X11.9663 Y1.6342 F1000.00
G01 X11.8718 Y1.7757 F1000.00
G01 X11.8069 Y1.9324 F1000.00
G01 X11.7737 Y2.0991 F1000.00
G01 X11.7736 Y4.3265 F1000.00
G01 X11.8036 Y4.3235 F1000.00
G01 X11.8455 Y4.5336 F1000.00
G01 X11.9273 Y4.7311 F1000.00
G01 X12.0461 Y4.9089 F1000.00
G01 X12.1978 Y5.0606 F1000.00
G01 X12.3756 Y5.1795 F1000.00
G01 X12.5735 Y5.2615 F1000.00
G01 X12.7831 Y5.3032 F1000.00
G01 X13.8738 Y5.3032 F1000.00
G01 X14.0594 Y5.2663 F1000.00
G01 X14.2337 Y5.1942 F1000.00
G01 X14.3911 Y5.0891 F1000.00
G01 X14.5251 Y4.9551 F1000.00
G01 X14.6300 Y4.7980 F1000.00
G01 X14.7024 Y4.6233 F1000.00
G01 X14.7392 Y4.4383 F1000.00
G01 X14.7392 Y2.2166 F1000.00
G01 X14.7023 Y2.0314 F1000.00
G01 X14.6300 Y1.8567 F1000.00
G01 X14.5251 Y1.6998 F1000.00
G01 X14.3911 Y1.5658 F1000.00
G01 X14.2342 Y1.4609 F1000.00
G01 X14.0596 Y1.3886 F1000.00
G01 X13.8742 Y1.3516 F1000.00
G01 X12.5543 Y1.3515 F1000.00
G01 X12.3935 Y1.3835 F1000.00
G01 X12.2420 Y1.4463 F1000.00
G01 X12.1055 Y1.5375 F1000.00
G01 X11.9896 Y1.6533 F1000.00
G01 X11.8984 Y1.7899 F1000.00
G01 X11.8357 Y1.9412 F1000.00
G01 X11.8037 Y2.1020 F1000.00
G01 X11.8036 Y4.3235 F1000.00
G01 X11.8336 Y4.3206 F1000.00
G01 X11.8743 Y4.5249 F1000.00
G01 X11.9538 Y4.7169 F1000.00
G01 X12.0694 Y4.8898 F1000.00
G01 X12.2169 Y5.0373 F1000.00
G01 X12.3898 Y5.1529 F1000.00
G01 X12.5822 Y5.2326 F1000.00
G01 X12.7861 Y5.2732 F1000.00
G01 X13.8708 Y5.2732 F1000.00
G01 X14.0507 Y5.2374 F1000.00
G01 X14.2195 Y5.1676 F1000.00
G01 X14.3720 Y5.0658 F1000.00
G01 X14.5018 Y4.9360 F1000.00
G01 X14.6034 Y4.7838 F1000.00
G01 X14.6735 Y4.6146 F1000.00
G01 X14.7092 Y4.4353 F1000.00
G01 X14.7092 Y2.2196 F1000.00
G01 X14.6735 Y2.0402 F1000.00
G01 X14.6034 Y1.8709 F1000.00
G01 X14.5018 Y1.7189 F1000.00
G01 X14.3720 Y1.5891 F1000.00
G01 X14.2200 Y1.4875 F1000.00
G01 X14.0508 Y1.4174 F1000.00
G01 X13.8713 Y1.3816 F1000.00
G01 X12.5572 Y1.3815 F1000.00
G01 X12.4023 Y1.4123 F1000.00
G01 X12.2562 Y1.4728 F1000.00
G01 X12.1246 Y1.5608 F1000.00
G01 X12.0129 Y1.6724 F1000.00
G01 X11.9250 Y1.8041 F1000.00
G01 X11.8646 Y1.9499 F1000.00
G01 X11.8337 Y2.1050 F1000.00
G01 X11.8336 Y4.3206 F1000.00
G01 X11.8636 Y4.3176 F1000.00
G01 X11.9031 Y4.5161 F1000.00
G01 X11.9804 Y4.7027 F1000.00
G01 X12.0927 Y4.8706 F1000.00
G01 X12.2360 Y5.0140 F1000.00
G01 X12.4041 Y5.1263 F1000.00
G01 X12.5910 Y5.2038 F1000.00
G01 X12.7890 Y5.2432 F1000.00
G01 X13.8679 Y5.2432 F1000.00
G01 X14.0419 Y5.2086 F1000.00
G01 X14.2053 Y5.1410 F1000.00
G01 X14.3529 Y5.0425 F1000.00
G01 X14.4785 Y4.9169 F1000.00
G01 X14.5768 Y4.7696 F1000.00
G01 X14.6447 Y4.6058 F1000.00
G01 X14.6792 Y4.4324 F1000.00
G01 X14.6792 Y2.2226 F1000.00
G01 X14.6446 Y2.0489 F1000.00
G01 X14.5768 Y1.8852 F1000.00
G01 X14.4785 Y1.7381 F1000.00
G01 X14.3529 Y1.6124 F1000.00
G01 X14.2058 Y1.5141 F1000.00
G01 X14.0421 Y1.4463 F1000.00
G01 X13.8683 Y1.4116 F1000.00
G01 X12.5602 Y1.4115 F1000.00
G01 X12.4111 Y1.4412 F1000.00
G01 X12.2705 Y1.4994 F1000.00
G01 X12.1437 Y1.5841 F1000.00
G01 X12.0362 Y1.6916 F1000.00
G01 X11.9516 Y1.8183 F1000.00
G01 X11.8934 Y1.9587 F1000.00
G01 X11.8637 Y2.1080 F1000.00
G01 X11.8636 Y4.3176 F1000.00
G01 X11.8936 Y4.3147 F1000.00
G01 X11.9320 Y4.5073 F1000.00
G01 X12.0070 Y4.6884 F1000.00
G01 X12.1160 Y4.8515 F1000.00
G01 X12.2551 Y4.9907 F1000.00
G01 X12.4183 Y5.0997 F1000.00
G01 X12.5997 Y5.1749 F1000.00
G01 X12.7920 Y5.2132 F1000.00
G01 X13.8649 Y5.2132 F1000.00
G01 X14.0332 Y5.1797 F1000.00
G01 X14.1911 Y5.1144 F1000.00
G01 X14.3337 Y5.0192 F1000.00
G01 X14.4552 Y4.8978 F1000.00
G01 X14.5502 Y4.7554 F1000.00
G01 X14.6158 Y4.5971 F1000.00
G01 X14.6492 Y4.4294 F1000.00
G01 X14.6492 Y2.2255 F1000.00
G01 X14.6158 Y2.0577 F1000.00
G01 X14.5502 Y1.8994 F1000.00
G01 X14.4552 Y1.7572 F1000.00
G01 X14.3337 Y1.6357 F1000.00
G01 X14.1916 Y1.5406 F1000.00
G01 X14.0333 Y1.4751 F1000.00
G01 X13.8653 Y1.4416 F1000.00
G01 X12.5631 Y1.4415 F1000.00
G01 X12.4198 Y1.4700 F1000.00
G01 X12.2847 Y1.5260 F1000.00
G01 X12.1629 Y1.6074 F1000.00
G01 X12.0595 Y1.7107 F1000.00
G01 X11.9782 Y1.8325 F1000.00
G01 X11.9223 Y1.9674 F1000.00
G01 X11.8937 Y2.1109 F1000.00
G01 X11.8936 Y4.3147 F1000.00
G01 X11.9236 Y4.3117 F1000.00
G01 X11.9608 Y4.4986 F1000.00
G01 X12.0336 Y4.6742 F1000.00
G01 X12.1393 Y4.8324 F1000.00
G01 X12.2743 Y4.9674 F1000.00
G01 X12.4325 Y5.0732 F1000.00
G01 X12.6085 Y5.1461 F1000.00
G01 X12.7950 Y5.1832 F1000.00
G01 X13.8620 Y5.1832 F1000.00
G01 X14.0244 Y5.1509 F1000.00
G01 X14.1769 Y5.0878 F1000.00
G01 X14.3146 Y4.9959 F1000.00
G01 X14.4319 Y4.8786 F1000.00
G01 X14.5236 Y4.7412 F1000.00
G01 X14.5870 Y4.5883 F1000.00
G01 X14.6192 Y4.4265 F1000.00
G01 X14.6192 Y2.2285 F1000.00
G01 X14.5869 Y2.0664 F1000.00
G01 X14.5236 Y1.9136 F1000.00
G01 X14.4319 Y1.7763 F1000.00
G01 X14.3146 Y1.6590 F1000.00
G01 X14.1774 Y1.5672 F1000.00
G01 X14.0246 Y1.5040 F1000.00
G01 X13.8624 Y1.4716 F1000.00
G01 X12.5661 Y1.4715 F1000.00
G01 X12.4286 Y1.4989 F1000.00
G01 X12.2989 Y1.5526 F1000.00
G01 X12.1820 Y1.6307 F1000.00
G01 X12.0829 Y1.7298 F1000.00
G01 X12.0048 Y1.8467 F1000.00
G01 X11.9511 Y1.9762 F1000.00
G01 X11.9237 Y2.1139 F1000.00
G01 X11.9236 Y4.3117 F1000.00
G01 X11.9536 Y4.3087 F1000.00
G01 X11.9897 Y4.4898 F1000.00
G01 X12.0602 Y4.6600 F1000.00
G01 X12.1626 Y4.8133 F1000.00
G01 X12.2934 Y4.9441 F1000.00
G01 X12.4467 Y5.0466 F1000.00
G01 X12.6172 Y5.1172 F1000.00
G01 X12.7979 Y5.1532 F1000.00
G01 X13.8590 Y5.1532 F1000.00
G01 X14.0157 Y5.1220 F1000.00
G01 X14.1627 Y5.0612 F1000.00
G01 X14.2955 Y4.9726 F1000.00
G01 X14.4086 Y4.8595 F1000.00
G01 X14.4970 Y4.7270 F1000.00
G01 X14.5581 Y4.5796 F1000.00
G01 X14.5892 Y4.4235 F1000.00
G01 X14.5892 Y2.2314 F1000.00
G01 X14.5581 Y2.0752 F1000.00
G01 X14.4971 Y1.9278 F1000.00
G01 X14.4086 Y1.7954 F1000.00
G01 X14.2955 Y1.6823 F1000.00
G01 X14.1631 Y1.5938 F1000.00
G01 X14.0158 Y1.5328 F1000.00
G01 X13.8594 Y1.5016 F1000.00
G01 X12.5690 Y1.5015 F1000.00
G01 X12.4373 Y1.5277 F1000.00
G01 X12.3131 Y1.5792 F1000.00
G01 X12.2011 Y1.6540 F1000.00
G01 X12.1062 Y1.7489 F1000.00
G01 X12.0313 Y1.8609 F1000.00
G01 X11.9800 Y1.9850 F1000.00
G01 X11.9537 Y2.1168 F1000.00
G01 X11.9536 Y4.3087 F1000.00
G01 X11.9836 Y4.3058 F1000.00
G01 X12.0185 Y4.4811 F1000.00
G01 X12.0868 Y4.6458 F1000.00
G01 X12.1859 Y4.7942 F1000.00
G01 X12.3125 Y4.9208 F1000.00
G01 X12.4609 Y5.0200 F1000.00
G01 X12.6260 Y5.0884 F1000.00
G01 X12.8009 Y5.1232 F1000.00
G01 X13.8561 Y5.1232 F1000.00
G01 X14.0070 Y5.0932 F1000.00
G01 X14.1485 Y5.0346 F1000.00
G01 X14.2764 Y4.9493 F1000.00
G01 X14.3853 Y4.8404 F1000.00
G01 X14.4705 Y4.7128 F1000.00
G01 X14.5293 Y4.5708 F1000.00
G01 X14.5592 Y4.4206 F1000.00
G01 X14.5592 Y2.2344 F1000.00
G01 X14.5292 Y2.0839 F1000.00
G01 X14.4705 Y1.9420 F1000.00
G01 X14.3853 Y1.8145 F1000.00
G01 X14.2763 Y1.7056 F1000.00
G01 X14.1489 Y1.6204 F1000.00
G01 X14.0070 Y1.5616 F1000.00
G01 X13.8564 Y1.5316 F1000.00
G01 X12.5720 Y1.5315 F1000.00
G01 X12.4461 Y1.5566 F1000.00
G01 X12.3273 Y1.6058 F1000.00
G01 X12.2202 Y1.6773 F1000.00
G01 X12.1295 Y1.7681 F1000.00
G01 X12.0579 Y1.8751 F1000.00
G01 X12.0088 Y1.9937 F1000.00
G01 X11.9837 Y2.1198 F1000.00
G01 X11.9836 Y4.3058 F1000.00
G01 X12.0136 Y4.3028 F1000.00
