(G-CODE GENERATED BY FLATCAM v8.994 - www.flatcam.org - Version Date: 2020/11/7)

(Name: PCB2.GTL_iso_combined_cnc)
(Type: G-code from Geometry)
(Units: MM)

(Created on Friday, 27 January 2023 at 11:19)

(This preprocessor is used with a motion controller loaded with GRBL firmware.)
(It is configured to be compatible with almost any version of GRBL firmware.)

(TOOL DIAMETER: 0.2155 mm)
(Feedrate_XY: 80.0 mm/min)
(Feedrate_Z: 150.0 mm/min)
(Feedrate rapids 1500.0 mm/min)

(Z_Cut: -0.1 mm)
(Z_Move: 2.0 mm)
(Z Start: None mm)
(Z End: 15.0 mm)
(X,Y End: None mm)
(Steps per circle: 64)
(Steps per circle: 64)
(Preprocessor Geometry: grbl_11)

(X range:  -21.8249 ...   23.4097  mm)
(Y range:  -21.9517 ...   21.0627  mm)

(Spindle Speed: 10000.0 RPM)
G21
G90
G17
G94


G01 F80.00

M5             
G00 Z15.0000
G00 X0.0000 Y0.0000                
T1
M6
(MSG, Change to Tool Dia = 0.2155)
M0
G00 Z15.0000

M03 S10000.0
G01 F80.00
G00 X13.7840 Y1.0607
G01 F150.00
G01 Z-0.1000
G01 F80.00
G01 X13.8920 Y1.0607 F80.00
G01 X13.8999 Y1.0609 F80.00
G01 X13.9078 Y1.0618 F80.00
G01 X14.1339 Y1.1066 F80.00
G01 X14.1467 Y1.1100 F80.00
G01 X14.1542 Y1.1128 F80.00
G01 X14.3622 Y1.1990 F80.00
G01 X14.3717 Y1.2035 F80.00
G01 X14.3808 Y1.2089 F80.00
G01 X14.5331 Y1.3108 F80.00
G01 X15.3007 Y0.5433 F80.00
G01 X15.3362 Y0.5110 F80.00
G01 X15.3748 Y0.4825 F80.00
G01 X15.4113 Y0.4604 F80.00
G01 X15.4206 Y0.4554 F80.00
G01 X15.4545 Y0.4394 F80.00
G01 X15.4642 Y0.4354 F80.00
G01 X15.5045 Y0.4211 F80.00
G01 X15.5510 Y0.4095 F80.00
G01 X15.5985 Y0.4024 F80.00
G01 X15.6438 Y0.4001 F80.00
G01 X17.9070 Y0.4001 F80.00
G01 X17.9549 Y0.4024 F80.00
G01 X18.0024 Y0.4095 F80.00
G01 X18.0489 Y0.4211 F80.00
G01 X18.0941 Y0.4373 F80.00
G01 X18.1328 Y0.4554 F80.00
G01 X18.1398 Y0.4591 F80.00
G01 X18.1786 Y0.4825 F80.00
G01 X18.2130 Y0.5078 F80.00
G01 X18.2192 Y0.5127 F80.00
G01 X18.2489 Y0.5396 F80.00
G01 X18.2564 Y0.5471 F80.00
G01 X18.2850 Y0.5788 F80.00
G01 X18.3033 Y0.6033 F80.00
G01 X19.2024 Y0.6033 F80.00
G01 X19.2276 Y0.6045 F80.00
G01 X19.2355 Y0.6051 F80.00
G01 X19.2605 Y0.6088 F80.00
G01 X19.2793 Y0.6133 F80.00
G01 X20.2520 Y0.6133 F80.00
G01 X20.2724 Y0.6143 F80.00
G01 X20.2899 Y0.6168 F80.00
G01 X20.3098 Y0.6215 F80.00
G01 X20.3266 Y0.6272 F80.00
G01 X20.3363 Y0.6312 F80.00
G01 X20.3522 Y0.6391 F80.00
G01 X20.3674 Y0.6483 F80.00
G01 X20.3838 Y0.6604 F80.00
G01 X20.3989 Y0.6741 F80.00
G01 X20.4109 Y0.6872 F80.00
G01 X20.4217 Y0.7013 F80.00
G01 X20.4276 Y0.7100 F80.00
G01 X20.4364 Y0.7254 F80.00
G01 X20.4449 Y0.7440 F80.00
G01 X20.4508 Y0.7607 F80.00
G01 X20.4558 Y0.7805 F80.00
G01 X20.4587 Y0.8006 F80.00
G01 X20.4597 Y0.8184 F80.00
G01 X20.4597 Y1.0210 F80.00
G01 X20.4591 Y1.0361 F80.00
G01 X20.4581 Y1.0466 F80.00
G01 X20.4562 Y1.0589 F80.00
G01 X20.4546 Y1.0667 F80.00
G01 X20.4500 Y1.0838 F80.00
G01 X20.4429 Y1.1029 F80.00
G01 X20.4364 Y1.1166 F80.00
G01 X20.4326 Y1.1235 F80.00
G01 X20.4247 Y1.1364 F80.00
G01 X20.4142 Y1.1507 F80.00
G01 X20.3989 Y1.1679 F80.00
G01 X20.3858 Y1.1799 F80.00
G01 X20.3796 Y1.1848 F80.00
G01 X20.3674 Y1.1937 F80.00
G01 X20.3545 Y1.2016 F80.00
G01 X20.3476 Y1.2054 F80.00
G01 X20.3315 Y1.2129 F80.00
G01 X20.3148 Y1.2190 F80.00
G01 X20.3072 Y1.2212 F80.00
G01 X20.2925 Y1.2248 F80.00
G01 X20.2750 Y1.2275 F80.00
G01 X20.2520 Y1.2287 F80.00
G01 X19.1020 Y1.2287 F80.00
G01 X19.0816 Y1.2277 F80.00
G01 X19.0654 Y1.2255 F80.00
G01 X18.2613 Y1.2255 F80.00
G01 X18.2546 Y1.2328 F80.00
G01 X18.2489 Y1.2384 F80.00
G01 X18.2212 Y1.2635 F80.00
G01 X18.2130 Y1.2702 F80.00
G01 X18.1786 Y1.2955 F80.00
G01 X18.1421 Y1.3176 F80.00
G01 X18.1328 Y1.3226 F80.00
G01 X18.0941 Y1.3407 F80.00
G01 X18.0489 Y1.3569 F80.00
G01 X18.0024 Y1.3685 F80.00
G01 X17.9602 Y1.3749 F80.00
G01 X17.9523 Y1.3758 F80.00
G01 X17.9070 Y1.3779 F80.00
G01 X15.8489 Y1.3779 F80.00
G01 X15.0301 Y2.1967 F80.00
G01 X15.0301 Y4.4559 F80.00
G01 X15.0296 Y4.4665 F80.00
G01 X15.0281 Y4.4769 F80.00
G01 X14.9842 Y4.6978 F80.00
G01 X14.9816 Y4.7081 F80.00
G01 X14.9781 Y4.7180 F80.00
G01 X14.8920 Y4.9260 F80.00
G01 X14.8874 Y4.9356 F80.00
G01 X14.8820 Y4.9447 F80.00
G01 X14.7569 Y5.1319 F80.00
G01 X14.7506 Y5.1404 F80.00
G01 X14.7435 Y5.1482 F80.00
G01 X14.5843 Y5.3074 F80.00
G01 X14.5765 Y5.3145 F80.00
G01 X14.5680 Y5.3208 F80.00
G01 X14.3808 Y5.4459 F80.00
G01 X14.3717 Y5.4513 F80.00
G01 X14.3622 Y5.4558 F80.00
G01 X14.1542 Y5.5420 F80.00
G01 X14.1442 Y5.5456 F80.00
G01 X14.1339 Y5.5482 F80.00
G01 X13.9104 Y5.5926 F80.00
G01 X13.8999 Y5.5939 F80.00
G01 X13.8920 Y5.5941 F80.00
G01 X12.7628 Y5.5941 F80.00
G01 X12.7548 Y5.5936 F80.00
G01 X12.7444 Y5.5921 F80.00
G01 X12.4991 Y5.5433 F80.00
G01 X12.4914 Y5.5414 F80.00
G01 X12.4789 Y5.5371 F80.00
G01 X12.2477 Y5.4413 F80.00
G01 X12.2381 Y5.4368 F80.00
G01 X12.2290 Y5.4314 F80.00
G01 X12.0210 Y5.2924 F80.00
G01 X12.0125 Y5.2861 F80.00
G01 X12.0047 Y5.2790 F80.00
G01 X11.8278 Y5.1021 F80.00
G01 X11.8207 Y5.0943 F80.00
G01 X11.8144 Y5.0858 F80.00
G01 X11.6754 Y4.8778 F80.00
G01 X11.6700 Y4.8687 F80.00
G01 X11.6655 Y4.8592 F80.00
G01 X11.5697 Y4.6281 F80.00
G01 X11.5669 Y4.6206 F80.00
G01 X11.5647 Y4.6130 F80.00
G01 X11.5147 Y4.3624 F80.00
G01 X11.5132 Y4.3520 F80.00
G01 X11.5127 Y4.3414 F80.00
G01 X11.5128 Y2.0818 F80.00
G01 X11.5133 Y2.0739 F80.00
G01 X11.5148 Y2.0634 F80.00
G01 X11.5538 Y1.8670 F80.00
G01 X11.5556 Y1.8593 F80.00
G01 X11.5600 Y1.8468 F80.00
G01 X11.6366 Y1.6619 F80.00
G01 X11.6411 Y1.6523 F80.00
G01 X11.6465 Y1.6433 F80.00
G01 X11.7576 Y1.4769 F80.00
G01 X11.7639 Y1.4684 F80.00
G01 X11.7710 Y1.4605 F80.00
G01 X11.9125 Y1.3190 F80.00
G01 X11.9203 Y1.3119 F80.00
G01 X11.9288 Y1.3056 F80.00
G01 X12.0953 Y1.1943 F80.00
G01 X12.1044 Y1.1889 F80.00
G01 X12.1140 Y1.1843 F80.00
G01 X12.3037 Y1.1059 F80.00
G01 X12.3113 Y1.1036 F80.00
G01 X12.3190 Y1.1017 F80.00
G01 X12.5154 Y1.0626 F80.00
G01 X12.5232 Y1.0614 F80.00
G01 X12.5338 Y1.0606 F80.00
G01 X13.7840 Y1.0607 F80.00
G00 Z2.0000
G00 X19.2020 Y-4.4867
G01 F150.00
G01 Z-0.1000
G01 F80.00
G01 X20.6046 Y-4.4867 F80.00
G01 X20.6152 Y-4.4859 F80.00
G01 X20.6282 Y-4.4835 F80.00
G01 X20.6383 Y-4.4805 F80.00
G01 X20.6481 Y-4.4764 F80.00
G01 X20.6574 Y-4.4714 F80.00
G01 X20.6683 Y-4.4639 F80.00
G01 X20.6763 Y-4.4570 F80.00
G01 X20.6853 Y-4.4474 F80.00
G01 X20.6916 Y-4.4389 F80.00
G01 X20.6958 Y-4.4321 F80.00
G01 X20.6994 Y-4.4251 F80.00
G01 X20.7025 Y-4.4178 F80.00
G01 X20.7051 Y-4.4103 F80.00
G01 X20.7077 Y-4.4000 F80.00
G01 X20.7089 Y-4.3922 F80.00
G01 X20.7097 Y-4.3816 F80.00
G01 X20.7097 Y-2.7790 F80.00
G01 X20.7089 Y-2.7658 F80.00
G01 X20.7071 Y-2.7554 F80.00
G01 X20.7035 Y-2.7427 F80.00
G01 X20.6994 Y-2.7329 F80.00
G01 X20.6944 Y-2.7236 F80.00
G01 X20.6869 Y-2.7127 F80.00
G01 X20.6800 Y-2.7047 F80.00
G01 X20.6704 Y-2.6957 F80.00
G01 X20.6640 Y-2.6909 F80.00
G01 X20.6574 Y-2.6866 F80.00
G01 X20.6504 Y-2.6828 F80.00
G01 X20.6408 Y-2.6785 F80.00
G01 X20.6333 Y-2.6759 F80.00
G01 X20.6230 Y-2.6733 F80.00
G01 X20.6152 Y-2.6721 F80.00
G01 X20.6046 Y-2.6713 F80.00
G01 X19.2020 Y-2.6713 F80.00
G01 X19.1888 Y-2.6721 F80.00
G01 X19.1784 Y-2.6739 F80.00
G01 X19.1657 Y-2.6775 F80.00
G01 X19.1559 Y-2.6816 F80.00
G01 X19.1466 Y-2.6866 F80.00
G01 X19.1357 Y-2.6941 F80.00
G01 X19.1258 Y-2.7028 F80.00
G01 X19.1187 Y-2.7106 F80.00
G01 X19.1139 Y-2.7170 F80.00
G01 X19.1096 Y-2.7236 F80.00
G01 X19.1058 Y-2.7306 F80.00
G01 X19.1015 Y-2.7402 F80.00
G01 X19.0982 Y-2.7503 F80.00
G01 X19.0963 Y-2.7580 F80.00
G01 X19.0948 Y-2.7684 F80.00
G01 X19.0943 Y-2.7764 F80.00
G01 X19.0944 Y-4.3843 F80.00
G01 X19.0954 Y-4.3948 F80.00
G01 X19.0975 Y-4.4052 F80.00
G01 X19.0997 Y-4.4128 F80.00
G01 X19.1035 Y-4.4227 F80.00
G01 X19.1082 Y-4.4321 F80.00
G01 X19.1139 Y-4.4410 F80.00
G01 X19.1204 Y-4.4494 F80.00
G01 X19.1277 Y-4.4570 F80.00
G01 X19.1357 Y-4.4639 F80.00
G01 X19.1444 Y-4.4700 F80.00
G01 X19.1536 Y-4.4752 F80.00
G01 X19.1608 Y-4.4785 F80.00
G01 X19.1707 Y-4.4821 F80.00
G01 X19.1810 Y-4.4847 F80.00
G01 X19.1914 Y-4.4862 F80.00
G01 X19.2020 Y-4.4867 F80.00
G00 Z2.0000
G00 X21.9020 Y-4.2367
G01 F150.00
G01 Z-0.1000
G01 F80.00
G01 X22.8020 Y-4.2367 F80.00
G01 X22.8540 Y-4.2343 F80.00
G01 X22.8619 Y-4.2334 F80.00
G01 X22.9108 Y-4.2260 F80.00
G01 X22.9588 Y-4.2141 F80.00
G01 X22.9689 Y-4.2111 F80.00
G01 X23.0154 Y-4.1943 F80.00
G01 X23.0602 Y-4.1733 F80.00
G01 X23.0695 Y-4.1683 F80.00
G01 X23.1097 Y-4.1442 F80.00
G01 X23.1162 Y-4.1397 F80.00
G01 X23.1558 Y-4.1101 F80.00
G01 X23.1964 Y-4.0734 F80.00
G01 X23.2331 Y-4.0328 F80.00
G01 X23.2658 Y-3.9889 F80.00
G01 X23.2939 Y-3.9419 F80.00
G01 X23.3173 Y-3.8924 F80.00
G01 X23.3357 Y-3.8409 F80.00
G01 X23.3490 Y-3.7878 F80.00
G01 X23.3571 Y-3.7337 F80.00
G01 X23.3597 Y-3.6790 F80.00
G01 X23.3571 Y-3.6243 F80.00
G01 X23.3490 Y-3.5702 F80.00
G01 X23.3357 Y-3.5171 F80.00
G01 X23.3173 Y-3.4656 F80.00
G01 X23.2939 Y-3.4161 F80.00
G01 X23.2672 Y-3.3713 F80.00
G01 X23.2627 Y-3.3648 F80.00
G01 X23.2331 Y-3.3252 F80.00
G01 X23.1964 Y-3.2846 F80.00
G01 X23.1558 Y-3.2479 F80.00
G01 X23.1162 Y-3.2183 F80.00
G01 X23.1074 Y-3.2124 F80.00
G01 X23.0695 Y-3.1897 F80.00
G01 X23.0602 Y-3.1847 F80.00
G01 X23.0154 Y-3.1637 F80.00
G01 X22.9689 Y-3.1469 F80.00
G01 X22.9588 Y-3.1439 F80.00
G01 X22.9108 Y-3.1320 F80.00
G01 X22.8567 Y-3.1239 F80.00
G01 X22.8020 Y-3.1213 F80.00
G01 X21.9020 Y-3.1213 F80.00
G01 X21.8500 Y-3.1237 F80.00
G01 X21.8421 Y-3.1246 F80.00
G01 X21.7932 Y-3.1320 F80.00
G01 X21.7452 Y-3.1439 F80.00
G01 X21.7351 Y-3.1469 F80.00
G01 X21.6886 Y-3.1637 F80.00
G01 X21.6438 Y-3.1847 F80.00
G01 X21.6345 Y-3.1897 F80.00
G01 X21.5943 Y-3.2138 F80.00
G01 X21.5523 Y-3.2446 F80.00
G01 X21.5442 Y-3.2513 F80.00
G01 X21.5076 Y-3.2846 F80.00
G01 X21.4709 Y-3.3252 F80.00
G01 X21.4382 Y-3.3691 F80.00
G01 X21.4127 Y-3.4115 F80.00
G01 X21.4077 Y-3.4208 F80.00
G01 X21.3888 Y-3.4607 F80.00
G01 X21.3848 Y-3.4705 F80.00
G01 X21.3683 Y-3.5171 F80.00
G01 X21.3550 Y-3.5702 F80.00
G01 X21.3469 Y-3.6243 F80.00
G01 X21.3444 Y-3.6737 F80.00
G01 X21.3444 Y-3.6843 F80.00
G01 X21.3465 Y-3.7284 F80.00
G01 X21.3476 Y-3.7389 F80.00
G01 X21.3550 Y-3.7878 F80.00
G01 X21.3683 Y-3.8409 F80.00
G01 X21.3867 Y-3.8924 F80.00
G01 X21.4077 Y-3.9372 F80.00
G01 X21.4127 Y-3.9465 F80.00
G01 X21.4354 Y-3.9844 F80.00
G01 X21.4413 Y-3.9932 F80.00
G01 X21.4709 Y-4.0328 F80.00
G01 X21.5076 Y-4.0734 F80.00
G01 X21.5482 Y-4.1101 F80.00
G01 X21.5878 Y-4.1397 F80.00
G01 X21.5966 Y-4.1456 F80.00
G01 X21.6345 Y-4.1683 F80.00
G01 X21.6438 Y-4.1733 F80.00
G01 X21.6886 Y-4.1943 F80.00
G01 X21.7401 Y-4.2127 F80.00
G01 X21.7932 Y-4.2260 F80.00
G01 X21.8421 Y-4.2334 F80.00
G01 X21.8526 Y-4.2345 F80.00
G01 X21.9020 Y-4.2367 F80.00
G00 Z2.0000
G00 X21.9020 Y2.3633
G01 F150.00
G01 Z-0.1000
G01 F80.00
G01 X22.8020 Y2.3633 F80.00
G01 X22.8540 Y2.3657 F80.00
G01 X22.8619 Y2.3666 F80.00
G01 X22.9108 Y2.3740 F80.00
G01 X22.9588 Y2.3859 F80.00
G01 X22.9689 Y2.3889 F80.00
G01 X23.0154 Y2.4057 F80.00
G01 X23.0602 Y2.4267 F80.00
G01 X23.0695 Y2.4317 F80.00
G01 X23.1097 Y2.4558 F80.00
G01 X23.1162 Y2.4603 F80.00
G01 X23.1558 Y2.4899 F80.00
G01 X23.1964 Y2.5266 F80.00
G01 X23.2331 Y2.5672 F80.00
G01 X23.2658 Y2.6111 F80.00
G01 X23.2939 Y2.6581 F80.00
G01 X23.3173 Y2.7076 F80.00
G01 X23.3357 Y2.7591 F80.00
G01 X23.3490 Y2.8122 F80.00
G01 X23.3571 Y2.8663 F80.00
G01 X23.3597 Y2.9210 F80.00
G01 X23.3571 Y2.9757 F80.00
G01 X23.3490 Y3.0298 F80.00
G01 X23.3357 Y3.0829 F80.00
G01 X23.3173 Y3.1344 F80.00
G01 X23.2939 Y3.1839 F80.00
G01 X23.2672 Y3.2287 F80.00
G01 X23.2627 Y3.2352 F80.00
G01 X23.2331 Y3.2748 F80.00
G01 X23.1964 Y3.3154 F80.00
G01 X23.1558 Y3.3521 F80.00
G01 X23.1162 Y3.3817 F80.00
G01 X23.1074 Y3.3876 F80.00
G01 X23.0695 Y3.4103 F80.00
G01 X23.0602 Y3.4153 F80.00
G01 X23.0154 Y3.4363 F80.00
G01 X22.9689 Y3.4531 F80.00
G01 X22.9588 Y3.4561 F80.00
G01 X22.9108 Y3.4680 F80.00
G01 X22.8567 Y3.4761 F80.00
G01 X22.8020 Y3.4787 F80.00
G01 X21.9020 Y3.4787 F80.00
G01 X21.8500 Y3.4763 F80.00
G01 X21.8421 Y3.4754 F80.00
G01 X21.7932 Y3.4680 F80.00
G01 X21.7452 Y3.4561 F80.00
G01 X21.7351 Y3.4531 F80.00
G01 X21.6886 Y3.4363 F80.00
G01 X21.6438 Y3.4153 F80.00
G01 X21.6345 Y3.4103 F80.00
G01 X21.5943 Y3.3862 F80.00
G01 X21.5523 Y3.3554 F80.00
G01 X21.5442 Y3.3487 F80.00
G01 X21.5076 Y3.3154 F80.00
G01 X21.4709 Y3.2748 F80.00
G01 X21.4382 Y3.2309 F80.00
G01 X21.4127 Y3.1885 F80.00
G01 X21.4077 Y3.1792 F80.00
G01 X21.3888 Y3.1393 F80.00
G01 X21.3848 Y3.1295 F80.00
G01 X21.3683 Y3.0829 F80.00
G01 X21.3550 Y3.0298 F80.00
G01 X21.3469 Y2.9757 F80.00
G01 X21.3444 Y2.9263 F80.00
G01 X21.3444 Y2.9157 F80.00
G01 X21.3465 Y2.8716 F80.00
G01 X21.3476 Y2.8611 F80.00
G01 X21.3550 Y2.8122 F80.00
G01 X21.3683 Y2.7591 F80.00
G01 X21.3867 Y2.7076 F80.00
G01 X21.4077 Y2.6628 F80.00
G01 X21.4127 Y2.6535 F80.00
G01 X21.4354 Y2.6156 F80.00
G01 X21.4413 Y2.6068 F80.00
G01 X21.4709 Y2.5672 F80.00
G01 X21.5076 Y2.5266 F80.00
G01 X21.5482 Y2.4899 F80.00
G01 X21.5878 Y2.4603 F80.00
G01 X21.5966 Y2.4544 F80.00
G01 X21.6345 Y2.4317 F80.00
G01 X21.6438 Y2.4267 F80.00
G01 X21.6886 Y2.4057 F80.00
G01 X21.7401 Y2.3873 F80.00
G01 X21.7932 Y2.3740 F80.00
G01 X21.8421 Y2.3666 F80.00
G01 X21.8526 Y2.3655 F80.00
G01 X21.9020 Y2.3633 F80.00
G00 Z2.0000
G00 X13.6966 Y18.4203
G01 F150.00
G01 Z-0.1000
G01 F80.00
G01 X13.6840 Y18.6745 F80.00
G01 X13.6459 Y18.9316 F80.00
G01 X13.5827 Y19.1836 F80.00
G01 X13.4952 Y19.4283 F80.00
G01 X13.3841 Y19.6631 F80.00
G01 X13.2505 Y19.8860 F80.00
G01 X13.0957 Y20.0947 F80.00
G01 X12.9212 Y20.2872 F80.00
G01 X12.7287 Y20.4617 F80.00
G01 X12.5200 Y20.6165 F80.00
G01 X12.2971 Y20.7501 F80.00
G01 X12.0623 Y20.8612 F80.00
G01 X11.8176 Y20.9487 F80.00
G01 X11.5656 Y21.0119 F80.00
G01 X11.3085 Y21.0500 F80.00
G01 X11.0490 Y21.0627 F80.00
G01 X10.7895 Y21.0500 F80.00
G01 X10.5324 Y21.0119 F80.00
G01 X10.2804 Y20.9487 F80.00
G01 X10.0357 Y20.8612 F80.00
G01 X9.8009 Y20.7501 F80.00
G01 X9.5780 Y20.6165 F80.00
G01 X9.3693 Y20.4617 F80.00
G01 X9.1768 Y20.2872 F80.00
G01 X9.0023 Y20.0947 F80.00
G01 X8.8475 Y19.8860 F80.00
G01 X8.7139 Y19.6631 F80.00
G01 X8.6028 Y19.4283 F80.00
G01 X8.5153 Y19.1836 F80.00
G01 X8.4521 Y18.9316 F80.00
G01 X8.4140 Y18.6745 F80.00
G01 X8.4013 Y18.4150 F80.00
G01 X8.4140 Y18.1555 F80.00
G01 X8.4521 Y17.8984 F80.00
G01 X8.5153 Y17.6464 F80.00
G01 X8.6028 Y17.4017 F80.00
G01 X8.7139 Y17.1669 F80.00
G01 X8.8475 Y16.9440 F80.00
G01 X9.0023 Y16.7353 F80.00
G01 X9.1768 Y16.5428 F80.00
G01 X9.3693 Y16.3683 F80.00
G01 X9.5780 Y16.2135 F80.00
G01 X9.8009 Y16.0799 F80.00
G01 X10.0357 Y15.9688 F80.00
G01 X10.2804 Y15.8813 F80.00
G01 X10.5324 Y15.8181 F80.00
G01 X10.7895 Y15.7800 F80.00
G01 X11.0490 Y15.7673 F80.00
G01 X11.3085 Y15.7800 F80.00
G01 X11.5656 Y15.8181 F80.00
G01 X11.8176 Y15.8813 F80.00
G01 X12.0623 Y15.9688 F80.00
G01 X12.2971 Y16.0799 F80.00
G01 X12.5200 Y16.2135 F80.00
G01 X12.7287 Y16.3683 F80.00
G01 X12.9212 Y16.5428 F80.00
G01 X13.0957 Y16.7353 F80.00
G01 X13.2505 Y16.9440 F80.00
G01 X13.3841 Y17.1669 F80.00
G01 X13.4952 Y17.4017 F80.00
G01 X13.5827 Y17.6464 F80.00
G01 X13.6459 Y17.8984 F80.00
G01 X13.6840 Y18.1555 F80.00
G01 X13.6966 Y18.4097 F80.00
G01 X13.6966 Y18.4203 F80.00
G00 Z2.0000
G00 X-6.7504 Y18.4203
G01 F150.00
G01 Z-0.1000
G01 F80.00
G01 X-6.7630 Y18.6745 F80.00
G01 X-6.8011 Y18.9316 F80.00
G01 X-6.8643 Y19.1836 F80.00
G01 X-6.9518 Y19.4283 F80.00
G01 X-7.0629 Y19.6631 F80.00
G01 X-7.1965 Y19.8860 F80.00
G01 X-7.3513 Y20.0947 F80.00
G01 X-7.5258 Y20.2872 F80.00
G01 X-7.7183 Y20.4617 F80.00
G01 X-7.9270 Y20.6165 F80.00
G01 X-8.1499 Y20.7501 F80.00
G01 X-8.3847 Y20.8612 F80.00
G01 X-8.6294 Y20.9487 F80.00
G01 X-8.8814 Y21.0119 F80.00
G01 X-9.1385 Y21.0500 F80.00
G01 X-9.3980 Y21.0627 F80.00
G01 X-9.6575 Y21.0500 F80.00
G01 X-9.9146 Y21.0119 F80.00
G01 X-10.1666 Y20.9487 F80.00
G01 X-10.4113 Y20.8612 F80.00
G01 X-10.6461 Y20.7501 F80.00
G01 X-10.8690 Y20.6165 F80.00
G01 X-11.0777 Y20.4617 F80.00
G01 X-11.2702 Y20.2872 F80.00
G01 X-11.4447 Y20.0947 F80.00
G01 X-11.5995 Y19.8860 F80.00
G01 X-11.7331 Y19.6631 F80.00
G01 X-11.8442 Y19.4283 F80.00
G01 X-11.9317 Y19.1836 F80.00
G01 X-11.9949 Y18.9316 F80.00
G01 X-12.0330 Y18.6745 F80.00
G01 X-12.0457 Y18.4150 F80.00
G01 X-12.0330 Y18.1555 F80.00
G01 X-11.9949 Y17.8984 F80.00
G01 X-11.9317 Y17.6464 F80.00
G01 X-11.8442 Y17.4017 F80.00
G01 X-11.7331 Y17.1669 F80.00
G01 X-11.5995 Y16.9440 F80.00
G01 X-11.4447 Y16.7353 F80.00
G01 X-11.2702 Y16.5428 F80.00
G01 X-11.0777 Y16.3683 F80.00
G01 X-10.8690 Y16.2135 F80.00
G01 X-10.6461 Y16.0799 F80.00
G01 X-10.4113 Y15.9688 F80.00
G01 X-10.1666 Y15.8813 F80.00
G01 X-9.9146 Y15.8181 F80.00
G01 X-9.6575 Y15.7800 F80.00
G01 X-9.3980 Y15.7673 F80.00
G01 X-9.1385 Y15.7800 F80.00
G01 X-8.8814 Y15.8181 F80.00
G01 X-8.6294 Y15.8813 F80.00
G01 X-8.3847 Y15.9688 F80.00
G01 X-8.1499 Y16.0799 F80.00
G01 X-7.9270 Y16.2135 F80.00
G01 X-7.7183 Y16.3683 F80.00
G01 X-7.5258 Y16.5428 F80.00
G01 X-7.3513 Y16.7353 F80.00
G01 X-7.1965 Y16.9440 F80.00
G01 X-7.0629 Y17.1669 F80.00
G01 X-6.9518 Y17.4017 F80.00
G01 X-6.8643 Y17.6464 F80.00
G01 X-6.8011 Y17.8984 F80.00
G01 X-6.7630 Y18.1555 F80.00
G01 X-6.7504 Y18.4097 F80.00
G01 X-6.7504 Y18.4203 F80.00
G00 Z2.0000
G00 X-14.5730 Y11.6563
G01 F150.00
G01 Z-0.1000
G01 F80.00
G01 X-13.5730 Y11.6563 F80.00
G01 X-13.5651 Y11.6565 F80.00
G01 X-13.5572 Y11.6574 F80.00
G01 X-13.5443 Y11.6602 F80.00
G01 X-13.5318 Y11.6645 F80.00
G01 X-13.5199 Y11.6702 F80.00
G01 X-13.5110 Y11.6759 F80.00
G01 X-13.5006 Y11.6842 F80.00
G01 X-13.4914 Y11.6936 F80.00
G01 X-13.4834 Y11.7041 F80.00
G01 X-13.4780 Y11.7132 F80.00
G01 X-13.4735 Y11.7228 F80.00
G01 X-13.4699 Y11.7327 F80.00
G01 X-13.4673 Y11.7430 F80.00
G01 X-13.4658 Y11.7534 F80.00
G01 X-13.4653 Y11.7640 F80.00
G01 X-13.4653 Y11.8301 F80.00
G01 X-13.1807 Y11.8301 F80.00
G01 X-13.1807 Y11.7640 F80.00
G01 X-13.1799 Y11.7508 F80.00
G01 X-13.1781 Y11.7404 F80.00
G01 X-13.1753 Y11.7302 F80.00
G01 X-13.1704 Y11.7179 F80.00
G01 X-13.1654 Y11.7086 F80.00
G01 X-13.1579 Y11.6977 F80.00
G01 X-13.1492 Y11.6878 F80.00
G01 X-13.1393 Y11.6791 F80.00
G01 X-13.1284 Y11.6716 F80.00
G01 X-13.1167 Y11.6655 F80.00
G01 X-13.1043 Y11.6609 F80.00
G01 X-13.0914 Y11.6578 F80.00
G01 X-13.0783 Y11.6564 F80.00
G01 X-12.0730 Y11.6563 F80.00
G01 X-12.0598 Y11.6571 F80.00
G01 X-12.0468 Y11.6595 F80.00
G01 X-12.0342 Y11.6635 F80.00
G01 X-12.0246 Y11.6678 F80.00
G01 X-12.0131 Y11.6744 F80.00
G01 X-12.0026 Y11.6824 F80.00
G01 X-11.9932 Y11.6916 F80.00
G01 X-11.9849 Y11.7020 F80.00
G01 X-11.9780 Y11.7132 F80.00
G01 X-11.9735 Y11.7228 F80.00
G01 X-11.9699 Y11.7327 F80.00
G01 X-11.9673 Y11.7430 F80.00
G01 X-11.9658 Y11.7534 F80.00
G01 X-11.9653 Y11.7640 F80.00
G01 X-11.9653 Y11.8301 F80.00
G01 X-11.6807 Y11.8301 F80.00
G01 X-11.6807 Y11.7640 F80.00
G01 X-11.6802 Y11.7534 F80.00
G01 X-11.6787 Y11.7430 F80.00
G01 X-11.6761 Y11.7327 F80.00
G01 X-11.6725 Y11.7228 F80.00
G01 X-11.6680 Y11.7132 F80.00
G01 X-11.6611 Y11.7020 F80.00
G01 X-11.6546 Y11.6936 F80.00
G01 X-11.6454 Y11.6842 F80.00
G01 X-11.6350 Y11.6759 F80.00
G01 X-11.6238 Y11.6690 F80.00
G01 X-11.6118 Y11.6635 F80.00
G01 X-11.6017 Y11.6602 F80.00
G01 X-11.5888 Y11.6574 F80.00
G01 X-11.5809 Y11.6565 F80.00
G01 X-11.5730 Y11.6563 F80.00
G01 X-10.5730 Y11.6563 F80.00
G01 X-10.5651 Y11.6565 F80.00
G01 X-10.5572 Y11.6574 F80.00
G01 X-10.5443 Y11.6602 F80.00
G01 X-10.5318 Y11.6645 F80.00
G01 X-10.5199 Y11.6702 F80.00
G01 X-10.5088 Y11.6775 F80.00
G01 X-10.4987 Y11.6860 F80.00
G01 X-10.4897 Y11.6956 F80.00
G01 X-10.4820 Y11.7064 F80.00
G01 X-10.4768 Y11.7156 F80.00
G01 X-10.4715 Y11.7277 F80.00
G01 X-10.4685 Y11.7378 F80.00
G01 X-10.4661 Y11.7508 F80.00
G01 X-10.4653 Y11.7640 F80.00
G01 X-10.4653 Y11.8301 F80.00
G01 X-8.5510 Y11.8301 F80.00
G01 X-8.5031 Y11.8324 F80.00
G01 X-8.4608 Y11.8386 F80.00
G01 X-8.4505 Y11.8406 F80.00
G01 X-8.4065 Y11.8519 F80.00
G01 X-8.3688 Y11.8654 F80.00
G01 X-8.3591 Y11.8694 F80.00
G01 X-8.3205 Y11.8878 F80.00
G01 X-8.2838 Y11.9096 F80.00
G01 X-8.2750 Y11.9155 F80.00
G01 X-8.2408 Y11.9410 F80.00
G01 X-8.2072 Y11.9714 F80.00
G01 X-5.5365 Y14.6421 F80.00
G01 X-3.3777 Y14.6421 F80.00
G01 X-3.3777 Y14.5580 F80.00
G01 X-3.3772 Y14.5474 F80.00
G01 X-3.3757 Y14.5370 F80.00
G01 X-3.3731 Y14.5267 F80.00
G01 X-3.3685 Y14.5143 F80.00
G01 X-3.3638 Y14.5049 F80.00
G01 X-3.3596 Y14.4981 F80.00
G01 X-3.3549 Y14.4917 F80.00
G01 X-3.3462 Y14.4818 F80.00
G01 X-3.3363 Y14.4731 F80.00
G01 X-3.3299 Y14.4684 F80.00
G01 X-3.3231 Y14.4642 F80.00
G01 X-3.3161 Y14.4606 F80.00
G01 X-3.3088 Y14.4575 F80.00
G01 X-3.2962 Y14.4535 F80.00
G01 X-3.2832 Y14.4511 F80.00
G01 X-3.2700 Y14.4503 F80.00
G01 X-2.2700 Y14.4503 F80.00
G01 X-2.2621 Y14.4505 F80.00
G01 X-2.2516 Y14.4518 F80.00
G01 X-2.2387 Y14.4549 F80.00
G01 X-2.2263 Y14.4595 F80.00
G01 X-2.2146 Y14.4656 F80.00
G01 X-2.2037 Y14.4731 F80.00
G01 X-2.1938 Y14.4818 F80.00
G01 X-2.1851 Y14.4917 F80.00
G01 X-2.1790 Y14.5004 F80.00
G01 X-2.1726 Y14.5119 F80.00
G01 X-2.1685 Y14.5217 F80.00
G01 X-2.1662 Y14.5293 F80.00
G01 X-2.1638 Y14.5396 F80.00
G01 X-2.1625 Y14.5501 F80.00
G01 X-2.1623 Y14.5580 F80.00
G01 X-2.1623 Y14.6421 F80.00
G01 X-1.8777 Y14.6421 F80.00
G01 X-1.8777 Y14.5580 F80.00
G01 X-1.8772 Y14.5474 F80.00
G01 X-1.8757 Y14.5370 F80.00
G01 X-1.8731 Y14.5267 F80.00
G01 X-1.8695 Y14.5168 F80.00
G01 X-1.8638 Y14.5049 F80.00
G01 X-1.8565 Y14.4938 F80.00
G01 X-1.8516 Y14.4876 F80.00
G01 X-1.8462 Y14.4818 F80.00
G01 X-1.8404 Y14.4764 F80.00
G01 X-1.8342 Y14.4715 F80.00
G01 X-1.8231 Y14.4642 F80.00
G01 X-1.8112 Y14.4585 F80.00
G01 X-1.8038 Y14.4557 F80.00
G01 X-1.7962 Y14.4535 F80.00
G01 X-1.7832 Y14.4511 F80.00
G01 X-1.7700 Y14.4503 F80.00
G01 X-0.7700 Y14.4503 F80.00
G01 X-0.7621 Y14.4505 F80.00
G01 X-0.7516 Y14.4518 F80.00
G01 X-0.7387 Y14.4549 F80.00
G01 X-0.7263 Y14.4595 F80.00
G01 X-0.7146 Y14.4656 F80.00
G01 X-0.7037 Y14.4731 F80.00
G01 X-0.6938 Y14.4818 F80.00
G01 X-0.6851 Y14.4917 F80.00
G01 X-0.6790 Y14.5004 F80.00
G01 X-0.6726 Y14.5119 F80.00
G01 X-0.6685 Y14.5217 F80.00
G01 X-0.6662 Y14.5293 F80.00
G01 X-0.6638 Y14.5396 F80.00
G01 X-0.6625 Y14.5501 F80.00
G01 X-0.6623 Y14.5580 F80.00
G01 X-0.6623 Y14.6421 F80.00
G01 X-0.3777 Y14.6421 F80.00
G01 X-0.3777 Y14.5580 F80.00
G01 X-0.3772 Y14.5474 F80.00
G01 X-0.3757 Y14.5370 F80.00
G01 X-0.3731 Y14.5267 F80.00
G01 X-0.3685 Y14.5143 F80.00
G01 X-0.3638 Y14.5049 F80.00
G01 X-0.3565 Y14.4938 F80.00
G01 X-0.3516 Y14.4876 F80.00
G01 X-0.3462 Y14.4818 F80.00
G01 X-0.3404 Y14.4764 F80.00
G01 X-0.3342 Y14.4715 F80.00
G01 X-0.3231 Y14.4642 F80.00
G01 X-0.3112 Y14.4585 F80.00
G01 X-0.3038 Y14.4557 F80.00
G01 X-0.2962 Y14.4535 F80.00
G01 X-0.2832 Y14.4511 F80.00
G01 X-0.2700 Y14.4503 F80.00
G01 X0.7300 Y14.4503 F80.00
G01 X0.7379 Y14.4505 F80.00
G01 X0.7484 Y14.4518 F80.00
G01 X0.7613 Y14.4549 F80.00
G01 X0.7737 Y14.4595 F80.00
G01 X0.7854 Y14.4656 F80.00
G01 X0.7963 Y14.4731 F80.00
G01 X0.8062 Y14.4818 F80.00
G01 X0.8149 Y14.4917 F80.00
G01 X0.8210 Y14.5004 F80.00
G01 X0.8274 Y14.5119 F80.00
G01 X0.8315 Y14.5217 F80.00
G01 X0.8338 Y14.5293 F80.00
G01 X0.8362 Y14.5396 F80.00
G01 X0.8375 Y14.5501 F80.00
G01 X0.8377 Y14.5580 F80.00
G01 X0.8377 Y14.6421 F80.00
G01 X2.3135 Y14.6421 F80.00
G01 X4.9842 Y11.9714 F80.00
G01 X5.0178 Y11.9410 F80.00
G01 X5.0520 Y11.9155 F80.00
G01 X5.0608 Y11.9096 F80.00
G01 X5.0929 Y11.8904 F80.00
G01 X5.1022 Y11.8854 F80.00
G01 X5.1409 Y11.8673 F80.00
G01 X5.1861 Y11.8511 F80.00
G01 X5.2326 Y11.8395 F80.00
G01 X5.2774 Y11.8327 F80.00
G01 X5.2853 Y11.8320 F80.00
G01 X5.3280 Y11.8301 F80.00
G01 X8.4093 Y11.8301 F80.00
G01 X8.4093 Y11.6164 F80.00
G01 X8.4098 Y11.6084 F80.00
G01 X8.4108 Y11.6006 F80.00
G01 X8.4125 Y11.5928 F80.00
G01 X8.4147 Y11.5852 F80.00
G01 X8.4175 Y11.5778 F80.00
G01 X8.4220 Y11.5682 F80.00
G01 X8.4260 Y11.5614 F80.00
G01 X8.4305 Y11.5548 F80.00
G01 X8.4354 Y11.5486 F80.00
G01 X8.4427 Y11.5410 F80.00
G01 X8.4486 Y11.5357 F80.00
G01 X8.4550 Y11.5309 F80.00
G01 X8.4616 Y11.5266 F80.00
G01 X8.4709 Y11.5216 F80.00
G01 X8.4782 Y11.5185 F80.00
G01 X8.4857 Y11.5159 F80.00
G01 X8.4934 Y11.5139 F80.00
G01 X8.5012 Y11.5124 F80.00
G01 X8.5091 Y11.5115 F80.00
G01 X8.5170 Y11.5113 F80.00
G01 X9.5170 Y11.5113 F80.00
G01 X9.5302 Y11.5121 F80.00
G01 X9.5380 Y11.5133 F80.00
G01 X9.5457 Y11.5152 F80.00
G01 X9.5582 Y11.5195 F80.00
G01 X9.5654 Y11.5228 F80.00
G01 X9.5724 Y11.5266 F80.00
G01 X9.5833 Y11.5341 F80.00
G01 X9.5894 Y11.5392 F80.00
G01 X9.5950 Y11.5447 F80.00
G01 X9.6035 Y11.5548 F80.00
G01 X9.6080 Y11.5614 F80.00
G01 X9.6120 Y11.5682 F80.00
G01 X9.6175 Y11.5802 F80.00
G01 X9.6215 Y11.5928 F80.00
G01 X9.6239 Y11.6058 F80.00
G01 X9.6247 Y11.6164 F80.00
G01 X9.6247 Y11.8301 F80.00
G01 X9.9093 Y11.8301 F80.00
G01 X9.9093 Y11.6164 F80.00
G01 X9.9098 Y11.6084 F80.00
G01 X9.9108 Y11.6006 F80.00
G01 X9.9125 Y11.5928 F80.00
G01 X9.9147 Y11.5852 F80.00
G01 X9.9175 Y11.5778 F80.00
G01 X9.9220 Y11.5682 F80.00
G01 X9.9260 Y11.5614 F80.00
G01 X9.9305 Y11.5548 F80.00
G01 X9.9354 Y11.5486 F80.00
G01 X9.9427 Y11.5410 F80.00
G01 X9.9486 Y11.5357 F80.00
G01 X9.9550 Y11.5309 F80.00
G01 X9.9616 Y11.5266 F80.00
G01 X9.9709 Y11.5216 F80.00
G01 X9.9782 Y11.5185 F80.00
G01 X9.9857 Y11.5159 F80.00
G01 X9.9934 Y11.5139 F80.00
G01 X10.0012 Y11.5124 F80.00
G01 X10.0091 Y11.5115 F80.00
G01 X10.0170 Y11.5113 F80.00
G01 X11.0170 Y11.5113 F80.00
G01 X11.0302 Y11.5121 F80.00
G01 X11.0380 Y11.5133 F80.00
G01 X11.0457 Y11.5152 F80.00
G01 X11.0582 Y11.5195 F80.00
G01 X11.0654 Y11.5228 F80.00
G01 X11.0724 Y11.5266 F80.00
G01 X11.0833 Y11.5341 F80.00
G01 X11.0894 Y11.5392 F80.00
G01 X11.0950 Y11.5447 F80.00
G01 X11.1035 Y11.5548 F80.00
G01 X11.1080 Y11.5614 F80.00
G01 X11.1120 Y11.5682 F80.00
G01 X11.1175 Y11.5802 F80.00
G01 X11.1215 Y11.5928 F80.00
G01 X11.1239 Y11.6058 F80.00
G01 X11.1247 Y11.6164 F80.00
G01 X11.1247 Y11.8301 F80.00
G01 X11.4093 Y11.8301 F80.00
G01 X11.4093 Y11.6164 F80.00
G01 X11.4098 Y11.6084 F80.00
G01 X11.4108 Y11.6006 F80.00
G01 X11.4125 Y11.5928 F80.00
G01 X11.4147 Y11.5852 F80.00
G01 X11.4175 Y11.5778 F80.00
G01 X11.4220 Y11.5682 F80.00
G01 X11.4260 Y11.5614 F80.00
G01 X11.4305 Y11.5548 F80.00
G01 X11.4354 Y11.5486 F80.00
G01 X11.4427 Y11.5410 F80.00
G01 X11.4486 Y11.5357 F80.00
G01 X11.4550 Y11.5309 F80.00
G01 X11.4616 Y11.5266 F80.00
G01 X11.4709 Y11.5216 F80.00
G01 X11.4782 Y11.5185 F80.00
G01 X11.4857 Y11.5159 F80.00
G01 X11.4934 Y11.5139 F80.00
G01 X11.5012 Y11.5124 F80.00
G01 X11.5091 Y11.5115 F80.00
G01 X11.5170 Y11.5113 F80.00
G01 X12.5170 Y11.5113 F80.00
G01 X12.5302 Y11.5121 F80.00
G01 X12.5380 Y11.5133 F80.00
G01 X12.5457 Y11.5152 F80.00
G01 X12.5582 Y11.5195 F80.00
G01 X12.5654 Y11.5228 F80.00
G01 X12.5724 Y11.5266 F80.00
G01 X12.5833 Y11.5341 F80.00
G01 X12.5894 Y11.5392 F80.00
G01 X12.5950 Y11.5447 F80.00
G01 X12.6035 Y11.5548 F80.00
G01 X12.6080 Y11.5614 F80.00
G01 X12.6120 Y11.5682 F80.00
G01 X12.6175 Y11.5802 F80.00
G01 X12.6215 Y11.5928 F80.00
G01 X12.6239 Y11.6058 F80.00
G01 X12.6247 Y11.6164 F80.00
G01 X12.6247 Y11.8301 F80.00
G01 X15.4632 Y11.8301 F80.00
G01 X19.3231 Y7.8045 F80.00
G01 X19.3231 Y3.7287 F80.00
G01 X19.1967 Y3.7286 F80.00
G01 X19.1888 Y3.7279 F80.00
G01 X19.1784 Y3.7261 F80.00
G01 X19.1707 Y3.7241 F80.00
G01 X19.1608 Y3.7205 F80.00
G01 X19.1489 Y3.7148 F80.00
G01 X19.1378 Y3.7075 F80.00
G01 X19.1316 Y3.7026 F80.00
G01 X19.1258 Y3.6972 F80.00
G01 X19.1171 Y3.6873 F80.00
G01 X19.1124 Y3.6809 F80.00
G01 X19.1082 Y3.6741 F80.00
G01 X19.1025 Y3.6622 F80.00
G01 X19.0997 Y3.6548 F80.00
G01 X19.0975 Y3.6472 F80.00
G01 X19.0951 Y3.6342 F80.00
G01 X19.0943 Y3.6210 F80.00
G01 X19.0943 Y2.0210 F80.00
G01 X19.0945 Y2.0131 F80.00
G01 X19.0954 Y2.0052 F80.00
G01 X19.0969 Y1.9974 F80.00
G01 X19.0989 Y1.9897 F80.00
G01 X19.1015 Y1.9822 F80.00
G01 X19.1046 Y1.9749 F80.00
G01 X19.1082 Y1.9679 F80.00
G01 X19.1124 Y1.9611 F80.00
G01 X19.1187 Y1.9526 F80.00
G01 X19.1240 Y1.9467 F80.00
G01 X19.1296 Y1.9412 F80.00
G01 X19.1357 Y1.9361 F80.00
G01 X19.1421 Y1.9314 F80.00
G01 X19.1489 Y1.9272 F80.00
G01 X19.1559 Y1.9236 F80.00
G01 X19.1632 Y1.9205 F80.00
G01 X19.1707 Y1.9179 F80.00
G01 X19.1784 Y1.9159 F80.00
G01 X19.1862 Y1.9144 F80.00
G01 X19.1941 Y1.9135 F80.00
G01 X19.2020 Y1.9133 F80.00
G01 X20.1183 Y1.9133 F80.00
G01 X21.2943 Y0.7373 F80.00
G01 X21.2943 Y-0.1316 F80.00
G01 X21.2951 Y-0.1422 F80.00
G01 X21.2963 Y-0.1500 F80.00
G01 X21.2982 Y-0.1577 F80.00
G01 X21.3005 Y-0.1653 F80.00
G01 X21.3046 Y-0.1751 F80.00
G01 X21.3082 Y-0.1821 F80.00
G01 X21.3139 Y-0.1910 F80.00
G01 X21.3187 Y-0.1974 F80.00
G01 X21.3258 Y-0.2052 F80.00
G01 X21.3336 Y-0.2123 F80.00
G01 X21.3421 Y-0.2186 F80.00
G01 X21.3512 Y-0.2240 F80.00
G01 X21.3608 Y-0.2285 F80.00
G01 X21.3733 Y-0.2328 F80.00
G01 X21.3836 Y-0.2352 F80.00
G01 X21.3941 Y-0.2365 F80.00
G01 X21.4020 Y-0.2367 F80.00
G01 X21.8631 Y-0.2367 F80.00
G01 X21.8631 Y-0.5213 F80.00
G01 X21.4020 Y-0.5213 F80.00
G01 X21.3914 Y-0.5218 F80.00
G01 X21.3784 Y-0.5239 F80.00
G01 X21.3657 Y-0.5275 F80.00
G01 X21.3536 Y-0.5328 F80.00
G01 X21.3421 Y-0.5394 F80.00
G01 X21.3316 Y-0.5474 F80.00
G01 X21.3258 Y-0.5528 F80.00
G01 X21.3204 Y-0.5586 F80.00
G01 X21.3124 Y-0.5691 F80.00
G01 X21.3058 Y-0.5806 F80.00
G01 X21.3015 Y-0.5902 F80.00
G01 X21.2975 Y-0.6028 F80.00
G01 X21.2951 Y-0.6158 F80.00
G01 X21.2943 Y-0.6264 F80.00
G01 X21.2943 Y-1.3653 F80.00
G01 X18.4030 Y-1.3653 F80.00
G01 X18.3737 Y-1.3333 F80.00
G01 X18.3422 Y-1.3045 F80.00
G01 X18.3340 Y-1.2978 F80.00
G01 X18.2996 Y-1.2725 F80.00
G01 X18.2631 Y-1.2504 F80.00
G01 X18.2538 Y-1.2454 F80.00
G01 X18.2199 Y-1.2294 F80.00
G01 X18.2102 Y-1.2254 F80.00
G01 X18.1699 Y-1.2111 F80.00
G01 X18.1234 Y-1.1995 F80.00
G01 X18.0759 Y-1.1924 F80.00
G01 X18.0306 Y-1.1901 F80.00
G01 X15.5904 Y-1.1901 F80.00
G01 X15.5503 Y-1.1920 F80.00
G01 X15.5398 Y-1.1931 F80.00
G01 X15.4976 Y-1.1995 F80.00
G01 X15.4562 Y-1.2097 F80.00
G01 X15.4460 Y-1.2128 F80.00
G01 X15.4059 Y-1.2273 F80.00
G01 X15.3625 Y-1.2478 F80.00
G01 X15.3214 Y-1.2725 F80.00
G01 X15.2870 Y-1.2978 F80.00
G01 X15.2788 Y-1.3045 F80.00
G01 X15.2473 Y-1.3333 F80.00
G01 X10.0845 Y-6.4961 F80.00
G01 X1.4567 Y-6.4961 F80.00
G01 X1.4567 Y-6.1600 F80.00
G01 X1.4565 Y-6.1521 F80.00
G01 X1.4556 Y-6.1442 F80.00
G01 X1.4528 Y-6.1313 F80.00
G01 X1.4485 Y-6.1188 F80.00
G01 X1.4428 Y-6.1069 F80.00
G01 X1.4355 Y-6.0958 F80.00
G01 X1.4306 Y-6.0896 F80.00
G01 X1.4252 Y-6.0838 F80.00
G01 X1.4153 Y-6.0751 F80.00
G01 X1.4044 Y-6.0676 F80.00
G01 X1.3927 Y-6.0615 F80.00
G01 X1.3828 Y-6.0577 F80.00
G01 X1.3700 Y-6.0543 F80.00
G01 X1.3596 Y-6.0528 F80.00
G01 X1.3490 Y-6.0523 F80.00
G01 X0.5464 Y-6.0523 F80.00
G01 X0.5358 Y-6.0531 F80.00
G01 X0.5280 Y-6.0543 F80.00
G01 X0.5203 Y-6.0562 F80.00
G01 X0.5102 Y-6.0595 F80.00
G01 X0.5006 Y-6.0638 F80.00
G01 X0.4936 Y-6.0676 F80.00
G01 X0.4870 Y-6.0719 F80.00
G01 X0.4806 Y-6.0767 F80.00
G01 X0.4710 Y-6.0857 F80.00
G01 X0.4641 Y-6.0937 F80.00
G01 X0.4580 Y-6.1024 F80.00
G01 X0.4516 Y-6.1139 F80.00
G01 X0.4475 Y-6.1237 F80.00
G01 X0.4445 Y-6.1338 F80.00
G01 X0.4424 Y-6.1442 F80.00
G01 X0.4413 Y-6.1574 F80.00
G01 X0.4413 Y-7.8126 F80.00
G01 X0.4421 Y-7.8232 F80.00
G01 X0.4433 Y-7.8310 F80.00
G01 X0.4452 Y-7.8387 F80.00
G01 X0.4485 Y-7.8488 F80.00
G01 X0.4528 Y-7.8584 F80.00
G01 X0.4580 Y-7.8676 F80.00
G01 X0.4641 Y-7.8763 F80.00
G01 X0.4692 Y-7.8824 F80.00
G01 X0.4766 Y-7.8898 F80.00
G01 X0.4827 Y-7.8949 F80.00
G01 X0.4914 Y-7.9010 F80.00
G01 X0.4982 Y-7.9050 F80.00
G01 X0.5078 Y-7.9095 F80.00
G01 X0.5152 Y-7.9123 F80.00
G01 X0.5254 Y-7.9151 F80.00
G01 X0.5332 Y-7.9166 F80.00
G01 X0.5411 Y-7.9175 F80.00
G01 X0.5490 Y-7.9177 F80.00
G01 X1.3490 Y-7.9177 F80.00
G01 X1.3596 Y-7.9172 F80.00
G01 X1.3726 Y-7.9151 F80.00
G01 X1.3853 Y-7.9115 F80.00
G01 X1.3951 Y-7.9074 F80.00
G01 X1.4066 Y-7.9010 F80.00
G01 X1.4174 Y-7.8933 F80.00
G01 X1.4270 Y-7.8843 F80.00
G01 X1.4355 Y-7.8742 F80.00
G01 X1.4428 Y-7.8631 F80.00
G01 X1.4485 Y-7.8512 F80.00
G01 X1.4528 Y-7.8387 F80.00
G01 X1.4556 Y-7.8258 F80.00
G01 X1.4565 Y-7.8179 F80.00
G01 X1.4567 Y-7.8100 F80.00
G01 X1.4567 Y-7.4739 F80.00
G01 X10.2870 Y-7.4739 F80.00
G01 X10.3349 Y-7.4716 F80.00
G01 X10.3772 Y-7.4654 F80.00
G01 X10.3875 Y-7.4634 F80.00
G01 X10.4289 Y-7.4529 F80.00
G01 X10.4692 Y-7.4386 F80.00
G01 X10.4789 Y-7.4346 F80.00
G01 X10.5175 Y-7.4162 F80.00
G01 X10.5586 Y-7.3915 F80.00
G01 X10.5930 Y-7.3662 F80.00
G01 X10.6012 Y-7.3595 F80.00
G01 X10.6327 Y-7.3307 F80.00
G01 X15.7955 Y-2.1679 F80.00
G01 X16.8476 Y-2.1679 F80.00
G01 X15.4004 Y-3.6152 F80.00
G01 X15.3700 Y-3.6488 F80.00
G01 X15.3445 Y-3.6830 F80.00
G01 X15.3386 Y-3.6918 F80.00
G01 X15.3168 Y-3.7285 F80.00
G01 X15.2963 Y-3.7719 F80.00
G01 X15.2818 Y-3.8120 F80.00
G01 X15.2787 Y-3.8222 F80.00
G01 X15.2685 Y-3.8636 F80.00
G01 X15.2614 Y-3.9111 F80.00
G01 X15.2591 Y-3.9590 F80.00
G01 X15.2591 Y-9.9575 F80.00
G01 X13.1325 Y-12.0841 F80.00
G01 X12.2677 Y-12.0841 F80.00
G01 X12.2677 Y-11.8884 F80.00
G01 X12.2672 Y-11.8804 F80.00
G01 X12.2662 Y-11.8726 F80.00
G01 X12.2645 Y-11.8648 F80.00
G01 X12.2623 Y-11.8572 F80.00
G01 X12.2595 Y-11.8498 F80.00
G01 X12.2562 Y-11.8426 F80.00
G01 X12.2524 Y-11.8356 F80.00
G01 X12.2481 Y-11.8290 F80.00
G01 X12.2433 Y-11.8226 F80.00
G01 X12.2380 Y-11.8167 F80.00
G01 X12.2324 Y-11.8112 F80.00
G01 X12.2263 Y-11.8061 F80.00
G01 X12.2199 Y-11.8014 F80.00
G01 X12.2131 Y-11.7972 F80.00
G01 X12.2061 Y-11.7936 F80.00
G01 X12.1988 Y-11.7905 F80.00
G01 X12.1913 Y-11.7879 F80.00
G01 X12.1836 Y-11.7859 F80.00
G01 X12.1732 Y-11.7841 F80.00
G01 X12.1653 Y-11.7834 F80.00
G01 X11.1600 Y-11.7833 F80.00
G01 X11.1468 Y-11.7841 F80.00
G01 X11.1390 Y-11.7853 F80.00
G01 X11.1313 Y-11.7872 F80.00
G01 X11.1237 Y-11.7895 F80.00
G01 X11.1163 Y-11.7925 F80.00
G01 X11.1046 Y-11.7986 F80.00
G01 X11.0937 Y-11.8061 F80.00
G01 X11.0838 Y-11.8148 F80.00
G01 X11.0751 Y-11.8247 F80.00
G01 X11.0676 Y-11.8356 F80.00
G01 X11.0638 Y-11.8426 F80.00
G01 X11.0605 Y-11.8498 F80.00
G01 X11.0562 Y-11.8623 F80.00
G01 X11.0534 Y-11.8752 F80.00
G01 X11.0523 Y-11.8884 F80.00
G01 X11.0523 Y-12.0841 F80.00
G01 X10.7677 Y-12.0841 F80.00
G01 X10.7677 Y-11.8884 F80.00
G01 X10.7666 Y-11.8752 F80.00
G01 X10.7638 Y-11.8623 F80.00
G01 X10.7595 Y-11.8498 F80.00
G01 X10.7562 Y-11.8426 F80.00
G01 X10.7524 Y-11.8356 F80.00
G01 X10.7449 Y-11.8247 F80.00
G01 X10.7398 Y-11.8186 F80.00
G01 X10.7343 Y-11.8130 F80.00
G01 X10.7284 Y-11.8077 F80.00
G01 X10.7220 Y-11.8029 F80.00
G01 X10.7108 Y-11.7960 F80.00
G01 X10.6988 Y-11.7905 F80.00
G01 X10.6913 Y-11.7879 F80.00
G01 X10.6836 Y-11.7859 F80.00
G01 X10.6706 Y-11.7838 F80.00
G01 X10.6600 Y-11.7833 F80.00
G01 X9.6600 Y-11.7833 F80.00
G01 X9.6494 Y-11.7838 F80.00
G01 X9.6364 Y-11.7859 F80.00
G01 X9.6287 Y-11.7879 F80.00
G01 X9.6212 Y-11.7905 F80.00
G01 X9.6139 Y-11.7936 F80.00
G01 X9.6069 Y-11.7972 F80.00
G01 X9.6001 Y-11.8014 F80.00
G01 X9.5937 Y-11.8061 F80.00
G01 X9.5876 Y-11.8112 F80.00
G01 X9.5820 Y-11.8167 F80.00
G01 X9.5767 Y-11.8226 F80.00
G01 X9.5719 Y-11.8290 F80.00
G01 X9.5676 Y-11.8356 F80.00
G01 X9.5638 Y-11.8426 F80.00
G01 X9.5605 Y-11.8498 F80.00
G01 X9.5577 Y-11.8572 F80.00
G01 X9.5555 Y-11.8648 F80.00
G01 X9.5538 Y-11.8726 F80.00
G01 X9.5528 Y-11.8804 F80.00
G01 X9.5523 Y-11.8884 F80.00
G01 X9.5523 Y-12.0841 F80.00
G01 X9.2677 Y-12.0841 F80.00
G01 X9.2677 Y-11.8884 F80.00
G01 X9.2666 Y-11.8752 F80.00
G01 X9.2638 Y-11.8623 F80.00
G01 X9.2595 Y-11.8498 F80.00
G01 X9.2562 Y-11.8426 F80.00
G01 X9.2524 Y-11.8356 F80.00
G01 X9.2449 Y-11.8247 F80.00
G01 X9.2362 Y-11.8148 F80.00
G01 X9.2263 Y-11.8061 F80.00
G01 X9.2154 Y-11.7986 F80.00
G01 X9.2084 Y-11.7948 F80.00
G01 X9.2012 Y-11.7915 F80.00
G01 X9.1887 Y-11.7872 F80.00
G01 X9.1810 Y-11.7853 F80.00
G01 X9.1732 Y-11.7841 F80.00
G01 X9.1600 Y-11.7833 F80.00
G01 X8.1600 Y-11.7833 F80.00
G01 X8.1521 Y-11.7835 F80.00
G01 X8.1442 Y-11.7844 F80.00
G01 X8.1364 Y-11.7859 F80.00
G01 X8.1262 Y-11.7887 F80.00
G01 X8.1188 Y-11.7915 F80.00
G01 X8.1116 Y-11.7948 F80.00
G01 X8.1046 Y-11.7986 F80.00
G01 X8.0980 Y-11.8029 F80.00
G01 X8.0916 Y-11.8077 F80.00
G01 X8.0857 Y-11.8130 F80.00
G01 X8.0802 Y-11.8186 F80.00
G01 X8.0751 Y-11.8247 F80.00
G01 X8.0690 Y-11.8334 F80.00
G01 X8.0650 Y-11.8402 F80.00
G01 X8.0615 Y-11.8473 F80.00
G01 X8.0585 Y-11.8547 F80.00
G01 X8.0562 Y-11.8623 F80.00
G01 X8.0543 Y-11.8700 F80.00
G01 X8.0531 Y-11.8778 F80.00
G01 X8.0523 Y-11.8884 F80.00
G01 X8.0523 Y-12.0841 F80.00
G01 X6.6014 Y-12.0841 F80.00
G01 X6.5561 Y-12.0864 F80.00
G01 X6.5086 Y-12.0935 F80.00
G01 X6.4621 Y-12.1051 F80.00
G01 X6.4193 Y-12.1203 F80.00
G01 X6.4121 Y-12.1234 F80.00
G01 X6.3735 Y-12.1418 F80.00
G01 X6.3324 Y-12.1665 F80.00
G01 X6.2938 Y-12.1950 F80.00
G01 X6.2583 Y-12.2273 F80.00
G01 X2.2105 Y-16.2751 F80.00
G01 X1.7027 Y-16.2751 F80.00
G01 X1.7027 Y-16.1910 F80.00
G01 X1.7022 Y-16.1804 F80.00
G01 X1.7001 Y-16.1674 F80.00
G01 X1.6973 Y-16.1572 F80.00
G01 X1.6935 Y-16.1473 F80.00
G01 X1.6888 Y-16.1379 F80.00
G01 X1.6846 Y-16.1311 F80.00
G01 X1.6799 Y-16.1247 F80.00
G01 X1.6712 Y-16.1148 F80.00
G01 X1.6613 Y-16.1061 F80.00
G01 X1.6504 Y-16.0986 F80.00
G01 X1.6387 Y-16.0925 F80.00
G01 X1.6313 Y-16.0895 F80.00
G01 X1.6237 Y-16.0872 F80.00
G01 X1.6108 Y-16.0844 F80.00
G01 X1.6029 Y-16.0835 F80.00
G01 X1.5950 Y-16.0833 F80.00
G01 X0.5950 Y-16.0833 F80.00
G01 X0.5844 Y-16.0838 F80.00
G01 X0.5766 Y-16.0848 F80.00
G01 X0.5637 Y-16.0879 F80.00
G01 X0.5513 Y-16.0925 F80.00
G01 X0.5396 Y-16.0986 F80.00
G01 X0.5287 Y-16.1061 F80.00
G01 X0.5188 Y-16.1148 F80.00
G01 X0.5101 Y-16.1247 F80.00
G01 X0.5026 Y-16.1356 F80.00
G01 X0.4976 Y-16.1449 F80.00
G01 X0.4935 Y-16.1547 F80.00
G01 X0.4912 Y-16.1623 F80.00
G01 X0.4888 Y-16.1726 F80.00
G01 X0.4875 Y-16.1831 F80.00
G01 X0.4873 Y-16.1910 F80.00
G01 X0.4873 Y-16.2751 F80.00
G01 X0.2027 Y-16.2751 F80.00
G01 X0.2027 Y-16.1910 F80.00
G01 X0.2022 Y-16.1804 F80.00
G01 X0.2001 Y-16.1674 F80.00
G01 X0.1973 Y-16.1572 F80.00
G01 X0.1935 Y-16.1473 F80.00
G01 X0.1888 Y-16.1379 F80.00
G01 X0.1846 Y-16.1311 F80.00
G01 X0.1799 Y-16.1247 F80.00
G01 X0.1712 Y-16.1148 F80.00
G01 X0.1613 Y-16.1061 F80.00
G01 X0.1504 Y-16.0986 F80.00
G01 X0.1387 Y-16.0925 F80.00
G01 X0.1313 Y-16.0895 F80.00
G01 X0.1237 Y-16.0872 F80.00
G01 X0.1108 Y-16.0844 F80.00
G01 X0.1029 Y-16.0835 F80.00
G01 X0.0950 Y-16.0833 F80.00
G01 X-0.9050 Y-16.0833 F80.00
G01 X-0.9156 Y-16.0838 F80.00
G01 X-0.9234 Y-16.0848 F80.00
G01 X-0.9363 Y-16.0879 F80.00
G01 X-0.9487 Y-16.0925 F80.00
G01 X-0.9604 Y-16.0986 F80.00
G01 X-0.9713 Y-16.1061 F80.00
G01 X-0.9812 Y-16.1148 F80.00
G01 X-0.9899 Y-16.1247 F80.00
G01 X-0.9974 Y-16.1356 F80.00
G01 X-1.0024 Y-16.1449 F80.00
G01 X-1.0065 Y-16.1547 F80.00
G01 X-1.0088 Y-16.1623 F80.00
G01 X-1.0112 Y-16.1726 F80.00
G01 X-1.0125 Y-16.1831 F80.00
G01 X-1.0127 Y-16.1910 F80.00
G01 X-1.0127 Y-16.2751 F80.00
G01 X-1.2973 Y-16.2751 F80.00
G01 X-1.2973 Y-16.1910 F80.00
G01 X-1.2978 Y-16.1804 F80.00
G01 X-1.2999 Y-16.1674 F80.00
G01 X-1.3027 Y-16.1572 F80.00
G01 X-1.3065 Y-16.1473 F80.00
G01 X-1.3112 Y-16.1379 F80.00
G01 X-1.3154 Y-16.1311 F80.00
G01 X-1.3201 Y-16.1247 F80.00
G01 X-1.3288 Y-16.1148 F80.00
G01 X-1.3387 Y-16.1061 F80.00
G01 X-1.3496 Y-16.0986 F80.00
G01 X-1.3613 Y-16.0925 F80.00
G01 X-1.3687 Y-16.0895 F80.00
G01 X-1.3763 Y-16.0872 F80.00
G01 X-1.3892 Y-16.0844 F80.00
G01 X-1.3971 Y-16.0835 F80.00
G01 X-1.4050 Y-16.0833 F80.00
G01 X-2.4050 Y-16.0833 F80.00
G01 X-2.4156 Y-16.0838 F80.00
G01 X-2.4234 Y-16.0848 F80.00
G01 X-2.4363 Y-16.0879 F80.00
G01 X-2.4487 Y-16.0925 F80.00
G01 X-2.4604 Y-16.0986 F80.00
G01 X-2.4713 Y-16.1061 F80.00
G01 X-2.4812 Y-16.1148 F80.00
G01 X-2.4899 Y-16.1247 F80.00
G01 X-2.4974 Y-16.1356 F80.00
G01 X-2.5024 Y-16.1449 F80.00
G01 X-2.5065 Y-16.1547 F80.00
G01 X-2.5088 Y-16.1623 F80.00
G01 X-2.5112 Y-16.1726 F80.00
G01 X-2.5125 Y-16.1831 F80.00
G01 X-2.5127 Y-16.1910 F80.00
G01 X-2.5127 Y-16.2751 F80.00
G01 X-3.6075 Y-16.2751 F80.00
G01 X-7.5302 Y-12.3524 F80.00
G01 X-7.5638 Y-12.3220 F80.00
G01 X-7.5980 Y-12.2965 F80.00
G01 X-7.6068 Y-12.2906 F80.00
G01 X-7.6435 Y-12.2688 F80.00
G01 X-7.6869 Y-12.2483 F80.00
G01 X-7.7270 Y-12.2338 F80.00
G01 X-7.7372 Y-12.2307 F80.00
G01 X-7.7812 Y-12.2200 F80.00
G01 X-7.8261 Y-12.2134 F80.00
G01 X-7.8740 Y-12.2111 F80.00
G01 X-10.0843 Y-12.2111 F80.00
G01 X-10.0843 Y-11.9974 F80.00
G01 X-10.0848 Y-11.9894 F80.00
G01 X-10.0858 Y-11.9816 F80.00
G01 X-10.0875 Y-11.9738 F80.00
G01 X-10.0897 Y-11.9662 F80.00
G01 X-10.0925 Y-11.9588 F80.00
G01 X-10.0970 Y-11.9492 F80.00
G01 X-10.1010 Y-11.9424 F80.00
G01 X-10.1055 Y-11.9358 F80.00
G01 X-10.1104 Y-11.9296 F80.00
G01 X-10.1177 Y-11.9220 F80.00
G01 X-10.1236 Y-11.9167 F80.00
G01 X-10.1300 Y-11.9119 F80.00
G01 X-10.1366 Y-11.9076 F80.00
G01 X-10.1459 Y-11.9026 F80.00
G01 X-10.1532 Y-11.8995 F80.00
G01 X-10.1607 Y-11.8969 F80.00
G01 X-10.1684 Y-11.8949 F80.00
G01 X-10.1762 Y-11.8934 F80.00
G01 X-10.1841 Y-11.8925 F80.00
G01 X-10.1920 Y-11.8923 F80.00
G01 X-11.1920 Y-11.8923 F80.00
G01 X-11.2052 Y-11.8931 F80.00
G01 X-11.2130 Y-11.8943 F80.00
G01 X-11.2207 Y-11.8962 F80.00
G01 X-11.2332 Y-11.9005 F80.00
G01 X-11.2404 Y-11.9038 F80.00
G01 X-11.2474 Y-11.9076 F80.00
G01 X-11.2583 Y-11.9151 F80.00
G01 X-11.2644 Y-11.9202 F80.00
G01 X-11.2700 Y-11.9257 F80.00
G01 X-11.2785 Y-11.9358 F80.00
G01 X-11.2830 Y-11.9424 F80.00
G01 X-11.2870 Y-11.9492 F80.00
G01 X-11.2925 Y-11.9612 F80.00
G01 X-11.2965 Y-11.9738 F80.00
G01 X-11.2989 Y-11.9868 F80.00
G01 X-11.2997 Y-11.9974 F80.00
G01 X-11.2997 Y-12.2111 F80.00
G01 X-11.5843 Y-12.2111 F80.00
G01 X-11.5843 Y-11.9974 F80.00
G01 X-11.5854 Y-11.9842 F80.00
G01 X-11.5882 Y-11.9713 F80.00
G01 X-11.5925 Y-11.9588 F80.00
G01 X-11.5958 Y-11.9516 F80.00
G01 X-11.5996 Y-11.9446 F80.00
G01 X-11.6039 Y-11.9380 F80.00
G01 X-11.6087 Y-11.9316 F80.00
G01 X-11.6177 Y-11.9220 F80.00
G01 X-11.6236 Y-11.9167 F80.00
G01 X-11.6300 Y-11.9119 F80.00
G01 X-11.6412 Y-11.9050 F80.00
G01 X-11.6483 Y-11.9015 F80.00
G01 X-11.6557 Y-11.8985 F80.00
G01 X-11.6684 Y-11.8949 F80.00
G01 X-11.6788 Y-11.8931 F80.00
G01 X-11.6920 Y-11.8923 F80.00
G01 X-12.6920 Y-11.8923 F80.00
G01 X-12.7026 Y-11.8928 F80.00
G01 X-12.7104 Y-11.8938 F80.00
G01 X-12.7182 Y-11.8955 F80.00
G01 X-12.7258 Y-11.8977 F80.00
G01 X-12.7332 Y-11.9005 F80.00
G01 X-12.7404 Y-11.9038 F80.00
G01 X-12.7474 Y-11.9076 F80.00
G01 X-12.7540 Y-11.9119 F80.00
G01 X-12.7604 Y-11.9167 F80.00
G01 X-12.7663 Y-11.9220 F80.00
G01 X-12.7718 Y-11.9276 F80.00
G01 X-12.7769 Y-11.9337 F80.00
G01 X-12.7816 Y-11.9401 F80.00
G01 X-12.7858 Y-11.9469 F80.00
G01 X-12.7894 Y-11.9539 F80.00
G01 X-12.7925 Y-11.9612 F80.00
G01 X-12.7951 Y-11.9687 F80.00
G01 X-12.7982 Y-11.9816 F80.00
G01 X-12.7992 Y-11.9894 F80.00
G01 X-12.7997 Y-11.9974 F80.00
G01 X-12.7997 Y-12.2111 F80.00
G01 X-13.0843 Y-12.2111 F80.00
G01 X-13.0843 Y-11.9974 F80.00
G01 X-13.0854 Y-11.9842 F80.00
G01 X-13.0875 Y-11.9738 F80.00
G01 X-13.0915 Y-11.9612 F80.00
G01 X-13.0970 Y-11.9492 F80.00
G01 X-13.1039 Y-11.9380 F80.00
G01 X-13.1087 Y-11.9316 F80.00
G01 X-13.1140 Y-11.9257 F80.00
G01 X-13.1236 Y-11.9167 F80.00
G01 X-13.1300 Y-11.9119 F80.00
G01 X-13.1366 Y-11.9076 F80.00
G01 X-13.1436 Y-11.9038 F80.00
G01 X-13.1508 Y-11.9005 F80.00
G01 X-13.1633 Y-11.8962 F80.00
G01 X-13.1762 Y-11.8934 F80.00
G01 X-13.1841 Y-11.8925 F80.00
G01 X-13.1920 Y-11.8923 F80.00
G01 X-14.1920 Y-11.8923 F80.00
G01 X-14.2026 Y-11.8928 F80.00
G01 X-14.2130 Y-11.8943 F80.00
G01 X-14.2233 Y-11.8969 F80.00
G01 X-14.2308 Y-11.8995 F80.00
G01 X-14.2404 Y-11.9038 F80.00
G01 X-14.2474 Y-11.9076 F80.00
G01 X-14.2562 Y-11.9135 F80.00
G01 X-14.2624 Y-11.9184 F80.00
G01 X-14.2682 Y-11.9238 F80.00
G01 X-14.2753 Y-11.9316 F80.00
G01 X-14.2816 Y-11.9401 F80.00
G01 X-14.2858 Y-11.9469 F80.00
G01 X-14.2905 Y-11.9563 F80.00
G01 X-14.2935 Y-11.9637 F80.00
G01 X-14.2958 Y-11.9713 F80.00
G01 X-14.2982 Y-11.9816 F80.00
G01 X-14.2992 Y-11.9894 F80.00
G01 X-14.2997 Y-12.0000 F80.00
G01 X-14.2996 Y-13.4053 F80.00
G01 X-14.2982 Y-13.4184 F80.00
G01 X-14.2965 Y-13.4262 F80.00
G01 X-14.2943 Y-13.4338 F80.00
G01 X-14.2915 Y-13.4412 F80.00
G01 X-14.2882 Y-13.4484 F80.00
G01 X-14.2844 Y-13.4554 F80.00
G01 X-14.2801 Y-13.4620 F80.00
G01 X-14.2753 Y-13.4684 F80.00
G01 X-14.2700 Y-13.4743 F80.00
G01 X-14.2644 Y-13.4798 F80.00
G01 X-14.2583 Y-13.4849 F80.00
G01 X-14.2519 Y-13.4896 F80.00
G01 X-14.2451 Y-13.4938 F80.00
G01 X-14.2381 Y-13.4974 F80.00
G01 X-14.2308 Y-13.5005 F80.00
G01 X-14.2233 Y-13.5031 F80.00
G01 X-14.2130 Y-13.5057 F80.00
G01 X-14.2026 Y-13.5072 F80.00
G01 X-14.1920 Y-13.5077 F80.00
G01 X-13.1920 Y-13.5077 F80.00
G01 X-13.1788 Y-13.5069 F80.00
G01 X-13.1710 Y-13.5057 F80.00
G01 X-13.1633 Y-13.5038 F80.00
G01 X-13.1508 Y-13.4995 F80.00
G01 X-13.1436 Y-13.4962 F80.00
G01 X-13.1366 Y-13.4924 F80.00
G01 X-13.1257 Y-13.4849 F80.00
G01 X-13.1196 Y-13.4798 F80.00
G01 X-13.1140 Y-13.4743 F80.00
G01 X-13.1055 Y-13.4642 F80.00
G01 X-13.1010 Y-13.4576 F80.00
G01 X-13.0970 Y-13.4508 F80.00
G01 X-13.0915 Y-13.4388 F80.00
G01 X-13.0875 Y-13.4262 F80.00
G01 X-13.0851 Y-13.4132 F80.00
G01 X-13.0843 Y-13.4026 F80.00
G01 X-13.0843 Y-13.1889 F80.00
G01 X-12.7997 Y-13.1889 F80.00
G01 X-12.7997 Y-13.4026 F80.00
G01 X-12.7992 Y-13.4106 F80.00
G01 X-12.7982 Y-13.4184 F80.00
G01 X-12.7965 Y-13.4262 F80.00
G01 X-12.7943 Y-13.4338 F80.00
G01 X-12.7915 Y-13.4412 F80.00
G01 X-12.7870 Y-13.4508 F80.00
G01 X-12.7830 Y-13.4576 F80.00
G01 X-12.7785 Y-13.4642 F80.00
G01 X-12.7736 Y-13.4704 F80.00
G01 X-12.7663 Y-13.4780 F80.00
G01 X-12.7604 Y-13.4833 F80.00
G01 X-12.7540 Y-13.4881 F80.00
G01 X-12.7474 Y-13.4924 F80.00
G01 X-12.7381 Y-13.4974 F80.00
G01 X-12.7308 Y-13.5005 F80.00
G01 X-12.7233 Y-13.5031 F80.00
G01 X-12.7156 Y-13.5051 F80.00
G01 X-12.7078 Y-13.5066 F80.00
G01 X-12.6999 Y-13.5075 F80.00
G01 X-12.6920 Y-13.5077 F80.00
G01 X-11.6920 Y-13.5077 F80.00
G01 X-11.6788 Y-13.5069 F80.00
G01 X-11.6710 Y-13.5057 F80.00
G01 X-11.6633 Y-13.5038 F80.00
G01 X-11.6508 Y-13.4995 F80.00
G01 X-11.6436 Y-13.4962 F80.00
G01 X-11.6366 Y-13.4924 F80.00
G01 X-11.6257 Y-13.4849 F80.00
G01 X-11.6196 Y-13.4798 F80.00
G01 X-11.6140 Y-13.4743 F80.00
G01 X-11.6055 Y-13.4642 F80.00
G01 X-11.6010 Y-13.4576 F80.00
G01 X-11.5970 Y-13.4508 F80.00
G01 X-11.5915 Y-13.4388 F80.00
G01 X-11.5875 Y-13.4262 F80.00
G01 X-11.5851 Y-13.4132 F80.00
G01 X-11.5843 Y-13.4026 F80.00
G01 X-11.5843 Y-13.1889 F80.00
G01 X-11.2997 Y-13.1889 F80.00
G01 X-11.2997 Y-13.4026 F80.00
G01 X-11.2992 Y-13.4106 F80.00
G01 X-11.2982 Y-13.4184 F80.00
G01 X-11.2965 Y-13.4262 F80.00
G01 X-11.2943 Y-13.4338 F80.00
G01 X-11.2915 Y-13.4412 F80.00
G01 X-11.2870 Y-13.4508 F80.00
G01 X-11.2830 Y-13.4576 F80.00
G01 X-11.2785 Y-13.4642 F80.00
G01 X-11.2736 Y-13.4704 F80.00
G01 X-11.2663 Y-13.4780 F80.00
G01 X-11.2604 Y-13.4833 F80.00
G01 X-11.2540 Y-13.4881 F80.00
G01 X-11.2474 Y-13.4924 F80.00
G01 X-11.2381 Y-13.4974 F80.00
G01 X-11.2308 Y-13.5005 F80.00
G01 X-11.2233 Y-13.5031 F80.00
G01 X-11.2156 Y-13.5051 F80.00
G01 X-11.2078 Y-13.5066 F80.00
G01 X-11.1999 Y-13.5075 F80.00
G01 X-11.1920 Y-13.5077 F80.00
G01 X-10.1920 Y-13.5077 F80.00
G01 X-10.1788 Y-13.5069 F80.00
G01 X-10.1710 Y-13.5057 F80.00
G01 X-10.1633 Y-13.5038 F80.00
G01 X-10.1508 Y-13.4995 F80.00
G01 X-10.1436 Y-13.4962 F80.00
G01 X-10.1366 Y-13.4924 F80.00
G01 X-10.1257 Y-13.4849 F80.00
G01 X-10.1196 Y-13.4798 F80.00
G01 X-10.1140 Y-13.4743 F80.00
G01 X-10.1055 Y-13.4642 F80.00
G01 X-10.1010 Y-13.4576 F80.00
G01 X-10.0970 Y-13.4508 F80.00
G01 X-10.0915 Y-13.4388 F80.00
G01 X-10.0875 Y-13.4262 F80.00
G01 X-10.0851 Y-13.4132 F80.00
G01 X-10.0843 Y-13.4026 F80.00
G01 X-10.0843 Y-13.1889 F80.00
G01 X-8.0765 Y-13.1889 F80.00
G01 X-4.1557 Y-17.1097 F80.00
G01 X-4.1202 Y-17.1420 F80.00
G01 X-4.0816 Y-17.1705 F80.00
G01 X-4.0405 Y-17.1952 F80.00
G01 X-4.0019 Y-17.2136 F80.00
G01 X-3.9922 Y-17.2176 F80.00
G01 X-3.9519 Y-17.2319 F80.00
G01 X-3.9054 Y-17.2435 F80.00
G01 X-3.8579 Y-17.2506 F80.00
G01 X-3.8126 Y-17.2529 F80.00
G01 X-2.5127 Y-17.2529 F80.00
G01 X-2.5127 Y-17.5910 F80.00
G01 X-2.5119 Y-17.6042 F80.00
G01 X-2.5101 Y-17.6146 F80.00
G01 X-2.5081 Y-17.6223 F80.00
G01 X-2.5055 Y-17.6298 F80.00
G01 X-2.5012 Y-17.6394 F80.00
G01 X-2.4974 Y-17.6464 F80.00
G01 X-2.4915 Y-17.6552 F80.00
G01 X-2.4866 Y-17.6614 F80.00
G01 X-2.4812 Y-17.6672 F80.00
G01 X-2.4754 Y-17.6726 F80.00
G01 X-2.4692 Y-17.6775 F80.00
G01 X-2.4604 Y-17.6834 F80.00
G01 X-2.4534 Y-17.6872 F80.00
G01 X-2.4462 Y-17.6905 F80.00
G01 X-2.4388 Y-17.6933 F80.00
G01 X-2.4312 Y-17.6955 F80.00
G01 X-2.4234 Y-17.6972 F80.00
G01 X-2.4129 Y-17.6985 F80.00
G01 X-2.4050 Y-17.6987 F80.00
G01 X-1.4050 Y-17.6987 F80.00
G01 X-1.3971 Y-17.6985 F80.00
G01 X-1.3866 Y-17.6972 F80.00
G01 X-1.3763 Y-17.6948 F80.00
G01 X-1.3662 Y-17.6915 F80.00
G01 X-1.3542 Y-17.6860 F80.00
G01 X-1.3474 Y-17.6820 F80.00
G01 X-1.3408 Y-17.6775 F80.00
G01 X-1.3346 Y-17.6726 F80.00
G01 X-1.3288 Y-17.6672 F80.00
G01 X-1.3201 Y-17.6573 F80.00
G01 X-1.3126 Y-17.6464 F80.00
G01 X-1.3088 Y-17.6394 F80.00
G01 X-1.3055 Y-17.6322 F80.00
G01 X-1.3012 Y-17.6197 F80.00
G01 X-1.2984 Y-17.6068 F80.00
G01 X-1.2975 Y-17.5989 F80.00
G01 X-1.2973 Y-17.5910 F80.00
G01 X-1.2973 Y-17.2529 F80.00
G01 X-1.0127 Y-17.2529 F80.00
G01 X-1.0127 Y-17.5910 F80.00
G01 X-1.0122 Y-17.6016 F80.00
G01 X-1.0107 Y-17.6120 F80.00
G01 X-1.0088 Y-17.6197 F80.00
G01 X-1.0065 Y-17.6273 F80.00
G01 X-1.0035 Y-17.6347 F80.00
G01 X-1.0000 Y-17.6418 F80.00
G01 X-0.9946 Y-17.6509 F80.00
G01 X-0.9899 Y-17.6573 F80.00
G01 X-0.9848 Y-17.6634 F80.00
G01 X-0.9793 Y-17.6690 F80.00
G01 X-0.9713 Y-17.6759 F80.00
G01 X-0.9649 Y-17.6806 F80.00
G01 X-0.9581 Y-17.6848 F80.00
G01 X-0.9511 Y-17.6884 F80.00
G01 X-0.9438 Y-17.6915 F80.00
G01 X-0.9363 Y-17.6941 F80.00
G01 X-0.9286 Y-17.6961 F80.00
G01 X-0.9208 Y-17.6976 F80.00
G01 X-0.9129 Y-17.6985 F80.00
G01 X-0.9050 Y-17.6987 F80.00
G01 X0.0950 Y-17.6987 F80.00
G01 X0.1029 Y-17.6985 F80.00
G01 X0.1134 Y-17.6972 F80.00
G01 X0.1237 Y-17.6948 F80.00
G01 X0.1338 Y-17.6915 F80.00
G01 X0.1458 Y-17.6860 F80.00
G01 X0.1526 Y-17.6820 F80.00
G01 X0.1592 Y-17.6775 F80.00
G01 X0.1654 Y-17.6726 F80.00
G01 X0.1712 Y-17.6672 F80.00
G01 X0.1799 Y-17.6573 F80.00
G01 X0.1874 Y-17.6464 F80.00
G01 X0.1912 Y-17.6394 F80.00
G01 X0.1945 Y-17.6322 F80.00
G01 X0.1988 Y-17.6197 F80.00
G01 X0.2016 Y-17.6068 F80.00
G01 X0.2025 Y-17.5989 F80.00
G01 X0.2027 Y-17.5910 F80.00
G01 X0.2027 Y-17.2529 F80.00
G01 X0.4873 Y-17.2529 F80.00
G01 X0.4873 Y-17.5910 F80.00
G01 X0.4875 Y-17.5989 F80.00
G01 X0.4888 Y-17.6094 F80.00
G01 X0.4905 Y-17.6172 F80.00
G01 X0.4927 Y-17.6248 F80.00
G01 X0.4976 Y-17.6371 F80.00
G01 X0.5012 Y-17.6441 F80.00
G01 X0.5054 Y-17.6509 F80.00
G01 X0.5134 Y-17.6614 F80.00
G01 X0.5188 Y-17.6672 F80.00
G01 X0.5246 Y-17.6726 F80.00
G01 X0.5308 Y-17.6775 F80.00
G01 X0.5374 Y-17.6820 F80.00
G01 X0.5489 Y-17.6884 F80.00
G01 X0.5562 Y-17.6915 F80.00
G01 X0.5637 Y-17.6941 F80.00
G01 X0.5714 Y-17.6961 F80.00
G01 X0.5792 Y-17.6976 F80.00
G01 X0.5871 Y-17.6985 F80.00
G01 X0.5950 Y-17.6987 F80.00
G01 X1.5950 Y-17.6987 F80.00
G01 X1.6029 Y-17.6985 F80.00
G01 X1.6108 Y-17.6976 F80.00
G01 X1.6186 Y-17.6961 F80.00
G01 X1.6263 Y-17.6941 F80.00
G01 X1.6338 Y-17.6915 F80.00
G01 X1.6411 Y-17.6884 F80.00
G01 X1.6526 Y-17.6820 F80.00
G01 X1.6592 Y-17.6775 F80.00
G01 X1.6654 Y-17.6726 F80.00
G01 X1.6712 Y-17.6672 F80.00
G01 X1.6766 Y-17.6614 F80.00
G01 X1.6815 Y-17.6552 F80.00
G01 X1.6860 Y-17.6486 F80.00
G01 X1.6924 Y-17.6371 F80.00
G01 X1.6973 Y-17.6248 F80.00
G01 X1.6995 Y-17.6172 F80.00
G01 X1.7012 Y-17.6094 F80.00
G01 X1.7025 Y-17.5989 F80.00
G01 X1.7027 Y-17.5910 F80.00
G01 X1.7027 Y-17.2529 F80.00
G01 X2.4130 Y-17.2529 F80.00
G01 X2.4557 Y-17.2510 F80.00
G01 X2.4636 Y-17.2503 F80.00
G01 X2.5084 Y-17.2435 F80.00
G01 X2.5498 Y-17.2333 F80.00
G01 X2.5600 Y-17.2302 F80.00
G01 X2.6001 Y-17.2157 F80.00
G01 X2.6435 Y-17.1952 F80.00
G01 X2.6802 Y-17.1734 F80.00
G01 X2.6890 Y-17.1675 F80.00
G01 X2.7190 Y-17.1452 F80.00
G01 X2.7272 Y-17.1385 F80.00
G01 X2.7587 Y-17.1097 F80.00
G01 X6.8065 Y-13.0619 F80.00
G01 X8.0523 Y-13.0619 F80.00
G01 X8.0523 Y-13.2936 F80.00
G01 X8.0528 Y-13.3016 F80.00
G01 X8.0538 Y-13.3094 F80.00
G01 X8.0555 Y-13.3172 F80.00
G01 X8.0577 Y-13.3248 F80.00
G01 X8.0615 Y-13.3347 F80.00
G01 X8.0650 Y-13.3418 F80.00
G01 X8.0690 Y-13.3486 F80.00
G01 X8.0735 Y-13.3552 F80.00
G01 X8.0802 Y-13.3634 F80.00
G01 X8.0857 Y-13.3690 F80.00
G01 X8.0916 Y-13.3743 F80.00
G01 X8.0980 Y-13.3791 F80.00
G01 X8.1046 Y-13.3834 F80.00
G01 X8.1116 Y-13.3872 F80.00
G01 X8.1188 Y-13.3905 F80.00
G01 X8.1262 Y-13.3933 F80.00
G01 X8.1338 Y-13.3955 F80.00
G01 X8.1416 Y-13.3972 F80.00
G01 X8.1521 Y-13.3985 F80.00
G01 X8.1600 Y-13.3987 F80.00
G01 X9.1600 Y-13.3987 F80.00
G01 X9.1679 Y-13.3985 F80.00
G01 X9.1758 Y-13.3976 F80.00
G01 X9.1836 Y-13.3961 F80.00
G01 X9.1913 Y-13.3941 F80.00
G01 X9.2037 Y-13.3895 F80.00
G01 X9.2108 Y-13.3860 F80.00
G01 X9.2176 Y-13.3820 F80.00
G01 X9.2284 Y-13.3743 F80.00
G01 X9.2343 Y-13.3690 F80.00
G01 X9.2398 Y-13.3634 F80.00
G01 X9.2481 Y-13.3530 F80.00
G01 X9.2550 Y-13.3418 F80.00
G01 X9.2585 Y-13.3347 F80.00
G01 X9.2615 Y-13.3273 F80.00
G01 X9.2651 Y-13.3146 F80.00
G01 X9.2669 Y-13.3042 F80.00
G01 X9.2677 Y-13.2910 F80.00
G01 X9.2677 Y-13.0619 F80.00
G01 X9.5523 Y-13.0619 F80.00
G01 X9.5523 Y-13.2936 F80.00
G01 X9.5531 Y-13.3042 F80.00
G01 X9.5555 Y-13.3172 F80.00
G01 X9.5595 Y-13.3298 F80.00
G01 X9.5626 Y-13.3371 F80.00
G01 X9.5662 Y-13.3441 F80.00
G01 X9.5704 Y-13.3509 F80.00
G01 X9.5751 Y-13.3573 F80.00
G01 X9.5838 Y-13.3672 F80.00
G01 X9.5896 Y-13.3726 F80.00
G01 X9.5958 Y-13.3775 F80.00
G01 X9.6069 Y-13.3848 F80.00
G01 X9.6188 Y-13.3905 F80.00
G01 X9.6262 Y-13.3933 F80.00
G01 X9.6338 Y-13.3955 F80.00
G01 X9.6468 Y-13.3979 F80.00
G01 X9.6600 Y-13.3987 F80.00
G01 X10.6600 Y-13.3987 F80.00
G01 X10.6732 Y-13.3979 F80.00
G01 X10.6810 Y-13.3967 F80.00
G01 X10.6887 Y-13.3948 F80.00
G01 X10.6963 Y-13.3925 F80.00
G01 X10.7037 Y-13.3895 F80.00
G01 X10.7108 Y-13.3860 F80.00
G01 X10.7176 Y-13.3820 F80.00
G01 X10.7242 Y-13.3775 F80.00
G01 X10.7304 Y-13.3726 F80.00
G01 X10.7362 Y-13.3672 F80.00
G01 X10.7416 Y-13.3614 F80.00
G01 X10.7465 Y-13.3552 F80.00
G01 X10.7510 Y-13.3486 F80.00
G01 X10.7550 Y-13.3418 F80.00
G01 X10.7585 Y-13.3347 F80.00
G01 X10.7615 Y-13.3273 F80.00
G01 X10.7638 Y-13.3197 F80.00
G01 X10.7666 Y-13.3068 F80.00
G01 X10.7677 Y-13.2936 F80.00
G01 X10.7677 Y-13.0619 F80.00
G01 X11.0523 Y-13.0619 F80.00
G01 X11.0523 Y-13.2910 F80.00
G01 X11.0528 Y-13.3016 F80.00
G01 X11.0549 Y-13.3146 F80.00
G01 X11.0585 Y-13.3273 F80.00
G01 X11.0615 Y-13.3347 F80.00
G01 X11.0650 Y-13.3418 F80.00
G01 X11.0719 Y-13.3530 F80.00
G01 X11.0802 Y-13.3634 F80.00
G01 X11.0857 Y-13.3690 F80.00
G01 X11.0916 Y-13.3743 F80.00
G01 X11.1024 Y-13.3820 F80.00
G01 X11.1092 Y-13.3860 F80.00
G01 X11.1163 Y-13.3895 F80.00
G01 X11.1287 Y-13.3941 F80.00
G01 X11.1364 Y-13.3961 F80.00
G01 X11.1442 Y-13.3976 F80.00
G01 X11.1521 Y-13.3985 F80.00
G01 X11.1600 Y-13.3987 F80.00
G01 X12.1626 Y-13.3987 F80.00
G01 X12.1706 Y-13.3982 F80.00
G01 X12.1784 Y-13.3972 F80.00
G01 X12.1862 Y-13.3955 F80.00
G01 X12.1938 Y-13.3933 F80.00
G01 X12.2012 Y-13.3905 F80.00
G01 X12.2108 Y-13.3860 F80.00
G01 X12.2176 Y-13.3820 F80.00
G01 X12.2242 Y-13.3775 F80.00
G01 X12.2304 Y-13.3726 F80.00
G01 X12.2362 Y-13.3672 F80.00
G01 X12.2433 Y-13.3594 F80.00
G01 X12.2481 Y-13.3530 F80.00
G01 X12.2538 Y-13.3441 F80.00
G01 X12.2574 Y-13.3371 F80.00
G01 X12.2605 Y-13.3298 F80.00
G01 X12.2631 Y-13.3223 F80.00
G01 X12.2651 Y-13.3146 F80.00
G01 X12.2666 Y-13.3068 F80.00
G01 X12.2677 Y-13.2936 F80.00
G01 X12.2677 Y-13.0619 F80.00
G01 X13.3350 Y-13.0619 F80.00
G01 X13.3829 Y-13.0596 F80.00
G01 X13.4304 Y-13.0525 F80.00
G01 X13.4718 Y-13.0423 F80.00
G01 X13.4820 Y-13.0392 F80.00
G01 X13.5172 Y-13.0266 F80.00
G01 X13.5269 Y-13.0226 F80.00
G01 X13.5655 Y-13.0042 F80.00
G01 X13.6066 Y-12.9795 F80.00
G01 X13.6452 Y-12.9510 F80.00
G01 X13.6788 Y-12.9206 F80.00
G01 X16.0937 Y-10.5057 F80.00
G01 X16.1260 Y-10.4702 F80.00
G01 X16.1545 Y-10.4316 F80.00
G01 X16.1792 Y-10.3905 F80.00
G01 X16.1987 Y-10.3495 F80.00
G01 X16.2016 Y-10.3422 F80.00
G01 X16.2159 Y-10.3019 F80.00
G01 X16.2275 Y-10.2554 F80.00
G01 X16.2346 Y-10.2079 F80.00
G01 X16.2369 Y-10.1600 F80.00
G01 X16.2369 Y-4.1615 F80.00
G01 X18.3737 Y-2.0247 F80.00
G01 X18.4073 Y-1.9875 F80.00
G01 X21.2943 Y-1.9875 F80.00
G01 X21.2943 Y-2.5290 F80.00
G01 X21.2951 Y-2.5422 F80.00
G01 X21.2963 Y-2.5500 F80.00
G01 X21.2982 Y-2.5577 F80.00
G01 X21.3005 Y-2.5653 F80.00
G01 X21.3035 Y-2.5727 F80.00
G01 X21.3070 Y-2.5798 F80.00
G01 X21.3110 Y-2.5866 F80.00
G01 X21.3155 Y-2.5932 F80.00
G01 X21.3204 Y-2.5994 F80.00
G01 X21.3258 Y-2.6052 F80.00
G01 X21.3316 Y-2.6106 F80.00
G01 X21.3378 Y-2.6155 F80.00
G01 X21.3444 Y-2.6200 F80.00
G01 X21.3512 Y-2.6240 F80.00
G01 X21.3583 Y-2.6275 F80.00
G01 X21.3657 Y-2.6305 F80.00
G01 X21.3733 Y-2.6328 F80.00
G01 X21.3862 Y-2.6356 F80.00
G01 X21.3941 Y-2.6365 F80.00
G01 X21.4020 Y-2.6367 F80.00
G01 X23.3046 Y-2.6367 F80.00
G01 X23.3126 Y-2.6362 F80.00
G01 X23.3204 Y-2.6352 F80.00
G01 X23.3282 Y-2.6335 F80.00
G01 X23.3358 Y-2.6313 F80.00
G01 X23.3432 Y-2.6285 F80.00
G01 X23.3504 Y-2.6252 F80.00
G01 X23.3574 Y-2.6214 F80.00
G01 X23.3640 Y-2.6171 F80.00
G01 X23.3704 Y-2.6123 F80.00
G01 X23.3763 Y-2.6070 F80.00
G01 X23.3818 Y-2.6014 F80.00
G01 X23.3869 Y-2.5953 F80.00
G01 X23.3916 Y-2.5889 F80.00
G01 X23.3958 Y-2.5821 F80.00
G01 X23.3994 Y-2.5751 F80.00
G01 X23.4025 Y-2.5678 F80.00
G01 X23.4051 Y-2.5603 F80.00
G01 X23.4077 Y-2.5500 F80.00
G01 X23.4092 Y-2.5396 F80.00
G01 X23.4097 Y-2.5290 F80.00
G01 X23.4097 Y-0.6290 F80.00
G01 X23.4095 Y-0.6211 F80.00
G01 X23.4086 Y-0.6132 F80.00
G01 X23.4058 Y-0.6003 F80.00
G01 X23.4015 Y-0.5878 F80.00
G01 X23.3982 Y-0.5806 F80.00
G01 X23.3944 Y-0.5736 F80.00
G01 X23.3901 Y-0.5670 F80.00
G01 X23.3853 Y-0.5606 F80.00
G01 X23.3800 Y-0.5547 F80.00
G01 X23.3744 Y-0.5492 F80.00
G01 X23.3683 Y-0.5441 F80.00
G01 X23.3619 Y-0.5394 F80.00
G01 X23.3551 Y-0.5352 F80.00
G01 X23.3481 Y-0.5316 F80.00
G01 X23.3408 Y-0.5285 F80.00
G01 X23.3333 Y-0.5259 F80.00
G01 X23.3256 Y-0.5239 F80.00
G01 X23.3178 Y-0.5224 F80.00
G01 X23.3099 Y-0.5215 F80.00
G01 X23.3020 Y-0.5213 F80.00
G01 X22.8409 Y-0.5213 F80.00
G01 X22.8409 Y-0.2367 F80.00
G01 X23.3020 Y-0.2367 F80.00
G01 X23.3099 Y-0.2365 F80.00
G01 X23.3178 Y-0.2356 F80.00
G01 X23.3256 Y-0.2341 F80.00
G01 X23.3333 Y-0.2321 F80.00
G01 X23.3408 Y-0.2295 F80.00
G01 X23.3481 Y-0.2264 F80.00
G01 X23.3551 Y-0.2228 F80.00
G01 X23.3619 Y-0.2186 F80.00
G01 X23.3683 Y-0.2139 F80.00
G01 X23.3744 Y-0.2088 F80.00
G01 X23.3800 Y-0.2033 F80.00
G01 X23.3853 Y-0.1974 F80.00
G01 X23.3901 Y-0.1910 F80.00
G01 X23.3944 Y-0.1844 F80.00
G01 X23.3982 Y-0.1774 F80.00
G01 X23.4015 Y-0.1702 F80.00
G01 X23.4043 Y-0.1628 F80.00
G01 X23.4065 Y-0.1552 F80.00
G01 X23.4089 Y-0.1422 F80.00
G01 X23.4097 Y-0.1290 F80.00
G01 X23.4097 Y1.7710 F80.00
G01 X23.4089 Y1.7842 F80.00
G01 X23.4065 Y1.7972 F80.00
G01 X23.4035 Y1.8073 F80.00
G01 X23.3982 Y1.8194 F80.00
G01 X23.3916 Y1.8309 F80.00
G01 X23.3869 Y1.8373 F80.00
G01 X23.3818 Y1.8434 F80.00
G01 X23.3763 Y1.8490 F80.00
G01 X23.3704 Y1.8543 F80.00
G01 X23.3596 Y1.8620 F80.00
G01 X23.3528 Y1.8660 F80.00
G01 X23.3457 Y1.8695 F80.00
G01 X23.3333 Y1.8741 F80.00
G01 X23.3204 Y1.8772 F80.00
G01 X23.3126 Y1.8782 F80.00
G01 X23.3046 Y1.8787 F80.00
G01 X21.5357 Y1.8787 F80.00
G01 X20.7097 Y2.7047 F80.00
G01 X20.7097 Y3.6210 F80.00
G01 X20.7092 Y3.6316 F80.00
G01 X20.7077 Y3.6420 F80.00
G01 X20.7058 Y3.6497 F80.00
G01 X20.7025 Y3.6598 F80.00
G01 X20.6970 Y3.6718 F80.00
G01 X20.6930 Y3.6786 F80.00
G01 X20.6885 Y3.6852 F80.00
G01 X20.6800 Y3.6953 F80.00
G01 X20.6704 Y3.7043 F80.00
G01 X20.6596 Y3.7120 F80.00
G01 X20.6528 Y3.7160 F80.00
G01 X20.6457 Y3.7195 F80.00
G01 X20.6333 Y3.7241 F80.00
G01 X20.6204 Y3.7272 F80.00
G01 X20.6126 Y3.7282 F80.00
G01 X20.6020 Y3.7287 F80.00
G01 X20.3009 Y3.7287 F80.00
G01 X20.3009 Y8.0010 F80.00
G01 X20.2997 Y8.0360 F80.00
G01 X20.2986 Y8.0489 F80.00
G01 X20.2939 Y8.0837 F80.00
G01 X20.2910 Y8.0990 F80.00
G01 X20.2834 Y8.1305 F80.00
G01 X20.2782 Y8.1480 F80.00
G01 X20.2685 Y8.1761 F80.00
G01 X20.2637 Y8.1881 F80.00
G01 X20.2491 Y8.2200 F80.00
G01 X20.2406 Y8.2361 F80.00
G01 X20.2256 Y8.2618 F80.00
G01 X20.2170 Y8.2748 F80.00
G01 X20.1980 Y8.3011 F80.00
G01 X20.1900 Y8.3112 F80.00
G01 X20.1649 Y8.3394 F80.00
G01 X16.0247 Y12.6574 F80.00
G01 X16.0137 Y12.6684 F80.00
G01 X15.9918 Y12.6886 F80.00
G01 X15.9820 Y12.6970 F80.00
G01 X15.9541 Y12.7182 F80.00
G01 X15.9434 Y12.7255 F80.00
G01 X15.9136 Y12.7439 F80.00
G01 X15.9023 Y12.7502 F80.00
G01 X15.8708 Y12.7656 F80.00
G01 X15.8565 Y12.7717 F80.00
G01 X15.8260 Y12.7829 F80.00
G01 X15.8137 Y12.7869 F80.00
G01 X15.7798 Y12.7958 F80.00
G01 X15.7672 Y12.7985 F80.00
G01 X15.7326 Y12.8041 F80.00
G01 X15.7197 Y12.8056 F80.00
G01 X15.6821 Y12.8078 F80.00
G01 X12.6247 Y12.8079 F80.00
G01 X12.6247 Y13.0216 F80.00
G01 X12.6242 Y13.0296 F80.00
G01 X12.6232 Y13.0374 F80.00
G01 X12.6215 Y13.0452 F80.00
G01 X12.6193 Y13.0528 F80.00
G01 X12.6165 Y13.0602 F80.00
G01 X12.6120 Y13.0698 F80.00
G01 X12.6080 Y13.0766 F80.00
G01 X12.6035 Y13.0832 F80.00
G01 X12.5986 Y13.0894 F80.00
G01 X12.5913 Y13.0970 F80.00
G01 X12.5854 Y13.1023 F80.00
G01 X12.5790 Y13.1071 F80.00
G01 X12.5724 Y13.1114 F80.00
G01 X12.5631 Y13.1164 F80.00
G01 X12.5558 Y13.1195 F80.00
G01 X12.5483 Y13.1221 F80.00
G01 X12.5406 Y13.1241 F80.00
G01 X12.5328 Y13.1256 F80.00
G01 X12.5249 Y13.1265 F80.00
G01 X12.5170 Y13.1267 F80.00
G01 X11.5170 Y13.1267 F80.00
G01 X11.5038 Y13.1259 F80.00
G01 X11.4960 Y13.1247 F80.00
G01 X11.4883 Y13.1228 F80.00
G01 X11.4758 Y13.1185 F80.00
G01 X11.4686 Y13.1152 F80.00
G01 X11.4616 Y13.1114 F80.00
G01 X11.4507 Y13.1039 F80.00
G01 X11.4446 Y13.0988 F80.00
G01 X11.4390 Y13.0933 F80.00
G01 X11.4305 Y13.0832 F80.00
G01 X11.4260 Y13.0766 F80.00
G01 X11.4220 Y13.0698 F80.00
G01 X11.4165 Y13.0578 F80.00
G01 X11.4125 Y13.0452 F80.00
G01 X11.4101 Y13.0322 F80.00
G01 X11.4093 Y13.0216 F80.00
G01 X11.4093 Y12.8079 F80.00
G01 X11.1247 Y12.8079 F80.00
G01 X11.1247 Y13.0216 F80.00
G01 X11.1242 Y13.0296 F80.00
G01 X11.1232 Y13.0374 F80.00
G01 X11.1215 Y13.0452 F80.00
G01 X11.1193 Y13.0528 F80.00
G01 X11.1165 Y13.0602 F80.00
G01 X11.1120 Y13.0698 F80.00
G01 X11.1080 Y13.0766 F80.00
G01 X11.1035 Y13.0832 F80.00
G01 X11.0986 Y13.0894 F80.00
G01 X11.0913 Y13.0970 F80.00
G01 X11.0854 Y13.1023 F80.00
G01 X11.0790 Y13.1071 F80.00
G01 X11.0724 Y13.1114 F80.00
G01 X11.0631 Y13.1164 F80.00
G01 X11.0558 Y13.1195 F80.00
G01 X11.0483 Y13.1221 F80.00
G01 X11.0406 Y13.1241 F80.00
G01 X11.0328 Y13.1256 F80.00
G01 X11.0249 Y13.1265 F80.00
G01 X11.0170 Y13.1267 F80.00
G01 X10.0170 Y13.1267 F80.00
G01 X10.0038 Y13.1259 F80.00
G01 X9.9960 Y13.1247 F80.00
G01 X9.9883 Y13.1228 F80.00
G01 X9.9758 Y13.1185 F80.00
G01 X9.9686 Y13.1152 F80.00
G01 X9.9616 Y13.1114 F80.00
G01 X9.9507 Y13.1039 F80.00
G01 X9.9446 Y13.0988 F80.00
G01 X9.9390 Y13.0933 F80.00
G01 X9.9305 Y13.0832 F80.00
G01 X9.9260 Y13.0766 F80.00
G01 X9.9220 Y13.0698 F80.00
G01 X9.9165 Y13.0578 F80.00
G01 X9.9125 Y13.0452 F80.00
G01 X9.9101 Y13.0322 F80.00
G01 X9.9093 Y13.0216 F80.00
G01 X9.9093 Y12.8079 F80.00
G01 X9.6247 Y12.8079 F80.00
G01 X9.6247 Y13.0216 F80.00
G01 X9.6242 Y13.0296 F80.00
G01 X9.6232 Y13.0374 F80.00
G01 X9.6215 Y13.0452 F80.00
G01 X9.6193 Y13.0528 F80.00
G01 X9.6165 Y13.0602 F80.00
G01 X9.6120 Y13.0698 F80.00
G01 X9.6080 Y13.0766 F80.00
G01 X9.6035 Y13.0832 F80.00
G01 X9.5986 Y13.0894 F80.00
G01 X9.5913 Y13.0970 F80.00
G01 X9.5854 Y13.1023 F80.00
G01 X9.5790 Y13.1071 F80.00
G01 X9.5724 Y13.1114 F80.00
G01 X9.5631 Y13.1164 F80.00
G01 X9.5558 Y13.1195 F80.00
G01 X9.5483 Y13.1221 F80.00
G01 X9.5406 Y13.1241 F80.00
G01 X9.5328 Y13.1256 F80.00
G01 X9.5249 Y13.1265 F80.00
G01 X9.5170 Y13.1267 F80.00
G01 X8.5170 Y13.1267 F80.00
G01 X8.5038 Y13.1259 F80.00
G01 X8.4960 Y13.1247 F80.00
G01 X8.4883 Y13.1228 F80.00
G01 X8.4758 Y13.1185 F80.00
G01 X8.4686 Y13.1152 F80.00
G01 X8.4616 Y13.1114 F80.00
G01 X8.4507 Y13.1039 F80.00
G01 X8.4446 Y13.0988 F80.00
G01 X8.4390 Y13.0933 F80.00
G01 X8.4305 Y13.0832 F80.00
G01 X8.4260 Y13.0766 F80.00
G01 X8.4220 Y13.0698 F80.00
G01 X8.4165 Y13.0578 F80.00
G01 X8.4125 Y13.0452 F80.00
G01 X8.4101 Y13.0322 F80.00
G01 X8.4093 Y13.0216 F80.00
G01 X8.4093 Y12.8079 F80.00
G01 X5.5305 Y12.8079 F80.00
G01 X2.8617 Y15.4767 F80.00
G01 X2.8262 Y15.5090 F80.00
G01 X2.7876 Y15.5375 F80.00
G01 X2.7465 Y15.5622 F80.00
G01 X2.7079 Y15.5806 F80.00
G01 X2.6982 Y15.5846 F80.00
G01 X2.6579 Y15.5989 F80.00
G01 X2.6114 Y15.6105 F80.00
G01 X2.5639 Y15.6176 F80.00
G01 X2.5186 Y15.6199 F80.00
G01 X2.4733 Y15.6180 F80.00
G01 X2.4645 Y15.6172 F80.00
G01 X2.4557 Y15.6180 F80.00
G01 X2.4130 Y15.6199 F80.00
G01 X0.8377 Y15.6199 F80.00
G01 X0.8377 Y15.9580 F80.00
G01 X0.8369 Y15.9712 F80.00
G01 X0.8345 Y15.9842 F80.00
G01 X0.8315 Y15.9943 F80.00
G01 X0.8285 Y16.0017 F80.00
G01 X0.8238 Y16.0111 F80.00
G01 X0.8196 Y16.0179 F80.00
G01 X0.8149 Y16.0243 F80.00
G01 X0.8098 Y16.0304 F80.00
G01 X0.8043 Y16.0360 F80.00
G01 X0.7963 Y16.0429 F80.00
G01 X0.7899 Y16.0476 F80.00
G01 X0.7831 Y16.0518 F80.00
G01 X0.7761 Y16.0554 F80.00
G01 X0.7663 Y16.0595 F80.00
G01 X0.7587 Y16.0618 F80.00
G01 X0.7484 Y16.0642 F80.00
G01 X0.7379 Y16.0655 F80.00
G01 X0.7300 Y16.0657 F80.00
G01 X-0.2700 Y16.0657 F80.00
G01 X-0.2806 Y16.0652 F80.00
G01 X-0.2910 Y16.0637 F80.00
G01 X-0.3013 Y16.0611 F80.00
G01 X-0.3112 Y16.0575 F80.00
G01 X-0.3231 Y16.0518 F80.00
G01 X-0.3342 Y16.0445 F80.00
G01 X-0.3404 Y16.0396 F80.00
G01 X-0.3462 Y16.0342 F80.00
G01 X-0.3549 Y16.0243 F80.00
G01 X-0.3596 Y16.0179 F80.00
G01 X-0.3638 Y16.0111 F80.00
G01 X-0.3695 Y15.9992 F80.00
G01 X-0.3738 Y15.9867 F80.00
G01 X-0.3766 Y15.9738 F80.00
G01 X-0.3775 Y15.9659 F80.00
G01 X-0.3777 Y15.9580 F80.00
G01 X-0.3777 Y15.6199 F80.00
G01 X-0.6623 Y15.6199 F80.00
G01 X-0.6623 Y15.9580 F80.00
G01 X-0.6628 Y15.9686 F80.00
G01 X-0.6638 Y15.9764 F80.00
G01 X-0.6669 Y15.9893 F80.00
G01 X-0.6695 Y15.9968 F80.00
G01 X-0.6726 Y16.0041 F80.00
G01 X-0.6762 Y16.0111 F80.00
G01 X-0.6804 Y16.0179 F80.00
G01 X-0.6884 Y16.0284 F80.00
G01 X-0.6938 Y16.0342 F80.00
G01 X-0.6996 Y16.0396 F80.00
G01 X-0.7058 Y16.0445 F80.00
G01 X-0.7124 Y16.0490 F80.00
G01 X-0.7239 Y16.0554 F80.00
G01 X-0.7312 Y16.0585 F80.00
G01 X-0.7387 Y16.0611 F80.00
G01 X-0.7464 Y16.0631 F80.00
G01 X-0.7542 Y16.0646 F80.00
G01 X-0.7621 Y16.0655 F80.00
G01 X-0.7700 Y16.0657 F80.00
G01 X-1.7700 Y16.0657 F80.00
G01 X-1.7779 Y16.0655 F80.00
G01 X-1.7858 Y16.0646 F80.00
G01 X-1.7936 Y16.0631 F80.00
G01 X-1.8013 Y16.0611 F80.00
G01 X-1.8088 Y16.0585 F80.00
G01 X-1.8161 Y16.0554 F80.00
G01 X-1.8231 Y16.0518 F80.00
G01 X-1.8299 Y16.0476 F80.00
G01 X-1.8384 Y16.0413 F80.00
G01 X-1.8443 Y16.0360 F80.00
G01 X-1.8498 Y16.0304 F80.00
G01 X-1.8549 Y16.0243 F80.00
G01 X-1.8596 Y16.0179 F80.00
G01 X-1.8638 Y16.0111 F80.00
G01 X-1.8685 Y16.0017 F80.00
G01 X-1.8715 Y15.9943 F80.00
G01 X-1.8738 Y15.9867 F80.00
G01 X-1.8757 Y15.9790 F80.00
G01 X-1.8772 Y15.9686 F80.00
G01 X-1.8777 Y15.9580 F80.00
G01 X-1.8777 Y15.6199 F80.00
G01 X-2.1623 Y15.6199 F80.00
G01 X-2.1623 Y15.9580 F80.00
G01 X-2.1625 Y15.9659 F80.00
G01 X-2.1634 Y15.9738 F80.00
G01 X-2.1662 Y15.9867 F80.00
G01 X-2.1705 Y15.9992 F80.00
G01 X-2.1738 Y16.0064 F80.00
G01 X-2.1776 Y16.0134 F80.00
G01 X-2.1851 Y16.0243 F80.00
G01 X-2.1938 Y16.0342 F80.00
G01 X-2.1996 Y16.0396 F80.00
G01 X-2.2058 Y16.0445 F80.00
G01 X-2.2169 Y16.0518 F80.00
G01 X-2.2288 Y16.0575 F80.00
G01 X-2.2387 Y16.0611 F80.00
G01 X-2.2490 Y16.0637 F80.00
G01 X-2.2594 Y16.0652 F80.00
G01 X-2.2700 Y16.0657 F80.00
G01 X-3.2726 Y16.0657 F80.00
G01 X-3.2806 Y16.0652 F80.00
G01 X-3.2884 Y16.0642 F80.00
G01 X-3.2987 Y16.0618 F80.00
G01 X-3.3063 Y16.0595 F80.00
G01 X-3.3137 Y16.0565 F80.00
G01 X-3.3231 Y16.0518 F80.00
G01 X-3.3320 Y16.0461 F80.00
G01 X-3.3384 Y16.0413 F80.00
G01 X-3.3443 Y16.0360 F80.00
G01 X-3.3498 Y16.0304 F80.00
G01 X-3.3549 Y16.0243 F80.00
G01 X-3.3610 Y16.0156 F80.00
G01 X-3.3650 Y16.0088 F80.00
G01 X-3.3695 Y15.9992 F80.00
G01 X-3.3723 Y15.9918 F80.00
G01 X-3.3751 Y15.9816 F80.00
G01 X-3.3772 Y15.9686 F80.00
G01 X-3.3777 Y15.9580 F80.00
G01 X-3.3777 Y15.6199 F80.00
G01 X-5.7416 Y15.6199 F80.00
G01 X-5.7817 Y15.6180 F80.00
G01 X-5.7922 Y15.6169 F80.00
G01 X-5.8344 Y15.6105 F80.00
G01 X-5.8758 Y15.6003 F80.00
G01 X-5.8860 Y15.5972 F80.00
G01 X-5.9261 Y15.5827 F80.00
G01 X-5.9648 Y15.5646 F80.00
G01 X-5.9741 Y15.5596 F80.00
G01 X-6.0106 Y15.5375 F80.00
G01 X-6.0450 Y15.5122 F80.00
G01 X-6.0532 Y15.5055 F80.00
G01 X-6.0847 Y15.4767 F80.00
G01 X-8.7535 Y12.8079 F80.00
G01 X-10.4653 Y12.8079 F80.00
G01 X-10.4653 Y13.1640 F80.00
G01 X-10.4661 Y13.1772 F80.00
G01 X-10.4679 Y13.1876 F80.00
G01 X-10.4707 Y13.1978 F80.00
G01 X-10.4735 Y13.2052 F80.00
G01 X-10.4768 Y13.2124 F80.00
G01 X-10.4820 Y13.2216 F80.00
G01 X-10.4865 Y13.2282 F80.00
G01 X-10.4932 Y13.2364 F80.00
G01 X-10.4987 Y13.2420 F80.00
G01 X-10.5067 Y13.2489 F80.00
G01 X-10.5131 Y13.2536 F80.00
G01 X-10.5222 Y13.2590 F80.00
G01 X-10.5293 Y13.2625 F80.00
G01 X-10.5392 Y13.2663 F80.00
G01 X-10.5494 Y13.2691 F80.00
G01 X-10.5572 Y13.2706 F80.00
G01 X-10.5651 Y13.2715 F80.00
G01 X-10.5730 Y13.2717 F80.00
G01 X-11.5730 Y13.2717 F80.00
G01 X-11.5836 Y13.2712 F80.00
G01 X-11.5940 Y13.2697 F80.00
G01 X-11.6043 Y13.2671 F80.00
G01 X-11.6142 Y13.2635 F80.00
G01 X-11.6261 Y13.2578 F80.00
G01 X-11.6372 Y13.2505 F80.00
G01 X-11.6434 Y13.2456 F80.00
G01 X-11.6492 Y13.2402 F80.00
G01 X-11.6579 Y13.2303 F80.00
G01 X-11.6626 Y13.2239 F80.00
G01 X-11.6668 Y13.2171 F80.00
G01 X-11.6725 Y13.2052 F80.00
G01 X-11.6768 Y13.1927 F80.00
G01 X-11.6796 Y13.1798 F80.00
G01 X-11.6805 Y13.1719 F80.00
G01 X-11.6807 Y13.1640 F80.00
G01 X-11.6807 Y12.8079 F80.00
G01 X-11.9653 Y12.8079 F80.00
G01 X-11.9653 Y13.1640 F80.00
G01 X-11.9658 Y13.1746 F80.00
G01 X-11.9668 Y13.1824 F80.00
G01 X-11.9685 Y13.1902 F80.00
G01 X-11.9707 Y13.1978 F80.00
G01 X-11.9756 Y13.2101 F80.00
G01 X-11.9820 Y13.2216 F80.00
G01 X-11.9865 Y13.2282 F80.00
G01 X-11.9914 Y13.2344 F80.00
G01 X-11.9968 Y13.2402 F80.00
G01 X-12.0026 Y13.2456 F80.00
G01 X-12.0131 Y13.2536 F80.00
G01 X-12.0199 Y13.2578 F80.00
G01 X-12.0269 Y13.2614 F80.00
G01 X-12.0392 Y13.2663 F80.00
G01 X-12.0494 Y13.2691 F80.00
G01 X-12.0572 Y13.2706 F80.00
G01 X-12.0651 Y13.2715 F80.00
G01 X-12.0730 Y13.2717 F80.00
G01 X-13.0730 Y13.2717 F80.00
G01 X-13.0809 Y13.2715 F80.00
G01 X-13.0888 Y13.2706 F80.00
G01 X-13.0992 Y13.2685 F80.00
G01 X-13.1068 Y13.2663 F80.00
G01 X-13.1142 Y13.2635 F80.00
G01 X-13.1214 Y13.2602 F80.00
G01 X-13.1284 Y13.2564 F80.00
G01 X-13.1350 Y13.2521 F80.00
G01 X-13.1414 Y13.2473 F80.00
G01 X-13.1473 Y13.2420 F80.00
G01 X-13.1528 Y13.2364 F80.00
G01 X-13.1579 Y13.2303 F80.00
G01 X-13.1626 Y13.2239 F80.00
G01 X-13.1668 Y13.2171 F80.00
G01 X-13.1704 Y13.2101 F80.00
G01 X-13.1745 Y13.2003 F80.00
G01 X-13.1768 Y13.1927 F80.00
G01 X-13.1787 Y13.1850 F80.00
G01 X-13.1802 Y13.1746 F80.00
G01 X-13.1807 Y13.1640 F80.00
G01 X-13.1807 Y12.8079 F80.00
G01 X-13.4653 Y12.8079 F80.00
G01 X-13.4653 Y13.1640 F80.00
G01 X-13.4655 Y13.1719 F80.00
G01 X-13.4664 Y13.1798 F80.00
G01 X-13.4692 Y13.1927 F80.00
G01 X-13.4715 Y13.2003 F80.00
G01 X-13.4745 Y13.2077 F80.00
G01 X-13.4806 Y13.2194 F80.00
G01 X-13.4849 Y13.2260 F80.00
G01 X-13.4897 Y13.2324 F80.00
G01 X-13.4987 Y13.2420 F80.00
G01 X-13.5046 Y13.2473 F80.00
G01 X-13.5110 Y13.2521 F80.00
G01 X-13.5222 Y13.2590 F80.00
G01 X-13.5342 Y13.2645 F80.00
G01 X-13.5443 Y13.2678 F80.00
G01 X-13.5546 Y13.2702 F80.00
G01 X-13.5624 Y13.2712 F80.00
G01 X-13.5730 Y13.2717 F80.00
G01 X-14.5730 Y13.2717 F80.00
G01 X-14.5836 Y13.2712 F80.00
G01 X-14.5914 Y13.2702 F80.00
G01 X-14.6017 Y13.2678 F80.00
G01 X-14.6118 Y13.2645 F80.00
G01 X-14.6191 Y13.2614 F80.00
G01 X-14.6261 Y13.2578 F80.00
G01 X-14.6372 Y13.2505 F80.00
G01 X-14.6434 Y13.2456 F80.00
G01 X-14.6492 Y13.2402 F80.00
G01 X-14.6546 Y13.2344 F80.00
G01 X-14.6595 Y13.2282 F80.00
G01 X-14.6640 Y13.2216 F80.00
G01 X-14.6680 Y13.2148 F80.00
G01 X-14.6715 Y13.2077 F80.00
G01 X-14.6745 Y13.2003 F80.00
G01 X-14.6768 Y13.1927 F80.00
G01 X-14.6787 Y13.1850 F80.00
G01 X-14.6799 Y13.1772 F80.00
G01 X-14.6806 Y13.1693 F80.00
G01 X-14.6807 Y11.7614 F80.00
G01 X-14.6799 Y11.7508 F80.00
G01 X-14.6781 Y11.7404 F80.00
G01 X-14.6753 Y11.7302 F80.00
G01 X-14.6715 Y11.7203 F80.00
G01 X-14.6668 Y11.7109 F80.00
G01 X-14.6611 Y11.7020 F80.00
G01 X-14.6546 Y11.6936 F80.00
G01 X-14.6473 Y11.6860 F80.00
G01 X-14.6393 Y11.6791 F80.00
G01 X-14.6306 Y11.6730 F80.00
G01 X-14.6214 Y11.6678 F80.00
G01 X-14.6118 Y11.6635 F80.00
G01 X-14.6017 Y11.6602 F80.00
G01 X-14.5914 Y11.6578 F80.00
G01 X-14.5836 Y11.6568 F80.00
G01 X-14.5730 Y11.6563 F80.00
G00 Z2.0000
G00 X-15.7674 Y5.6403
G01 F150.00
G01 Z-0.1000
G01 F80.00
G01 X-15.7751 Y5.7949 F80.00
G01 X-15.7986 Y5.9533 F80.00
G01 X-15.8375 Y6.1087 F80.00
G01 X-15.8915 Y6.2594 F80.00
G01 X-15.9599 Y6.4042 F80.00
G01 X-16.0422 Y6.5416 F80.00
G01 X-16.1376 Y6.6702 F80.00
G01 X-16.2452 Y6.7888 F80.00
G01 X-16.3638 Y6.8964 F80.00
G01 X-16.4924 Y6.9918 F80.00
G01 X-16.6298 Y7.0741 F80.00
G01 X-16.7746 Y7.1425 F80.00
G01 X-16.9253 Y7.1965 F80.00
G01 X-17.0807 Y7.2354 F80.00
G01 X-17.2391 Y7.2589 F80.00
G01 X-17.3990 Y7.2667 F80.00
G01 X-17.5589 Y7.2589 F80.00
G01 X-17.7173 Y7.2354 F80.00
G01 X-17.8727 Y7.1965 F80.00
G01 X-18.0234 Y7.1425 F80.00
G01 X-18.1682 Y7.0741 F80.00
G01 X-18.3056 Y6.9918 F80.00
G01 X-18.4342 Y6.8964 F80.00
G01 X-18.5528 Y6.7888 F80.00
G01 X-18.6604 Y6.6702 F80.00
G01 X-18.7558 Y6.5416 F80.00
G01 X-18.8381 Y6.4042 F80.00
G01 X-18.9065 Y6.2594 F80.00
G01 X-18.9605 Y6.1087 F80.00
G01 X-18.9994 Y5.9533 F80.00
G01 X-19.0229 Y5.7949 F80.00
G01 X-19.0307 Y5.6350 F80.00
G01 X-19.0229 Y5.4751 F80.00
G01 X-18.9994 Y5.3167 F80.00
G01 X-18.9605 Y5.1613 F80.00
G01 X-18.9065 Y5.0106 F80.00
G01 X-18.8381 Y4.8658 F80.00
G01 X-18.7558 Y4.7284 F80.00
G01 X-18.6604 Y4.5998 F80.00
G01 X-18.5528 Y4.4812 F80.00
G01 X-18.4342 Y4.3736 F80.00
G01 X-18.3056 Y4.2782 F80.00
G01 X-18.1682 Y4.1959 F80.00
G01 X-18.0234 Y4.1275 F80.00
G01 X-17.8727 Y4.0735 F80.00
G01 X-17.7173 Y4.0346 F80.00
G01 X-17.5589 Y4.0111 F80.00
G01 X-17.3990 Y4.0033 F80.00
G01 X-17.2391 Y4.0111 F80.00
G01 X-17.0807 Y4.0346 F80.00
G01 X-16.9253 Y4.0735 F80.00
G01 X-16.7746 Y4.1275 F80.00
G01 X-16.6298 Y4.1959 F80.00
G01 X-16.4924 Y4.2782 F80.00
G01 X-16.3638 Y4.3736 F80.00
G01 X-16.2452 Y4.4812 F80.00
G01 X-16.1376 Y4.5998 F80.00
G01 X-16.0422 Y4.7284 F80.00
G01 X-15.9599 Y4.8658 F80.00
G01 X-15.8915 Y5.0106 F80.00
G01 X-15.8375 Y5.1613 F80.00
G01 X-15.7986 Y5.3167 F80.00
G01 X-15.7751 Y5.4751 F80.00
G01 X-15.7674 Y5.6297 F80.00
G01 X-15.7674 Y5.6403 F80.00
G00 Z2.0000
G00 X-15.7674 Y0.6403
G01 F150.00
G01 Z-0.1000
G01 F80.00
G01 X-15.7751 Y0.7949 F80.00
G01 X-15.7986 Y0.9533 F80.00
G01 X-15.8375 Y1.1087 F80.00
G01 X-15.8915 Y1.2594 F80.00
G01 X-15.9599 Y1.4042 F80.00
G01 X-16.0422 Y1.5416 F80.00
G01 X-16.1376 Y1.6702 F80.00
G01 X-16.2452 Y1.7888 F80.00
G01 X-16.3638 Y1.8964 F80.00
G01 X-16.4924 Y1.9918 F80.00
G01 X-16.6298 Y2.0741 F80.00
G01 X-16.7746 Y2.1425 F80.00
G01 X-16.9253 Y2.1965 F80.00
G01 X-17.0807 Y2.2354 F80.00
G01 X-17.2391 Y2.2589 F80.00
G01 X-17.3990 Y2.2667 F80.00
G01 X-17.5589 Y2.2589 F80.00
G01 X-17.7173 Y2.2354 F80.00
G01 X-17.8727 Y2.1965 F80.00
G01 X-18.0234 Y2.1425 F80.00
G01 X-18.1682 Y2.0741 F80.00
G01 X-18.3056 Y1.9918 F80.00
G01 X-18.4342 Y1.8964 F80.00
G01 X-18.5528 Y1.7888 F80.00
G01 X-18.6604 Y1.6702 F80.00
G01 X-18.7558 Y1.5416 F80.00
G01 X-18.8381 Y1.4042 F80.00
G01 X-18.9065 Y1.2594 F80.00
G01 X-18.9605 Y1.1087 F80.00
G01 X-18.9994 Y0.9533 F80.00
G01 X-19.0229 Y0.7949 F80.00
G01 X-19.0307 Y0.6350 F80.00
G01 X-19.0229 Y0.4751 F80.00
G01 X-18.9994 Y0.3167 F80.00
G01 X-18.9605 Y0.1613 F80.00
G01 X-18.9065 Y0.0106 F80.00
G01 X-18.8381 Y-0.1342 F80.00
G01 X-18.7558 Y-0.2716 F80.00
G01 X-18.6604 Y-0.4002 F80.00
G01 X-18.5528 Y-0.5188 F80.00
G01 X-18.4342 Y-0.6264 F80.00
G01 X-18.3056 Y-0.7218 F80.00
G01 X-18.1682 Y-0.8041 F80.00
G01 X-18.0234 Y-0.8725 F80.00
G01 X-17.8727 Y-0.9265 F80.00
G01 X-17.7173 Y-0.9654 F80.00
G01 X-17.5589 Y-0.9889 F80.00
G01 X-17.3990 Y-0.9967 F80.00
G01 X-17.2391 Y-0.9889 F80.00
G01 X-17.0807 Y-0.9654 F80.00
G01 X-16.9253 Y-0.9265 F80.00
G01 X-16.7746 Y-0.8725 F80.00
G01 X-16.6298 Y-0.8041 F80.00
G01 X-16.4924 Y-0.7218 F80.00
G01 X-16.3638 Y-0.6264 F80.00
G01 X-16.2452 Y-0.5188 F80.00
G01 X-16.1376 Y-0.4002 F80.00
G01 X-16.0422 Y-0.2716 F80.00
G01 X-15.9599 Y-0.1342 F80.00
G01 X-15.8915 Y0.0106 F80.00
G01 X-15.8375 Y0.1613 F80.00
G01 X-15.7986 Y0.3167 F80.00
G01 X-15.7751 Y0.4751 F80.00
G01 X-15.7674 Y0.6297 F80.00
G01 X-15.7674 Y0.6403 F80.00
G00 Z2.0000
G00 X-15.8883 Y-4.9809
G01 F150.00
G01 Z-0.1000
G01 F80.00
G01 X-15.6495 Y-4.9809 F80.00
G01 X-13.4248 Y-7.2056 F80.00
G01 X-13.3912 Y-7.2360 F80.00
G01 X-13.3570 Y-7.2615 F80.00
G01 X-13.3482 Y-7.2674 F80.00
G01 X-13.3115 Y-7.2892 F80.00
G01 X-13.2729 Y-7.3076 F80.00
G01 X-13.2632 Y-7.3116 F80.00
G01 X-13.2229 Y-7.3259 F80.00
G01 X-13.1764 Y-7.3375 F80.00
G01 X-13.1289 Y-7.3446 F80.00
G01 X-13.0810 Y-7.3469 F80.00
G01 X-2.1587 Y-7.3469 F80.00
G01 X-2.1587 Y-7.8100 F80.00
G01 X-2.1582 Y-7.8206 F80.00
G01 X-2.1561 Y-7.8336 F80.00
G01 X-2.1525 Y-7.8463 F80.00
G01 X-2.1484 Y-7.8561 F80.00
G01 X-2.1420 Y-7.8676 F80.00
G01 X-2.1343 Y-7.8784 F80.00
G01 X-2.1272 Y-7.8862 F80.00
G01 X-2.1173 Y-7.8949 F80.00
G01 X-2.1064 Y-7.9024 F80.00
G01 X-2.0994 Y-7.9062 F80.00
G01 X-2.0922 Y-7.9095 F80.00
G01 X-2.0797 Y-7.9138 F80.00
G01 X-2.0720 Y-7.9157 F80.00
G01 X-2.0642 Y-7.9169 F80.00
G01 X-2.0510 Y-7.9177 F80.00
G01 X-1.2510 Y-7.9177 F80.00
G01 X-1.2378 Y-7.9169 F80.00
G01 X-1.2274 Y-7.9151 F80.00
G01 X-1.2172 Y-7.9123 F80.00
G01 X-1.2049 Y-7.9074 F80.00
G01 X-1.1979 Y-7.9038 F80.00
G01 X-1.1911 Y-7.8996 F80.00
G01 X-1.1847 Y-7.8949 F80.00
G01 X-1.1786 Y-7.8898 F80.00
G01 X-1.1694 Y-7.8804 F80.00
G01 X-1.1645 Y-7.8742 F80.00
G01 X-1.1600 Y-7.8676 F80.00
G01 X-1.1560 Y-7.8608 F80.00
G01 X-1.1525 Y-7.8537 F80.00
G01 X-1.1495 Y-7.8463 F80.00
G01 X-1.1472 Y-7.8387 F80.00
G01 X-1.1453 Y-7.8310 F80.00
G01 X-1.1441 Y-7.8232 F80.00
G01 X-1.1433 Y-7.8100 F80.00
G01 X-1.1433 Y-6.1574 F80.00
G01 X-1.1444 Y-6.1442 F80.00
G01 X-1.1465 Y-6.1338 F80.00
G01 X-1.1505 Y-6.1212 F80.00
G01 X-1.1548 Y-6.1116 F80.00
G01 X-1.1614 Y-6.1001 F80.00
G01 X-1.1677 Y-6.0916 F80.00
G01 X-1.1767 Y-6.0820 F80.00
G01 X-1.1868 Y-6.0735 F80.00
G01 X-1.1934 Y-6.0690 F80.00
G01 X-1.2002 Y-6.0650 F80.00
G01 X-1.2073 Y-6.0615 F80.00
G01 X-1.2147 Y-6.0585 F80.00
G01 X-1.2223 Y-6.0562 F80.00
G01 X-1.2300 Y-6.0543 F80.00
G01 X-1.2378 Y-6.0531 F80.00
G01 X-1.2484 Y-6.0523 F80.00
G01 X-2.0510 Y-6.0523 F80.00
G01 X-2.0589 Y-6.0525 F80.00
G01 X-2.0668 Y-6.0534 F80.00
G01 X-2.0746 Y-6.0549 F80.00
G01 X-2.0823 Y-6.0569 F80.00
G01 X-2.0898 Y-6.0595 F80.00
G01 X-2.0971 Y-6.0626 F80.00
G01 X-2.1086 Y-6.0690 F80.00
G01 X-2.1194 Y-6.0767 F80.00
G01 X-2.1290 Y-6.0857 F80.00
G01 X-2.1375 Y-6.0958 F80.00
G01 X-2.1448 Y-6.1069 F80.00
G01 X-2.1484 Y-6.1139 F80.00
G01 X-2.1515 Y-6.1212 F80.00
G01 X-2.1555 Y-6.1338 F80.00
G01 X-2.1579 Y-6.1468 F80.00
G01 X-2.1587 Y-6.1574 F80.00
G01 X-2.1587 Y-6.3691 F80.00
G01 X-3.6329 Y-6.3691 F80.00
G01 X-4.9213 Y-5.0807 F80.00
G01 X-4.9213 Y0.2547 F80.00
G01 X-2.6677 Y2.5083 F80.00
G01 X1.0987 Y2.5083 F80.00
G01 X1.0989 Y1.9521 F80.00
G01 X1.0996 Y1.9442 F80.00
G01 X1.1008 Y1.9364 F80.00
G01 X1.1398 Y1.7400 F80.00
G01 X1.1424 Y1.7297 F80.00
G01 X1.1460 Y1.7198 F80.00
G01 X1.2226 Y1.5349 F80.00
G01 X1.2271 Y1.5253 F80.00
G01 X1.2325 Y1.5163 F80.00
G01 X1.3436 Y1.3499 F80.00
G01 X1.3499 Y1.3414 F80.00
G01 X1.3570 Y1.3335 F80.00
G01 X1.4985 Y1.1920 F80.00
G01 X1.5063 Y1.1849 F80.00
G01 X1.5148 Y1.1786 F80.00
G01 X1.6813 Y1.0673 F80.00
G01 X1.6928 Y1.0607 F80.00
G01 X1.7000 Y1.0573 F80.00
G01 X1.8848 Y0.9808 F80.00
G01 X1.8947 Y0.9773 F80.00
G01 X1.9050 Y0.9747 F80.00
G01 X2.1013 Y0.9356 F80.00
G01 X2.1144 Y0.9338 F80.00
G01 X2.1223 Y0.9336 F80.00
G01 X3.4780 Y0.9337 F80.00
G01 X3.4886 Y0.9342 F80.00
G01 X3.4990 Y0.9357 F80.00
G01 X3.7198 Y0.9796 F80.00
G01 X3.7301 Y0.9822 F80.00
G01 X3.7400 Y0.9858 F80.00
G01 X3.9530 Y1.0741 F80.00
G01 X3.9600 Y1.0778 F80.00
G01 X3.9668 Y1.0819 F80.00
G01 X4.1539 Y1.2070 F80.00
G01 X4.1624 Y1.2133 F80.00
G01 X4.1702 Y1.2204 F80.00
G01 X4.3294 Y1.3796 F80.00
G01 X4.3365 Y1.3874 F80.00
G01 X4.3428 Y1.3959 F80.00
G01 X4.4679 Y1.5831 F80.00
G01 X4.4733 Y1.5922 F80.00
G01 X4.4778 Y1.6017 F80.00
G01 X4.5640 Y1.8096 F80.00
G01 X4.5676 Y1.8196 F80.00
G01 X4.5702 Y1.8299 F80.00
G01 X4.6150 Y2.0559 F80.00
G01 X4.6159 Y2.0638 F80.00
G01 X4.6161 Y2.0717 F80.00
G01 X4.6160 Y4.3342 F80.00
G01 X4.6153 Y4.3421 F80.00
G01 X4.6141 Y4.3499 F80.00
G01 X4.5702 Y4.5707 F80.00
G01 X4.5676 Y4.5810 F80.00
G01 X4.5641 Y4.5909 F80.00
G01 X4.4758 Y4.8038 F80.00
G01 X4.4722 Y4.8109 F80.00
G01 X4.4680 Y4.8177 F80.00
G01 X4.3429 Y5.0049 F80.00
G01 X4.3366 Y5.0134 F80.00
G01 X4.3295 Y5.0212 F80.00
G01 X4.1703 Y5.1804 F80.00
G01 X4.1625 Y5.1875 F80.00
G01 X4.1540 Y5.1938 F80.00
G01 X3.9668 Y5.3189 F80.00
G01 X3.9577 Y5.3243 F80.00
G01 X3.9482 Y5.3288 F80.00
G01 X3.7402 Y5.4150 F80.00
G01 X3.7302 Y5.4186 F80.00
G01 X3.7199 Y5.4212 F80.00
G01 X3.4990 Y5.4651 F80.00
G01 X3.4886 Y5.4666 F80.00
G01 X3.4806 Y5.4671 F80.00
G01 X2.3514 Y5.4671 F80.00
G01 X2.3435 Y5.4669 F80.00
G01 X2.3330 Y5.4656 F80.00
G01 X2.0851 Y5.4163 F80.00
G01 X2.0748 Y5.4137 F80.00
G01 X2.0649 Y5.4101 F80.00
G01 X1.8337 Y5.3143 F80.00
G01 X1.8241 Y5.3098 F80.00
G01 X1.8150 Y5.3044 F80.00
G01 X1.6070 Y5.1654 F80.00
G01 X1.5985 Y5.1591 F80.00
G01 X1.5907 Y5.1520 F80.00
G01 X1.4138 Y4.9751 F80.00
G01 X1.4067 Y4.9673 F80.00
G01 X1.4004 Y4.9588 F80.00
G01 X1.2600 Y4.7486 F80.00
G01 X1.2548 Y4.7394 F80.00
G01 X1.2515 Y4.7322 F80.00
G01 X1.1557 Y4.5011 F80.00
G01 X1.1521 Y4.4911 F80.00
G01 X1.1495 Y4.4808 F80.00
G01 X1.1007 Y4.2354 F80.00
G01 X1.0995 Y4.2276 F80.00
G01 X1.0987 Y4.2144 F80.00
G01 X1.0987 Y3.4861 F80.00
G01 X-2.8702 Y3.4861 F80.00
G01 X-2.9181 Y3.4838 F80.00
G01 X-2.9656 Y3.4767 F80.00
G01 X-3.0121 Y3.4651 F80.00
G01 X-3.0549 Y3.4499 F80.00
G01 X-3.0621 Y3.4468 F80.00
G01 X-3.1007 Y3.4284 F80.00
G01 X-3.1418 Y3.4037 F80.00
G01 X-3.1804 Y3.3752 F80.00
G01 X-3.2159 Y3.3429 F80.00
G01 X-5.7559 Y0.8029 F80.00
G01 X-5.7865 Y0.7694 F80.00
G01 X-5.7914 Y0.7632 F80.00
G01 X-5.8167 Y0.7288 F80.00
G01 X-5.8388 Y0.6923 F80.00
G01 X-5.8438 Y0.6830 F80.00
G01 X-5.8598 Y0.6491 F80.00
G01 X-5.8638 Y0.6394 F80.00
G01 X-5.8781 Y0.5991 F80.00
G01 X-5.8897 Y0.5526 F80.00
G01 X-5.8968 Y0.5051 F80.00
G01 X-5.8991 Y0.4598 F80.00
G01 X-5.8991 Y-5.2832 F80.00
G01 X-5.8968 Y-5.3311 F80.00
G01 X-5.8902 Y-5.3760 F80.00
G01 X-5.8855 Y-5.3959 F80.00
G01 X-5.8773 Y-5.4277 F80.00
G01 X-5.8619 Y-5.4703 F80.00
G01 X-5.8414 Y-5.5137 F80.00
G01 X-5.8196 Y-5.5504 F80.00
G01 X-5.8137 Y-5.5592 F80.00
G01 X-5.7865 Y-5.5954 F80.00
G01 X-5.7559 Y-5.6289 F80.00
G01 X-5.0158 Y-6.3691 F80.00
G01 X-12.8785 Y-6.3691 F80.00
G01 X-15.1013 Y-4.1463 F80.00
G01 X-15.1368 Y-4.1140 F80.00
G01 X-15.1710 Y-4.0885 F80.00
G01 X-15.1798 Y-4.0826 F80.00
G01 X-15.2165 Y-4.0608 F80.00
G01 X-15.2551 Y-4.0424 F80.00
G01 X-15.2648 Y-4.0384 F80.00
G01 X-15.3051 Y-4.0241 F80.00
G01 X-15.3465 Y-4.0136 F80.00
G01 X-15.3542 Y-4.0120 F80.00
G01 X-15.3991 Y-4.0054 F80.00
G01 X-15.4444 Y-4.0031 F80.00
G01 X-15.8094 Y-4.0031 F80.00
G01 X-15.8375 Y-3.8913 F80.00
G01 X-15.8896 Y-3.7455 F80.00
G01 X-15.8936 Y-3.7357 F80.00
G01 X-15.9575 Y-3.6005 F80.00
G01 X-15.9625 Y-3.5912 F80.00
G01 X-16.0422 Y-3.4584 F80.00
G01 X-16.1376 Y-3.3298 F80.00
G01 X-16.2452 Y-3.2112 F80.00
G01 X-16.3598 Y-3.1071 F80.00
G01 X-16.3680 Y-3.1004 F80.00
G01 X-16.4924 Y-3.0082 F80.00
G01 X-16.6252 Y-2.9285 F80.00
G01 X-16.6345 Y-2.9235 F80.00
G01 X-16.7721 Y-2.8585 F80.00
G01 X-16.7795 Y-2.8556 F80.00
G01 X-16.9253 Y-2.8035 F80.00
G01 X-17.0807 Y-2.7646 F80.00
G01 X-17.2391 Y-2.7411 F80.00
G01 X-17.3990 Y-2.7333 F80.00
G01 X-17.5589 Y-2.7411 F80.00
G01 X-17.7173 Y-2.7646 F80.00
G01 X-17.8727 Y-2.8035 F80.00
G01 X-18.0234 Y-2.8575 F80.00
G01 X-18.1682 Y-2.9259 F80.00
G01 X-18.3056 Y-3.0082 F80.00
G01 X-18.4342 Y-3.1036 F80.00
G01 X-18.5528 Y-3.2112 F80.00
G01 X-18.6604 Y-3.3298 F80.00
G01 X-18.7558 Y-3.4584 F80.00
G01 X-18.8381 Y-3.5958 F80.00
G01 X-18.9065 Y-3.7406 F80.00
G01 X-18.9605 Y-3.8913 F80.00
G01 X-18.9994 Y-4.0467 F80.00
G01 X-19.0229 Y-4.2051 F80.00
G01 X-19.0307 Y-4.3650 F80.00
G01 X-19.0229 Y-4.5249 F80.00
G01 X-18.9994 Y-4.6833 F80.00
G01 X-18.9605 Y-4.8387 F80.00
G01 X-18.9065 Y-4.9894 F80.00
G01 X-18.8381 Y-5.1342 F80.00
G01 X-18.7558 Y-5.2716 F80.00
G01 X-18.6604 Y-5.4002 F80.00
G01 X-18.5528 Y-5.5188 F80.00
G01 X-18.4342 Y-5.6264 F80.00
G01 X-18.3056 Y-5.7218 F80.00
G01 X-18.1682 Y-5.8041 F80.00
G01 X-18.0234 Y-5.8725 F80.00
G01 X-17.8727 Y-5.9265 F80.00
G01 X-17.7173 Y-5.9654 F80.00
G01 X-17.5589 Y-5.9889 F80.00
G01 X-17.3990 Y-5.9967 F80.00
G01 X-17.2391 Y-5.9889 F80.00
G01 X-17.0807 Y-5.9654 F80.00
G01 X-16.9253 Y-5.9265 F80.00
G01 X-16.7746 Y-5.8725 F80.00
G01 X-16.6298 Y-5.8041 F80.00
G01 X-16.4924 Y-5.7218 F80.00
G01 X-16.3638 Y-5.6264 F80.00
G01 X-16.2452 Y-5.5188 F80.00
G01 X-16.1376 Y-5.4002 F80.00
G01 X-16.0422 Y-5.2716 F80.00
G01 X-15.9599 Y-5.1342 F80.00
G01 X-15.8936 Y-4.9943 F80.00
G01 X-15.8883 Y-4.9809 F80.00
G00 Z2.0000
G00 X-21.8249 Y6.9850
G01 F150.00
G01 Z-0.1000
G01 F80.00
G01 X-21.8249 Y-4.9530 F80.00
G01 X-21.8230 Y-4.9957 F80.00
G01 X-21.8219 Y-5.0062 F80.00
G01 X-21.8155 Y-5.0484 F80.00
G01 X-21.8053 Y-5.0898 F80.00
G01 X-21.8022 Y-5.1000 F80.00
G01 X-21.7877 Y-5.1401 F80.00
G01 X-21.7696 Y-5.1788 F80.00
G01 X-21.7646 Y-5.1881 F80.00
G01 X-21.7425 Y-5.2246 F80.00
G01 X-21.7172 Y-5.2590 F80.00
G01 X-21.7105 Y-5.2672 F80.00
G01 X-21.6817 Y-5.2987 F80.00
G01 X-17.6177 Y-9.3627 F80.00
G01 X-17.5822 Y-9.3950 F80.00
G01 X-17.5480 Y-9.4205 F80.00
G01 X-17.5392 Y-9.4264 F80.00
G01 X-17.5071 Y-9.4456 F80.00
G01 X-17.4978 Y-9.4506 F80.00
G01 X-17.4591 Y-9.4687 F80.00
G01 X-17.4190 Y-9.4832 F80.00
G01 X-17.4088 Y-9.4863 F80.00
G01 X-17.3725 Y-9.4954 F80.00
G01 X-17.3622 Y-9.4974 F80.00
G01 X-17.3199 Y-9.5036 F80.00
G01 X-17.2746 Y-9.5059 F80.00
G01 X-14.1967 Y-9.5059 F80.00
G01 X-14.1967 Y-9.7016 F80.00
G01 X-14.1962 Y-9.7096 F80.00
G01 X-14.1952 Y-9.7174 F80.00
G01 X-14.1935 Y-9.7252 F80.00
G01 X-14.1905 Y-9.7353 F80.00
G01 X-14.1875 Y-9.7427 F80.00
G01 X-14.1840 Y-9.7498 F80.00
G01 X-14.1800 Y-9.7566 F80.00
G01 X-14.1755 Y-9.7632 F80.00
G01 X-14.1688 Y-9.7714 F80.00
G01 X-14.1633 Y-9.7770 F80.00
G01 X-14.1574 Y-9.7823 F80.00
G01 X-14.1510 Y-9.7871 F80.00
G01 X-14.1444 Y-9.7914 F80.00
G01 X-14.1351 Y-9.7964 F80.00
G01 X-14.1278 Y-9.7995 F80.00
G01 X-14.1203 Y-9.8021 F80.00
G01 X-14.1126 Y-9.8041 F80.00
G01 X-14.1048 Y-9.8056 F80.00
G01 X-14.0969 Y-9.8065 F80.00
G01 X-14.0890 Y-9.8067 F80.00
G01 X-13.0890 Y-9.8067 F80.00
G01 X-13.0758 Y-9.8059 F80.00
G01 X-13.0680 Y-9.8047 F80.00
G01 X-13.0603 Y-9.8028 F80.00
G01 X-13.0527 Y-9.8005 F80.00
G01 X-13.0453 Y-9.7975 F80.00
G01 X-13.0336 Y-9.7914 F80.00
G01 X-13.0227 Y-9.7839 F80.00
G01 X-13.0128 Y-9.7752 F80.00
G01 X-13.0041 Y-9.7653 F80.00
G01 X-12.9966 Y-9.7544 F80.00
G01 X-12.9928 Y-9.7474 F80.00
G01 X-12.9895 Y-9.7402 F80.00
G01 X-12.9852 Y-9.7277 F80.00
G01 X-12.9824 Y-9.7148 F80.00
G01 X-12.9813 Y-9.7016 F80.00
G01 X-12.9813 Y-9.5059 F80.00
G01 X-12.7997 Y-9.5059 F80.00
G01 X-12.7997 Y-9.7016 F80.00
G01 X-12.7992 Y-9.7096 F80.00
G01 X-12.7982 Y-9.7174 F80.00
G01 X-12.7965 Y-9.7252 F80.00
G01 X-12.7935 Y-9.7353 F80.00
G01 X-12.7905 Y-9.7427 F80.00
G01 X-12.7870 Y-9.7498 F80.00
G01 X-12.7830 Y-9.7566 F80.00
G01 X-12.7785 Y-9.7632 F80.00
G01 X-12.7718 Y-9.7714 F80.00
G01 X-12.7663 Y-9.7770 F80.00
G01 X-12.7604 Y-9.7823 F80.00
G01 X-12.7540 Y-9.7871 F80.00
G01 X-12.7474 Y-9.7914 F80.00
G01 X-12.7381 Y-9.7964 F80.00
G01 X-12.7308 Y-9.7995 F80.00
G01 X-12.7233 Y-9.8021 F80.00
G01 X-12.7156 Y-9.8041 F80.00
G01 X-12.7078 Y-9.8056 F80.00
G01 X-12.6999 Y-9.8065 F80.00
G01 X-12.6920 Y-9.8067 F80.00
G01 X-11.6920 Y-9.8067 F80.00
G01 X-11.6788 Y-9.8059 F80.00
G01 X-11.6710 Y-9.8047 F80.00
G01 X-11.6633 Y-9.8028 F80.00
G01 X-11.6557 Y-9.8005 F80.00
G01 X-11.6483 Y-9.7975 F80.00
G01 X-11.6366 Y-9.7914 F80.00
G01 X-11.6257 Y-9.7839 F80.00
G01 X-11.6158 Y-9.7752 F80.00
G01 X-11.6071 Y-9.7653 F80.00
G01 X-11.5996 Y-9.7544 F80.00
G01 X-11.5958 Y-9.7474 F80.00
G01 X-11.5925 Y-9.7402 F80.00
G01 X-11.5882 Y-9.7277 F80.00
G01 X-11.5854 Y-9.7148 F80.00
G01 X-11.5843 Y-9.7016 F80.00
G01 X-11.5843 Y-9.5059 F80.00
G01 X-11.2997 Y-9.5059 F80.00
G01 X-11.2997 Y-9.7016 F80.00
G01 X-11.2992 Y-9.7096 F80.00
G01 X-11.2982 Y-9.7174 F80.00
G01 X-11.2965 Y-9.7252 F80.00
G01 X-11.2935 Y-9.7353 F80.00
G01 X-11.2905 Y-9.7427 F80.00
G01 X-11.2870 Y-9.7498 F80.00
G01 X-11.2830 Y-9.7566 F80.00
G01 X-11.2785 Y-9.7632 F80.00
G01 X-11.2718 Y-9.7714 F80.00
G01 X-11.2663 Y-9.7770 F80.00
G01 X-11.2604 Y-9.7823 F80.00
G01 X-11.2540 Y-9.7871 F80.00
G01 X-11.2474 Y-9.7914 F80.00
G01 X-11.2381 Y-9.7964 F80.00
G01 X-11.2308 Y-9.7995 F80.00
G01 X-11.2233 Y-9.8021 F80.00
G01 X-11.2156 Y-9.8041 F80.00
G01 X-11.2078 Y-9.8056 F80.00
G01 X-11.1999 Y-9.8065 F80.00
G01 X-11.1920 Y-9.8067 F80.00
G01 X-10.1920 Y-9.8067 F80.00
G01 X-10.1788 Y-9.8059 F80.00
G01 X-10.1710 Y-9.8047 F80.00
G01 X-10.1633 Y-9.8028 F80.00
G01 X-10.1557 Y-9.8005 F80.00
G01 X-10.1483 Y-9.7975 F80.00
G01 X-10.1366 Y-9.7914 F80.00
G01 X-10.1257 Y-9.7839 F80.00
G01 X-10.1158 Y-9.7752 F80.00
G01 X-10.1071 Y-9.7653 F80.00
G01 X-10.0996 Y-9.7544 F80.00
G01 X-10.0958 Y-9.7474 F80.00
G01 X-10.0925 Y-9.7402 F80.00
G01 X-10.0882 Y-9.7277 F80.00
G01 X-10.0854 Y-9.7148 F80.00
G01 X-10.0843 Y-9.7016 F80.00
G01 X-10.0843 Y-9.5059 F80.00
G01 X-8.4575 Y-9.5059 F80.00
G01 X-4.4097 Y-13.5537 F80.00
G01 X-4.3742 Y-13.5860 F80.00
G01 X-4.3400 Y-13.6115 F80.00
G01 X-4.3312 Y-13.6174 F80.00
G01 X-4.2991 Y-13.6366 F80.00
G01 X-4.2898 Y-13.6416 F80.00
G01 X-4.2511 Y-13.6597 F80.00
G01 X-4.2059 Y-13.6759 F80.00
G01 X-4.1645 Y-13.6864 F80.00
G01 X-4.1542 Y-13.6884 F80.00
G01 X-4.1119 Y-13.6946 F80.00
G01 X-4.0693 Y-13.6968 F80.00
G01 X-2.4097 Y-13.6969 F80.00
G01 X-2.4097 Y-13.8926 F80.00
G01 X-2.4092 Y-13.9006 F80.00
G01 X-2.4082 Y-13.9084 F80.00
G01 X-2.4058 Y-13.9187 F80.00
G01 X-2.4035 Y-13.9263 F80.00
G01 X-2.4005 Y-13.9337 F80.00
G01 X-2.3970 Y-13.9408 F80.00
G01 X-2.3930 Y-13.9476 F80.00
G01 X-2.3869 Y-13.9563 F80.00
G01 X-2.3818 Y-13.9624 F80.00
G01 X-2.3763 Y-13.9680 F80.00
G01 X-2.3704 Y-13.9733 F80.00
G01 X-2.3640 Y-13.9781 F80.00
G01 X-2.3574 Y-13.9824 F80.00
G01 X-2.3481 Y-13.9874 F80.00
G01 X-2.3408 Y-13.9905 F80.00
G01 X-2.3333 Y-13.9931 F80.00
G01 X-2.3256 Y-13.9951 F80.00
G01 X-2.3178 Y-13.9966 F80.00
G01 X-2.3099 Y-13.9975 F80.00
G01 X-2.3020 Y-13.9977 F80.00
G01 X-1.3020 Y-13.9977 F80.00
G01 X-1.2888 Y-13.9969 F80.00
G01 X-1.2810 Y-13.9957 F80.00
G01 X-1.2733 Y-13.9938 F80.00
G01 X-1.2608 Y-13.9895 F80.00
G01 X-1.2536 Y-13.9862 F80.00
G01 X-1.2466 Y-13.9824 F80.00
G01 X-1.2357 Y-13.9749 F80.00
G01 X-1.2258 Y-13.9662 F80.00
G01 X-1.2171 Y-13.9563 F80.00
G01 X-1.2124 Y-13.9499 F80.00
G01 X-1.2082 Y-13.9431 F80.00
G01 X-1.2025 Y-13.9312 F80.00
G01 X-1.1982 Y-13.9187 F80.00
G01 X-1.1954 Y-13.9058 F80.00
G01 X-1.1943 Y-13.8926 F80.00
G01 X-1.1943 Y-13.6969 F80.00
G01 X-1.0127 Y-13.6969 F80.00
G01 X-1.0127 Y-13.8926 F80.00
G01 X-1.0122 Y-13.9006 F80.00
G01 X-1.0112 Y-13.9084 F80.00
G01 X-1.0095 Y-13.9162 F80.00
G01 X-1.0073 Y-13.9238 F80.00
G01 X-1.0045 Y-13.9312 F80.00
G01 X-1.0012 Y-13.9384 F80.00
G01 X-0.9974 Y-13.9454 F80.00
G01 X-0.9931 Y-13.9520 F80.00
G01 X-0.9883 Y-13.9584 F80.00
G01 X-0.9830 Y-13.9643 F80.00
G01 X-0.9774 Y-13.9698 F80.00
G01 X-0.9713 Y-13.9749 F80.00
G01 X-0.9604 Y-13.9824 F80.00
G01 X-0.9534 Y-13.9862 F80.00
G01 X-0.9462 Y-13.9895 F80.00
G01 X-0.9388 Y-13.9923 F80.00
G01 X-0.9312 Y-13.9945 F80.00
G01 X-0.9234 Y-13.9962 F80.00
G01 X-0.9156 Y-13.9972 F80.00
G01 X-0.9050 Y-13.9977 F80.00
G01 X0.0950 Y-13.9977 F80.00
G01 X0.1082 Y-13.9969 F80.00
G01 X0.1186 Y-13.9951 F80.00
G01 X0.1313 Y-13.9915 F80.00
G01 X0.1387 Y-13.9885 F80.00
G01 X0.1458 Y-13.9850 F80.00
G01 X0.1570 Y-13.9781 F80.00
G01 X0.1634 Y-13.9733 F80.00
G01 X0.1693 Y-13.9680 F80.00
G01 X0.1783 Y-13.9584 F80.00
G01 X0.1831 Y-13.9520 F80.00
G01 X0.1874 Y-13.9454 F80.00
G01 X0.1935 Y-13.9337 F80.00
G01 X0.1965 Y-13.9263 F80.00
G01 X0.1988 Y-13.9187 F80.00
G01 X0.2016 Y-13.9058 F80.00
G01 X0.2027 Y-13.8926 F80.00
G01 X0.2027 Y-13.6969 F80.00
G01 X0.4873 Y-13.6969 F80.00
G01 X0.4873 Y-13.8926 F80.00
G01 X0.4884 Y-13.9058 F80.00
G01 X0.4912 Y-13.9187 F80.00
G01 X0.4935 Y-13.9263 F80.00
G01 X0.4965 Y-13.9337 F80.00
G01 X0.5026 Y-13.9454 F80.00
G01 X0.5101 Y-13.9563 F80.00
G01 X0.5188 Y-13.9662 F80.00
G01 X0.5287 Y-13.9749 F80.00
G01 X0.5396 Y-13.9824 F80.00
G01 X0.5466 Y-13.9862 F80.00
G01 X0.5538 Y-13.9895 F80.00
G01 X0.5663 Y-13.9938 F80.00
G01 X0.5740 Y-13.9957 F80.00
G01 X0.5818 Y-13.9969 F80.00
G01 X0.5950 Y-13.9977 F80.00
G01 X1.5950 Y-13.9977 F80.00
G01 X1.6029 Y-13.9975 F80.00
G01 X1.6108 Y-13.9966 F80.00
G01 X1.6186 Y-13.9951 F80.00
G01 X1.6263 Y-13.9931 F80.00
G01 X1.6338 Y-13.9905 F80.00
G01 X1.6411 Y-13.9874 F80.00
G01 X1.6481 Y-13.9838 F80.00
G01 X1.6549 Y-13.9796 F80.00
G01 X1.6613 Y-13.9749 F80.00
G01 X1.6674 Y-13.9698 F80.00
G01 X1.6730 Y-13.9643 F80.00
G01 X1.6783 Y-13.9584 F80.00
G01 X1.6831 Y-13.9520 F80.00
G01 X1.6874 Y-13.9454 F80.00
G01 X1.6912 Y-13.9384 F80.00
G01 X1.6945 Y-13.9312 F80.00
G01 X1.6973 Y-13.9238 F80.00
G01 X1.6995 Y-13.9162 F80.00
G01 X1.7012 Y-13.9084 F80.00
G01 X1.7022 Y-13.9006 F80.00
G01 X1.7027 Y-13.8926 F80.00
G01 X1.7027 Y-13.6969 F80.00
G01 X2.1590 Y-13.6969 F80.00
G01 X2.2043 Y-13.6948 F80.00
G01 X2.2122 Y-13.6939 F80.00
G01 X2.2544 Y-13.6875 F80.00
G01 X2.3009 Y-13.6759 F80.00
G01 X2.3461 Y-13.6597 F80.00
G01 X2.3871 Y-13.6404 F80.00
G01 X2.4262 Y-13.6174 F80.00
G01 X2.4350 Y-13.6115 F80.00
G01 X2.4692 Y-13.5860 F80.00
G01 X2.5047 Y-13.5537 F80.00
G01 X6.6795 Y-9.3789 F80.00
G01 X8.1553 Y-9.3789 F80.00
G01 X8.1553 Y-9.5926 F80.00
G01 X8.1558 Y-9.6006 F80.00
G01 X8.1568 Y-9.6084 F80.00
G01 X8.1585 Y-9.6162 F80.00
G01 X8.1607 Y-9.6238 F80.00
G01 X8.1635 Y-9.6312 F80.00
G01 X8.1668 Y-9.6384 F80.00
G01 X8.1706 Y-9.6454 F80.00
G01 X8.1749 Y-9.6520 F80.00
G01 X8.1797 Y-9.6584 F80.00
G01 X8.1850 Y-9.6643 F80.00
G01 X8.1906 Y-9.6698 F80.00
G01 X8.1967 Y-9.6749 F80.00
G01 X8.2031 Y-9.6796 F80.00
G01 X8.2099 Y-9.6838 F80.00
G01 X8.2169 Y-9.6874 F80.00
G01 X8.2267 Y-9.6915 F80.00
G01 X8.2343 Y-9.6938 F80.00
G01 X8.2420 Y-9.6957 F80.00
G01 X8.2498 Y-9.6969 F80.00
G01 X8.2577 Y-9.6976 F80.00
G01 X9.2630 Y-9.6977 F80.00
G01 X9.2762 Y-9.6969 F80.00
G01 X9.2840 Y-9.6957 F80.00
G01 X9.2917 Y-9.6938 F80.00
G01 X9.3042 Y-9.6895 F80.00
G01 X9.3114 Y-9.6862 F80.00
G01 X9.3184 Y-9.6824 F80.00
G01 X9.3293 Y-9.6749 F80.00
G01 X9.3354 Y-9.6698 F80.00
G01 X9.3410 Y-9.6643 F80.00
G01 X9.3495 Y-9.6542 F80.00
G01 X9.3540 Y-9.6476 F80.00
G01 X9.3580 Y-9.6408 F80.00
G01 X9.3635 Y-9.6288 F80.00
G01 X9.3675 Y-9.6162 F80.00
G01 X9.3699 Y-9.6032 F80.00
G01 X9.3707 Y-9.5926 F80.00
G01 X9.3707 Y-9.3789 F80.00
G01 X9.5523 Y-9.3789 F80.00
G01 X9.5523 Y-9.5926 F80.00
G01 X9.5528 Y-9.6006 F80.00
G01 X9.5538 Y-9.6084 F80.00
G01 X9.5569 Y-9.6213 F80.00
G01 X9.5595 Y-9.6288 F80.00
G01 X9.5626 Y-9.6361 F80.00
G01 X9.5662 Y-9.6431 F80.00
G01 X9.5704 Y-9.6499 F80.00
G01 X9.5751 Y-9.6563 F80.00
G01 X9.5802 Y-9.6624 F80.00
G01 X9.5857 Y-9.6680 F80.00
G01 X9.5916 Y-9.6733 F80.00
G01 X9.5980 Y-9.6781 F80.00
G01 X9.6046 Y-9.6824 F80.00
G01 X9.6116 Y-9.6862 F80.00
G01 X9.6188 Y-9.6895 F80.00
G01 X9.6262 Y-9.6923 F80.00
G01 X9.6338 Y-9.6945 F80.00
G01 X9.6416 Y-9.6962 F80.00
G01 X9.6494 Y-9.6972 F80.00
G01 X9.6600 Y-9.6977 F80.00
G01 X10.6600 Y-9.6977 F80.00
G01 X10.6732 Y-9.6969 F80.00
G01 X10.6810 Y-9.6957 F80.00
G01 X10.6887 Y-9.6938 F80.00
G01 X10.7012 Y-9.6895 F80.00
G01 X10.7084 Y-9.6862 F80.00
G01 X10.7154 Y-9.6824 F80.00
G01 X10.7263 Y-9.6749 F80.00
G01 X10.7324 Y-9.6698 F80.00
G01 X10.7380 Y-9.6643 F80.00
G01 X10.7465 Y-9.6542 F80.00
G01 X10.7510 Y-9.6476 F80.00
G01 X10.7550 Y-9.6408 F80.00
G01 X10.7605 Y-9.6288 F80.00
G01 X10.7645 Y-9.6162 F80.00
G01 X10.7669 Y-9.6032 F80.00
G01 X10.7677 Y-9.5926 F80.00
G01 X10.7677 Y-9.3789 F80.00
G01 X11.0523 Y-9.3789 F80.00
G01 X11.0523 Y-9.5926 F80.00
G01 X11.0534 Y-9.6058 F80.00
G01 X11.0562 Y-9.6187 F80.00
G01 X11.0605 Y-9.6312 F80.00
G01 X11.0638 Y-9.6384 F80.00
G01 X11.0676 Y-9.6454 F80.00
G01 X11.0719 Y-9.6520 F80.00
G01 X11.0767 Y-9.6584 F80.00
G01 X11.0820 Y-9.6643 F80.00
G01 X11.0876 Y-9.6698 F80.00
G01 X11.0937 Y-9.6749 F80.00
G01 X11.1001 Y-9.6796 F80.00
G01 X11.1069 Y-9.6838 F80.00
G01 X11.1139 Y-9.6874 F80.00
G01 X11.1212 Y-9.6905 F80.00
G01 X11.1287 Y-9.6931 F80.00
G01 X11.1416 Y-9.6962 F80.00
G01 X11.1521 Y-9.6975 F80.00
G01 X11.1600 Y-9.6977 F80.00
G01 X12.1653 Y-9.6976 F80.00
G01 X12.1732 Y-9.6969 F80.00
G01 X12.1810 Y-9.6957 F80.00
G01 X12.1938 Y-9.6923 F80.00
G01 X12.2012 Y-9.6895 F80.00
G01 X12.2084 Y-9.6862 F80.00
G01 X12.2199 Y-9.6796 F80.00
G01 X12.2304 Y-9.6716 F80.00
G01 X12.2362 Y-9.6662 F80.00
G01 X12.2416 Y-9.6604 F80.00
G01 X12.2465 Y-9.6542 F80.00
G01 X12.2510 Y-9.6476 F80.00
G01 X12.2574 Y-9.6361 F80.00
G01 X12.2623 Y-9.6238 F80.00
G01 X12.2651 Y-9.6136 F80.00
G01 X12.2669 Y-9.6032 F80.00
G01 X12.2677 Y-9.5900 F80.00
G01 X12.2676 Y-8.1847 F80.00
G01 X12.2669 Y-8.1768 F80.00
G01 X12.2651 Y-8.1664 F80.00
G01 X12.2631 Y-8.1587 F80.00
G01 X12.2605 Y-8.1512 F80.00
G01 X12.2574 Y-8.1439 F80.00
G01 X12.2524 Y-8.1346 F80.00
G01 X12.2481 Y-8.1280 F80.00
G01 X12.2416 Y-8.1196 F80.00
G01 X12.2362 Y-8.1138 F80.00
G01 X12.2304 Y-8.1084 F80.00
G01 X12.2242 Y-8.1035 F80.00
G01 X12.2154 Y-8.0976 F80.00
G01 X12.2061 Y-8.0926 F80.00
G01 X12.1988 Y-8.0895 F80.00
G01 X12.1913 Y-8.0869 F80.00
G01 X12.1810 Y-8.0843 F80.00
G01 X12.1706 Y-8.0828 F80.00
G01 X12.1600 Y-8.0823 F80.00
G01 X11.1600 Y-8.0823 F80.00
G01 X11.1468 Y-8.0831 F80.00
G01 X11.1390 Y-8.0843 F80.00
G01 X11.1313 Y-8.0862 F80.00
G01 X11.1188 Y-8.0905 F80.00
G01 X11.1116 Y-8.0938 F80.00
G01 X11.1046 Y-8.0976 F80.00
G01 X11.0937 Y-8.1051 F80.00
G01 X11.0876 Y-8.1102 F80.00
G01 X11.0820 Y-8.1157 F80.00
G01 X11.0735 Y-8.1258 F80.00
G01 X11.0690 Y-8.1324 F80.00
G01 X11.0650 Y-8.1392 F80.00
G01 X11.0595 Y-8.1512 F80.00
G01 X11.0555 Y-8.1638 F80.00
G01 X11.0531 Y-8.1768 F80.00
G01 X11.0523 Y-8.1874 F80.00
G01 X11.0523 Y-8.4011 F80.00
G01 X10.7677 Y-8.4011 F80.00
G01 X10.7677 Y-8.1874 F80.00
G01 X10.7672 Y-8.1794 F80.00
G01 X10.7662 Y-8.1716 F80.00
G01 X10.7631 Y-8.1587 F80.00
G01 X10.7605 Y-8.1512 F80.00
G01 X10.7574 Y-8.1439 F80.00
G01 X10.7538 Y-8.1369 F80.00
G01 X10.7496 Y-8.1301 F80.00
G01 X10.7449 Y-8.1237 F80.00
G01 X10.7398 Y-8.1176 F80.00
G01 X10.7343 Y-8.1120 F80.00
G01 X10.7284 Y-8.1067 F80.00
G01 X10.7220 Y-8.1019 F80.00
G01 X10.7154 Y-8.0976 F80.00
G01 X10.7084 Y-8.0938 F80.00
G01 X10.7012 Y-8.0905 F80.00
G01 X10.6887 Y-8.0862 F80.00
G01 X10.6810 Y-8.0843 F80.00
G01 X10.6732 Y-8.0831 F80.00
G01 X10.6600 Y-8.0823 F80.00
G01 X9.6600 Y-8.0823 F80.00
G01 X9.6468 Y-8.0831 F80.00
G01 X9.6338 Y-8.0855 F80.00
G01 X9.6212 Y-8.0895 F80.00
G01 X9.6139 Y-8.0926 F80.00
G01 X9.6069 Y-8.0962 F80.00
G01 X9.6001 Y-8.1004 F80.00
G01 X9.5937 Y-8.1051 F80.00
G01 X9.5838 Y-8.1138 F80.00
G01 X9.5751 Y-8.1237 F80.00
G01 X9.5704 Y-8.1301 F80.00
G01 X9.5662 Y-8.1369 F80.00
G01 X9.5626 Y-8.1439 F80.00
G01 X9.5595 Y-8.1512 F80.00
G01 X9.5555 Y-8.1638 F80.00
G01 X9.5531 Y-8.1768 F80.00
G01 X9.5523 Y-8.1874 F80.00
G01 X9.5523 Y-8.4011 F80.00
G01 X9.3707 Y-8.4011 F80.00
G01 X9.3707 Y-8.1874 F80.00
G01 X9.3696 Y-8.1742 F80.00
G01 X9.3675 Y-8.1638 F80.00
G01 X9.3635 Y-8.1512 F80.00
G01 X9.3580 Y-8.1392 F80.00
G01 X9.3511 Y-8.1280 F80.00
G01 X9.3463 Y-8.1216 F80.00
G01 X9.3410 Y-8.1157 F80.00
G01 X9.3314 Y-8.1067 F80.00
G01 X9.3250 Y-8.1019 F80.00
G01 X9.3184 Y-8.0976 F80.00
G01 X9.3114 Y-8.0938 F80.00
G01 X9.3042 Y-8.0905 F80.00
G01 X9.2917 Y-8.0862 F80.00
G01 X9.2840 Y-8.0843 F80.00
G01 X9.2762 Y-8.0831 F80.00
G01 X9.2630 Y-8.0823 F80.00
G01 X8.2630 Y-8.0823 F80.00
G01 X8.2551 Y-8.0825 F80.00
G01 X8.2472 Y-8.0834 F80.00
G01 X8.2394 Y-8.0849 F80.00
G01 X8.2292 Y-8.0877 F80.00
G01 X8.2218 Y-8.0905 F80.00
G01 X8.2122 Y-8.0950 F80.00
G01 X8.2054 Y-8.0990 F80.00
G01 X8.1988 Y-8.1035 F80.00
G01 X8.1926 Y-8.1084 F80.00
G01 X8.1868 Y-8.1138 F80.00
G01 X8.1814 Y-8.1196 F80.00
G01 X8.1765 Y-8.1258 F80.00
G01 X8.1720 Y-8.1324 F80.00
G01 X8.1668 Y-8.1416 F80.00
G01 X8.1635 Y-8.1488 F80.00
G01 X8.1607 Y-8.1562 F80.00
G01 X8.1585 Y-8.1638 F80.00
G01 X8.1568 Y-8.1716 F80.00
G01 X8.1558 Y-8.1794 F80.00
G01 X8.1553 Y-8.1874 F80.00
G01 X8.1553 Y-8.4011 F80.00
G01 X6.4770 Y-8.4011 F80.00
G01 X6.4291 Y-8.4034 F80.00
G01 X6.3816 Y-8.4105 F80.00
G01 X6.3351 Y-8.4221 F80.00
G01 X6.2948 Y-8.4364 F80.00
G01 X6.2851 Y-8.4404 F80.00
G01 X6.2465 Y-8.4588 F80.00
G01 X6.2098 Y-8.4806 F80.00
G01 X6.2010 Y-8.4865 F80.00
G01 X6.1668 Y-8.5120 F80.00
G01 X6.1332 Y-8.5424 F80.00
G01 X1.9565 Y-12.7191 F80.00
G01 X1.7027 Y-12.7191 F80.00
G01 X1.7027 Y-12.4874 F80.00
G01 X1.7022 Y-12.4794 F80.00
G01 X1.7012 Y-12.4716 F80.00
G01 X1.6995 Y-12.4638 F80.00
